<?xml version="1.0" encoding="UTF-8"?>
<map version="1.10" tiledversion="1.10.2" orientation="orthogonal" renderorder="right-down" width="96" height="96" tilewidth="32" tileheight="32" infinite="0" nextlayerid="5" nextobjectid="2">
 <tileset firstgid="1" source="overworld.tsx"/>
 <layer id="1" name="Ground" width="96" height="96">
  <data encoding="csv">
8,8,8,8,8,8,41,25,33,27,30,30,31,33,34,35,8,8,8,8,8,62,62,62,64,62,66,2,2,2,62,62,62,62,62,67,62,62,62,62,62,62,62,62,62,62,62,157,157,157,157,157,157,157,157,157,157,157,157,157,157,157,157,157,157,157,157,157,157,157,157,157,157,157,157,157,157,157,157,157,157,157,157,157,157,157,157,157,157,157,157,157,157,157,157,157,
8,8,8,8,8,8,8,41,36,31,34,41,40,38,29,8,8,8,8,8,8,62,62,62,62,4,2,2,2,2,62,62,62,73,62,62,62,62,62,62,62,62,62,62,62,62,62,157,157,157,157,157,157,157,157,157,157,157,157,157,157,157,157,157,157,157,157,157,157,157,157,157,157,157,157,157,157,157,157,157,157,157,157,157,157,157,157,157,157,157,157,157,157,157,157,157,
8,8,8,8,8,8,8,8,8,36,36,37,33,25,34,8,8,8,8,8,8,62,62,62,2,2,3,3,2,4,62,62,62,62,62,62,62,62,62,62,62,62,62,62,62,62,62,62,157,157,157,157,157,157,157,157,157,157,157,157,157,157,157,157,157,157,157,157,157,157,157,157,157,157,157,157,157,157,157,157,157,157,157,157,157,157,157,157,157,157,157,157,157,157,157,157,
8,8,8,8,8,8,8,8,8,8,8,27,40,40,8,8,8,8,8,8,62,62,2,2,2,4,2,2,3,3,62,72,62,62,62,62,67,62,62,62,62,62,62,62,62,62,77,62,68,157,157,157,157,157,157,157,157,157,157,157,157,157,157,157,157,157,157,157,157,157,157,157,157,157,157,157,157,157,157,157,157,157,157,157,157,157,157,157,157,157,157,157,157,157,157,157,
8,8,8,8,8,8,8,8,8,8,8,8,8,8,8,8,8,8,8,8,62,62,2,2,2,2,2,2,4,62,62,62,62,62,62,62,62,62,62,62,62,62,62,62,62,62,77,62,62,75,157,157,157,157,157,157,157,157,157,157,157,157,157,157,157,157,157,157,157,157,157,157,157,157,157,157,157,157,157,157,157,157,157,157,157,157,157,157,157,157,157,157,157,157,157,157,
8,8,8,8,8,8,8,8,8,8,8,8,8,8,8,8,8,8,8,62,62,62,2,2,4,3,62,62,62,62,62,62,62,62,62,72,62,62,62,68,62,62,62,62,62,62,64,62,62,66,157,157,157,157,157,157,157,157,157,157,157,157,157,157,157,157,157,157,157,157,157,157,157,157,157,157,157,157,157,157,157,157,157,157,157,157,157,157,157,157,157,157,157,157,157,157,
8,8,8,8,8,8,8,8,8,8,8,8,8,8,8,8,8,8,8,62,62,62,62,62,62,69,62,62,62,62,62,62,68,62,62,62,62,62,62,62,62,62,62,62,71,62,62,69,62,62,157,157,157,157,157,157,157,157,157,157,157,157,157,157,157,157,157,157,157,157,157,157,157,157,157,157,157,157,157,157,157,157,157,157,157,157,157,157,157,157,157,157,157,157,157,157,
8,8,8,8,8,8,8,8,8,8,8,8,8,8,8,8,8,8,62,62,62,62,62,62,62,62,62,62,71,69,62,62,62,62,62,62,62,77,62,62,62,70,62,62,62,62,62,62,62,62,62,62,157,157,157,157,157,157,157,157,157,157,157,157,157,157,157,157,157,157,157,157,157,157,157,157,157,157,157,157,157,157,157,157,157,157,157,157,157,157,157,157,157,157,157,157,
8,8,8,8,8,8,8,8,8,8,8,8,8,8,8,8,8,8,62,62,62,62,62,62,62,62,62,62,62,62,62,62,62,62,2,2,2,62,62,64,62,69,62,62,62,62,71,62,62,62,72,62,76,157,157,157,157,157,157,157,157,157,157,157,157,157,157,157,157,157,157,157,157,157,157,157,157,157,157,157,157,157,157,157,157,157,157,157,157,157,157,157,157,157,157,157,
8,8,8,8,8,8,8,8,8,8,8,8,8,8,8,8,62,62,62,62,69,62,62,62,62,62,62,62,62,62,62,2,4,2,2,2,2,62,62,62,72,62,69,62,62,62,62,62,62,62,71,62,62,62,157,157,157,157,157,157,157,157,157,157,157,157,157,157,157,157,157,157,157,157,157,157,157,157,157,157,157,157,157,157,157,157,157,157,157,157,157,157,157,157,157,157,
8,8,8,8,8,8,8,8,8,8,8,8,8,8,8,62,62,2,2,4,2,2,4,2,62,62,62,62,72,62,2,2,2,2,2,2,2,62,62,68,65,62,62,2,2,2,62,62,62,62,62,63,62,62,77,157,157,157,157,157,157,157,157,157,157,157,157,157,157,157,157,157,157,157,157,157,157,157,157,157,157,157,157,157,157,157,157,157,157,157,157,157,157,157,157,157,
8,8,8,8,8,8,8,8,8,8,8,8,8,8,62,62,62,2,2,4,2,2,2,2,62,62,62,62,62,62,2,2,2,2,2,4,62,62,62,62,71,62,62,2,3,2,3,3,74,62,62,62,62,62,62,68,62,157,157,157,157,157,157,157,157,157,157,157,157,157,157,157,157,157,157,157,157,157,157,157,157,157,157,157,157,157,157,157,157,157,157,157,157,157,157,157,
8,8,8,8,8,8,8,8,8,8,8,8,8,62,62,68,69,2,2,2,2,2,2,2,62,62,62,77,62,2,2,4,3,2,4,2,62,62,62,62,67,62,62,2,2,2,2,2,62,62,62,62,62,62,62,62,62,62,157,157,157,157,157,157,157,157,157,157,157,157,157,157,157,157,157,157,157,157,157,157,157,157,157,157,157,157,157,157,157,157,157,157,157,157,157,157,
8,8,8,8,8,8,8,8,8,8,8,8,62,74,62,62,62,62,62,2,4,2,2,4,62,62,62,62,62,2,2,2,2,2,2,62,62,62,62,62,62,62,62,2,2,2,2,2,72,62,71,62,62,69,62,62,62,62,157,157,157,157,157,157,157,157,157,157,157,157,157,157,157,157,157,157,157,157,157,157,157,157,157,157,157,157,157,157,157,157,157,157,157,157,157,157,
8,8,8,8,8,8,8,8,8,8,8,62,62,62,62,62,69,62,62,2,2,2,2,2,2,62,65,62,62,2,4,2,62,62,62,62,62,62,62,62,62,62,62,72,62,2,2,2,2,2,62,62,72,62,62,62,62,62,62,157,157,157,157,157,157,157,157,157,157,157,157,157,157,157,157,157,157,157,157,157,157,157,157,157,157,157,157,157,157,157,157,157,157,157,157,157,
8,8,8,8,8,8,8,8,8,8,62,62,62,62,62,62,62,62,62,62,62,2,2,2,3,62,62,62,62,73,66,62,62,74,62,62,62,62,62,62,62,73,62,62,62,62,2,2,2,2,2,62,62,62,62,62,62,62,62,157,157,157,157,157,157,157,157,157,157,157,157,157,157,157,157,157,157,157,157,157,157,157,157,157,157,157,157,157,157,157,157,157,157,157,157,157,
8,8,8,8,8,8,8,8,8,62,62,62,62,62,71,62,62,62,62,62,62,2,2,2,2,62,62,62,62,62,62,62,62,62,62,62,62,62,62,62,62,73,62,65,62,62,4,2,3,3,2,62,62,62,62,62,62,62,62,62,66,157,157,157,157,157,157,157,157,157,157,157,157,157,157,157,157,157,157,157,157,157,157,157,157,157,157,157,157,157,157,157,157,157,157,157,
8,8,8,8,8,8,8,8,8,62,62,62,62,62,62,62,62,62,75,62,62,62,62,62,62,62,62,62,62,62,62,62,62,62,62,62,62,62,62,62,62,68,62,62,62,64,62,77,2,2,2,62,62,62,62,62,62,62,62,62,62,62,157,157,157,157,157,157,157,157,157,157,157,157,157,157,157,157,157,157,157,157,157,157,157,157,157,157,157,157,157,157,157,157,157,157,
8,8,8,8,8,8,8,8,8,62,62,62,62,62,62,62,62,62,62,62,62,62,62,62,62,62,62,62,62,62,62,62,62,62,76,62,62,62,62,65,62,62,62,62,66,62,62,62,62,62,62,62,62,62,62,62,62,62,62,62,62,76,157,157,157,157,157,157,157,157,157,157,157,157,157,157,157,157,157,157,157,157,157,157,157,157,157,157,157,157,157,157,157,157,157,157,
8,8,8,8,8,8,8,8,72,62,62,62,62,62,62,62,62,62,74,76,62,77,62,62,64,62,62,62,62,62,71,62,62,62,62,62,62,62,62,62,62,62,62,62,62,62,71,62,62,77,62,62,62,62,62,62,62,62,62,62,62,62,157,157,157,157,157,157,157,157,157,157,157,157,157,157,157,157,157,157,157,157,157,157,157,157,157,157,157,157,157,157,157,157,157,157,
8,8,8,8,8,8,8,62,68,74,62,62,62,62,62,62,62,62,77,62,62,62,62,62,62,62,62,62,74,62,62,62,62,62,62,62,62,71,62,62,62,62,70,62,62,62,65,62,62,65,62,62,62,62,62,62,62,77,62,62,62,62,157,157,157,157,157,157,157,157,157,157,157,157,157,157,157,157,157,157,157,157,157,157,157,157,157,157,157,157,157,157,157,157,157,157,
8,8,8,8,8,8,62,62,66,64,62,62,62,62,62,32,32,32,62,74,62,62,76,62,62,62,62,62,62,62,62,62,68,37,27,38,33,25,62,62,62,62,62,62,62,62,62,62,62,72,62,75,62,62,68,62,62,62,62,62,62,62,157,157,157,157,157,157,157,157,157,157,157,157,157,157,157,157,157,157,157,157,157,157,157,157,157,157,157,157,157,157,157,157,157,157,
8,8,8,8,8,62,62,75,62,62,62,62,62,62,62,39,27,30,32,62,62,62,62,62,69,62,62,75,69,62,62,27,38,35,28,37,37,34,62,62,62,62,62,62,62,62,62,62,62,62,62,62,62,62,70,62,62,62,62,62,62,62,74,157,157,157,157,157,157,157,157,157,157,157,157,157,157,157,157,157,157,157,157,157,157,157,157,157,157,157,157,157,157,157,157,157,
8,8,8,8,62,62,62,62,62,62,62,62,62,62,62,26,37,32,30,30,35,62,62,62,62,62,62,63,62,73,25,27,31,36,30,39,32,41,62,62,62,62,62,62,62,62,62,62,70,62,62,62,62,62,62,66,62,62,62,62,62,62,62,76,157,157,157,157,157,157,157,157,157,157,157,157,157,157,157,157,157,157,157,157,157,157,157,157,157,157,157,157,157,157,157,157,
8,8,62,72,62,62,62,62,62,62,62,62,62,62,62,40,26,33,30,35,33,62,62,62,62,62,62,62,62,62,28,30,33,28,25,62,62,62,66,62,62,62,62,62,62,62,62,62,62,62,62,62,62,62,62,65,62,62,62,62,62,62,62,68,157,157,157,157,157,157,157,157,157,157,157,157,157,157,157,157,157,157,157,157,157,157,157,157,157,157,157,157,157,157,157,157,
62,62,62,64,62,62,62,62,62,62,62,62,72,62,62,62,62,26,29,40,36,62,62,62,62,62,62,66,76,62,33,29,38,62,62,62,62,62,62,62,62,62,62,62,62,75,62,62,62,62,62,62,62,62,62,62,62,62,62,62,62,62,62,62,157,157,157,157,157,157,157,157,157,157,157,157,157,157,157,157,157,157,157,157,157,157,157,157,157,157,157,157,157,157,157,157,
62,62,62,64,62,62,62,62,62,62,64,62,64,62,62,62,62,62,62,62,62,62,62,62,62,62,62,62,69,62,62,62,62,62,62,62,62,64,62,62,62,62,69,62,62,62,67,62,39,25,28,64,62,62,62,62,69,62,62,76,62,67,62,62,157,157,157,157,157,157,157,157,157,157,157,157,157,157,157,157,157,157,157,157,157,157,157,157,157,157,157,157,157,157,157,157,
62,62,62,75,62,67,62,69,62,74,62,62,62,62,62,62,75,62,62,62,65,62,62,62,62,62,70,62,62,65,62,62,62,62,62,66,62,62,62,62,62,62,62,62,63,62,32,29,29,34,41,35,62,62,62,62,62,62,62,62,65,62,62,62,157,157,157,157,157,157,157,157,157,157,157,157,157,157,157,157,157,157,157,157,157,157,157,157,157,157,157,157,157,157,157,157,
62,62,62,62,62,62,62,62,62,62,62,62,62,62,62,62,62,141,145,141,147,148,142,149,144,150,145,150,147,148,142,146,141,143,141,150,142,146,145,146,141,146,141,62,62,62,40,38,33,27,38,29,62,62,69,62,62,63,62,62,62,62,75,62,157,157,157,157,157,157,157,157,157,157,157,157,157,157,157,157,157,157,157,157,157,157,157,157,157,157,157,157,157,157,157,157,
62,62,74,62,62,62,62,62,62,62,62,77,62,62,62,62,77,141,143,143,150,145,149,144,143,150,139,148,144,150,146,146,146,146,142,147,149,143,145,142,144,146,149,62,62,62,32,41,26,29,29,38,62,62,62,62,71,62,62,62,62,62,62,62,62,157,157,157,157,157,157,157,157,157,157,157,157,157,157,157,157,157,157,157,157,157,157,157,157,157,157,157,157,157,157,157,
62,62,62,62,64,62,32,37,29,62,62,62,62,64,62,62,62,146,148,147,145,150,142,140,146,147,150,140,148,142,147,150,150,141,144,150,143,140,142,145,142,146,139,62,62,25,25,27,32,25,28,33,32,62,62,62,62,62,68,62,62,62,62,62,62,157,157,157,157,157,157,157,157,157,157,157,157,157,157,157,157,157,157,157,157,157,157,157,157,157,157,157,157,157,157,157,
62,62,62,62,62,62,34,36,36,62,62,62,65,62,64,62,62,139,145,143,147,142,144,139,148,150,150,148,141,150,144,146,142,144,144,139,142,147,142,149,141,147,148,62,62,39,29,39,32,36,33,35,27,62,62,62,62,62,66,62,62,62,62,64,62,62,157,157,157,157,157,157,157,157,157,157,157,157,157,157,157,157,157,157,157,157,157,157,157,157,157,157,157,157,157,157,
62,62,62,62,62,33,26,37,27,62,62,74,62,62,62,62,62,143,146,139,139,148,145,147,142,144,145,146,139,139,146,144,148,143,146,148,148,147,149,140,140,145,147,62,62,28,36,33,39,36,39,26,34,62,62,62,65,62,62,62,62,62,62,62,62,62,157,157,157,157,157,157,157,157,157,157,157,157,157,157,157,157,157,157,157,157,157,157,157,157,157,157,157,157,157,157,
62,62,62,62,62,25,29,38,30,62,62,62,62,62,62,62,62,150,146,143,139,147,146,140,149,150,143,139,149,145,146,141,139,142,147,143,139,149,144,144,144,146,147,62,62,74,41,32,32,40,29,62,62,62,62,62,62,62,62,62,62,62,62,62,62,62,157,157,157,157,157,157,157,157,157,157,157,157,157,157,157,157,157,157,157,157,157,157,157,157,157,157,157,157,157,157,
62,62,62,62,62,25,36,28,33,28,62,62,62,62,73,62,62,143,147,149,148,140,147,143,149,140,141,146,147,142,141,141,144,142,143,146,140,142,149,149,146,147,139,62,62,62,40,38,32,62,62,62,62,74,62,62,62,62,62,62,62,62,62,62,62,62,62,157,157,157,157,157,157,157,157,157,157,157,157,157,157,157,157,157,157,157,157,157,157,157,157,157,157,157,157,157,
2,62,62,62,62,62,36,34,34,33,34,28,33,25,71,62,64,150,148,146,141,142,143,150,139,142,146,145,145,144,143,149,140,141,141,139,139,143,145,148,139,140,145,62,62,62,62,62,62,62,62,62,62,62,76,62,62,62,62,62,62,64,62,62,62,62,68,62,157,157,157,157,157,157,157,157,157,157,157,157,157,157,157,157,157,157,157,157,157,157,157,157,157,157,157,157,
2,62,62,62,62,62,62,35,40,28,35,35,39,39,40,62,62,142,139,147,150,149,141,148,142,142,149,150,145,139,142,146,146,140,139,141,139,145,145,149,142,147,141,62,62,62,62,62,66,77,62,62,62,62,62,62,62,62,62,62,62,62,62,62,62,74,62,62,157,157,157,157,157,157,157,157,157,157,157,157,157,157,157,157,157,157,157,157,157,157,157,157,157,157,157,157,
2,62,62,62,62,62,62,62,40,25,40,26,33,26,31,29,62,143,141,141,147,147,147,145,148,143,148,149,148,145,143,148,140,139,147,146,147,143,140,150,140,148,145,62,62,71,62,62,62,62,74,62,62,71,62,62,62,62,62,62,62,77,62,62,62,62,62,62,157,157,157,157,157,157,157,157,157,157,157,157,157,157,157,157,157,157,157,157,157,157,157,157,157,157,157,157,
62,62,62,62,73,62,62,62,26,41,29,39,39,41,25,32,62,144,146,139,143,139,150,143,150,148,149,142,140,146,146,139,146,149,144,143,150,145,142,143,147,139,142,62,62,62,62,62,62,67,62,62,62,62,62,62,62,62,62,62,62,62,62,62,64,62,62,62,157,157,157,157,157,157,157,157,157,157,157,157,157,157,157,157,157,157,157,157,157,157,157,157,157,157,157,157,
72,62,62,69,62,62,62,62,62,72,38,38,29,32,30,25,62,146,145,147,143,142,150,139,139,144,149,144,150,141,144,142,139,147,139,142,140,141,144,150,148,143,140,62,62,62,62,62,62,62,62,62,62,62,62,62,62,62,62,62,75,62,62,62,62,62,62,62,157,157,157,157,157,157,157,157,157,157,157,157,157,157,157,157,157,157,157,157,157,157,157,157,157,157,157,157,
62,62,62,62,62,69,62,62,40,37,30,39,29,39,27,62,62,144,145,144,146,142,142,148,144,142,150,139,143,144,148,150,145,139,142,149,146,140,143,142,146,148,141,62,62,62,63,62,62,68,62,69,62,62,62,73,62,62,62,62,62,62,62,62,62,62,62,157,157,157,157,157,157,157,157,157,157,157,157,157,157,157,157,157,157,157,157,157,157,157,157,157,157,157,157,157,
62,62,62,62,62,62,62,62,33,26,25,28,38,38,62,64,66,145,139,146,146,149,144,142,149,148,144,142,146,150,142,143,143,149,148,146,149,140,144,139,148,149,148,62,62,62,62,62,62,73,62,63,62,62,62,68,62,2,2,2,2,62,62,62,62,62,62,157,157,157,157,157,157,157,157,157,157,157,157,157,157,157,157,157,157,157,157,157,157,157,157,157,157,157,157,157,
62,62,62,62,62,62,62,62,25,35,33,37,62,62,65,62,62,143,147,141,143,146,145,147,146,146,143,141,140,143,144,142,140,146,148,150,143,143,147,139,150,144,145,62,62,62,62,62,62,62,62,62,62,62,62,62,62,2,2,3,2,2,62,62,62,62,62,157,157,157,157,157,157,157,157,157,157,157,157,157,157,157,157,157,157,157,157,157,157,157,157,157,157,157,157,157,
62,62,62,62,62,62,62,62,76,62,72,62,62,62,62,62,76,139,141,144,150,150,144,141,147,143,148,140,139,142,145,143,143,146,142,146,142,148,146,150,141,149,140,62,62,62,63,62,62,62,62,62,67,64,62,62,62,2,2,2,2,3,3,62,62,62,62,157,157,157,157,157,157,157,157,157,157,157,157,157,157,157,157,157,157,157,157,157,157,157,157,157,157,157,157,157,
65,62,62,62,64,62,62,62,62,62,62,62,62,72,62,62,62,139,145,140,141,141,148,147,141,144,143,149,149,143,144,140,141,148,140,139,142,139,147,146,144,149,149,62,62,62,62,62,62,62,62,62,62,62,62,62,62,62,2,4,2,2,4,2,2,62,62,157,157,157,157,157,157,157,157,157,157,157,157,157,157,157,157,157,157,157,157,157,157,157,157,157,157,157,157,157,
75,62,62,62,62,62,62,62,62,72,62,62,62,62,62,62,62,145,150,139,141,148,147,141,149,149,147,142,142,148,149,140,140,140,145,150,142,141,150,141,147,146,145,62,62,62,62,62,62,62,62,62,62,62,62,65,62,62,62,62,2,2,2,2,2,62,62,62,157,157,157,157,157,157,157,157,157,157,157,157,157,157,157,157,157,157,157,157,157,157,157,157,157,157,157,157,
62,62,62,62,62,62,62,62,62,62,62,62,62,62,62,62,62,144,145,143,149,139,141,142,141,140,143,142,147,150,141,143,143,146,149,146,140,148,140,150,148,150,139,62,62,62,37,32,38,62,62,62,62,62,62,62,62,62,62,62,62,2,2,4,2,62,62,62,62,157,157,157,157,157,157,157,157,157,157,157,157,157,157,157,157,157,157,157,157,157,157,157,157,157,157,157,
62,74,62,62,62,62,62,62,62,62,62,62,62,63,64,76,62,145,147,144,141,146,140,147,150,146,141,140,143,150,148,145,150,149,142,139,146,144,144,147,139,148,145,64,62,62,26,32,41,38,62,62,62,62,62,62,62,62,62,62,62,62,62,62,62,62,62,65,62,62,157,157,157,157,157,157,157,157,157,157,157,157,157,157,157,157,157,157,157,157,157,157,157,157,157,157,
62,62,62,62,62,62,62,62,62,62,62,62,62,62,62,62,62,145,140,139,143,139,140,143,142,145,145,139,142,139,149,141,141,140,139,142,145,141,149,142,148,139,147,62,62,62,40,27,41,34,34,62,66,62,62,62,62,62,62,62,62,62,72,62,62,62,62,62,62,62,62,65,157,157,157,157,157,157,157,157,157,157,157,157,157,157,157,157,157,157,157,157,157,157,157,157,
62,62,62,62,62,62,62,62,62,62,62,62,36,26,41,62,62,62,62,62,62,73,62,62,62,62,62,62,62,62,62,62,62,62,62,62,62,76,62,62,69,62,62,62,34,41,33,28,25,41,37,64,62,65,62,69,62,62,62,62,62,62,62,62,62,76,62,62,62,62,62,68,62,157,157,157,157,157,157,157,157,157,157,157,157,157,157,157,157,157,157,157,157,157,157,157,
74,62,62,62,62,62,62,62,62,62,33,26,38,27,32,26,62,62,62,62,62,62,62,62,62,62,62,62,62,62,62,62,62,62,62,62,62,62,62,76,68,62,62,73,36,27,25,26,38,39,37,73,62,62,62,62,62,62,62,62,68,62,62,62,62,62,62,62,62,62,62,62,62,62,157,157,157,157,157,157,157,157,157,157,157,157,157,157,157,157,157,157,157,157,157,157,
62,62,62,62,62,62,62,69,62,62,35,36,38,36,31,32,62,62,62,67,62,62,62,62,62,62,67,76,62,62,75,62,62,62,62,62,66,66,62,62,62,62,41,37,41,36,26,29,26,29,64,62,62,62,67,62,62,62,62,62,62,62,62,62,62,62,62,76,62,62,62,62,62,62,62,157,157,157,157,157,157,157,157,157,157,157,157,157,157,157,157,157,157,157,157,157,
62,62,62,62,62,62,62,62,62,62,26,40,28,29,27,37,36,40,62,62,62,62,65,62,62,62,62,62,62,62,62,62,62,62,62,62,62,62,62,62,62,62,36,26,35,33,25,35,62,62,62,62,77,62,62,62,62,62,62,62,62,62,62,62,62,62,62,62,62,64,62,62,62,62,62,157,157,157,157,157,157,157,157,157,157,157,157,157,157,157,157,157,157,157,157,157,
74,62,62,62,62,62,62,74,62,62,62,27,40,41,27,31,31,29,62,62,62,77,75,62,62,62,62,62,62,62,62,62,62,62,62,62,62,62,62,62,62,62,41,26,35,36,41,29,62,62,62,73,62,62,62,62,62,76,62,62,62,62,62,62,62,62,71,76,62,64,62,62,62,62,62,157,157,157,157,157,157,157,157,157,157,157,157,157,157,157,157,157,157,157,157,157,
62,62,62,62,62,62,62,64,62,62,62,25,40,28,30,33,34,29,62,62,62,62,62,62,62,62,62,72,62,62,62,72,62,62,62,62,62,62,62,62,62,62,62,62,26,38,31,62,62,62,62,62,66,62,62,62,62,62,62,62,62,62,62,62,62,67,62,62,62,62,68,62,62,62,62,157,157,157,157,157,157,157,157,157,157,157,157,157,157,157,157,157,157,157,157,157,
74,67,71,62,62,69,62,62,62,62,62,62,33,39,28,34,38,69,62,62,62,62,62,62,62,62,62,62,62,62,67,62,62,62,62,62,77,62,63,62,62,62,62,62,66,62,62,62,71,64,62,62,62,62,62,62,62,62,62,62,62,62,69,62,62,62,76,2,2,2,2,62,62,62,67,157,157,157,157,157,157,157,157,157,157,157,157,157,157,157,157,157,157,157,157,157,
62,62,62,62,62,62,62,62,62,62,64,62,62,62,62,62,62,62,2,2,2,74,62,62,62,62,1,1,1,1,62,62,1,1,1,62,62,62,62,74,71,62,62,62,71,62,62,62,62,62,62,62,62,62,62,62,65,62,62,62,77,62,62,62,3,2,2,2,2,2,3,72,62,62,62,62,157,157,157,157,157,157,157,157,157,157,157,157,157,157,157,157,157,157,157,157,
62,62,62,62,69,62,62,62,62,62,62,62,62,62,62,62,2,3,4,2,2,2,62,62,62,75,1,1,1,1,62,62,1,1,1,69,62,62,62,62,71,62,64,2,2,4,4,62,62,74,62,62,62,62,62,62,62,62,62,62,62,62,62,62,2,2,2,2,2,2,2,62,62,62,62,62,62,157,157,157,157,157,157,157,157,157,157,157,157,157,157,157,157,157,157,157,
2,2,62,62,62,62,62,62,62,62,62,62,62,3,4,2,2,2,2,2,2,2,62,62,62,62,1,1,1,1,1,1,1,1,1,1,67,62,62,62,62,62,2,2,3,2,4,62,62,62,62,69,62,75,62,62,67,62,62,62,62,62,69,62,2,2,2,2,2,2,2,62,62,62,62,62,62,157,157,157,157,157,157,157,157,157,157,157,157,157,157,157,157,157,157,157,
2,2,62,62,62,62,62,62,62,62,62,62,62,2,2,2,2,2,2,2,2,3,62,62,72,62,62,62,1,1,1,1,1,1,1,1,62,62,62,62,62,68,2,4,2,4,2,3,2,2,62,62,62,62,62,62,62,62,62,62,62,62,62,62,2,2,2,4,2,2,62,62,62,62,62,62,62,157,157,157,157,157,157,157,157,157,157,157,157,157,157,157,157,157,157,157,
4,2,62,62,62,62,62,62,65,62,62,62,62,2,2,2,3,2,2,2,2,2,62,65,62,62,62,62,1,1,1,1,1,1,1,1,62,62,62,62,62,62,2,4,2,2,2,2,2,4,2,2,62,62,62,62,64,62,62,62,62,62,2,3,2,2,2,3,2,2,2,62,62,62,62,62,62,157,157,157,157,157,157,157,157,157,157,157,157,157,157,157,157,157,157,157,
2,2,62,62,62,77,62,62,62,62,62,62,62,62,62,62,2,3,2,2,2,2,62,62,62,62,1,1,1,1,1,1,1,1,62,62,62,62,62,62,62,62,62,62,62,2,2,2,2,2,3,4,2,62,62,75,62,74,62,62,62,2,2,2,2,4,2,2,2,2,2,62,62,62,62,62,62,157,157,157,157,157,157,157,157,157,157,157,157,157,157,157,157,157,157,157,
62,62,62,62,62,62,62,62,62,62,62,62,62,62,62,62,62,62,62,2,3,3,62,1,1,1,1,1,1,1,1,1,1,68,62,62,62,62,62,62,62,62,62,62,62,2,2,2,2,2,2,2,2,73,62,62,62,62,62,62,62,4,3,2,4,2,2,62,2,2,3,76,62,62,62,62,62,157,157,157,157,157,157,157,157,157,157,157,157,157,157,157,157,157,157,157,
62,68,62,62,62,62,62,62,62,62,62,62,62,1,1,1,1,1,62,4,1,1,1,1,1,1,1,1,1,1,62,62,62,62,3,2,4,62,65,62,62,62,62,62,62,2,2,2,2,2,2,2,2,62,62,62,62,76,62,62,62,2,2,4,74,62,62,62,70,62,62,62,62,62,70,62,157,157,157,157,157,157,157,157,157,157,157,157,157,157,157,157,157,157,157,157,
75,64,62,62,62,62,64,62,62,62,62,62,1,1,1,1,1,1,1,1,1,1,1,1,1,1,1,1,62,62,62,62,62,62,2,2,2,4,62,68,62,62,62,62,62,62,62,62,4,2,2,2,2,62,62,69,62,62,62,62,76,62,62,62,62,62,62,62,71,62,69,62,62,62,62,157,157,157,157,157,157,157,157,157,157,157,157,157,157,157,157,157,157,157,157,157,
62,62,62,62,62,1,1,1,1,1,1,1,1,1,1,1,1,1,1,1,1,1,1,1,1,62,62,62,62,62,62,76,62,62,2,2,2,2,62,62,62,67,62,62,62,62,76,62,62,62,62,62,62,62,62,62,62,62,66,62,62,62,62,62,65,64,62,62,62,62,62,157,157,157,157,157,157,157,157,157,157,157,157,157,157,157,157,157,157,157,157,157,157,157,157,157,
62,62,65,62,1,1,1,1,1,1,1,1,1,1,1,62,1,1,1,1,1,62,62,62,62,64,72,62,62,62,62,62,63,62,62,2,2,2,4,2,62,62,62,62,62,62,62,62,62,62,62,62,62,62,62,62,62,62,62,62,62,62,62,62,62,64,62,62,62,62,62,157,157,157,157,157,157,157,157,157,157,157,157,157,157,157,157,157,157,157,157,157,157,157,157,157,
62,62,62,1,1,1,1,1,1,1,1,1,1,62,72,62,62,62,62,62,62,62,62,62,73,62,62,62,62,62,62,62,75,62,62,2,2,4,2,2,62,62,62,62,62,64,62,62,62,62,62,62,62,62,62,62,62,62,64,62,62,62,62,62,62,62,62,62,62,62,62,157,157,157,157,157,157,157,157,157,157,157,157,157,157,157,157,157,157,157,157,157,157,157,157,157,
1,1,1,1,1,1,1,1,1,1,1,62,62,62,66,62,63,62,62,62,62,62,62,77,62,62,62,62,62,62,62,62,62,62,62,62,3,2,2,2,62,62,62,62,62,62,62,62,62,62,62,62,62,62,62,62,62,62,62,62,62,62,62,62,62,77,62,62,62,62,62,157,157,157,157,157,157,157,157,157,157,157,157,157,157,157,157,157,157,157,157,157,157,157,157,157,
1,1,1,1,1,1,1,72,62,62,62,62,72,62,62,76,62,62,62,62,62,62,62,62,62,62,62,62,62,62,62,62,62,62,62,62,62,62,63,62,62,62,62,62,62,62,62,70,62,62,62,62,62,62,62,62,62,68,62,62,62,62,62,62,62,62,62,62,157,157,157,157,157,157,157,157,157,157,157,157,157,157,157,157,157,157,157,157,157,157,157,157,157,157,157,157,
1,1,1,1,1,1,62,62,62,62,62,62,62,75,62,62,62,62,2,2,2,2,62,62,62,62,62,62,62,62,62,62,62,62,62,62,62,62,62,72,62,62,62,62,77,62,62,62,62,62,62,62,62,62,77,62,62,62,62,62,75,62,68,62,74,64,63,62,157,157,157,157,157,157,157,157,157,157,157,157,157,157,157,157,157,157,157,157,157,157,157,157,157,157,157,157,
1,1,1,1,1,62,62,62,62,62,62,62,62,62,62,62,62,62,2,2,2,2,2,62,62,62,62,62,62,62,62,62,62,62,67,62,62,62,65,62,62,62,62,62,62,62,62,3,2,2,62,62,62,62,62,62,62,62,62,62,62,62,62,62,62,157,157,157,157,157,157,157,157,157,157,157,157,157,157,157,157,157,157,157,157,157,157,157,157,157,157,157,157,157,157,157,
1,1,1,1,62,62,62,62,77,67,62,69,73,62,62,62,62,62,2,2,4,2,2,2,62,62,62,62,62,62,62,62,62,62,62,62,62,62,62,62,62,62,62,62,62,62,2,2,2,2,69,62,62,62,62,62,62,62,62,62,62,62,62,62,157,157,157,157,157,157,157,157,157,157,157,157,157,157,157,157,157,157,157,157,157,157,157,157,157,157,157,157,157,157,157,157,
65,62,62,62,62,62,62,62,62,62,62,62,62,62,62,62,62,69,62,62,3,2,2,2,62,62,62,62,62,62,62,62,62,62,62,62,65,62,62,62,62,62,62,62,4,3,2,2,2,4,2,62,62,62,62,62,62,62,77,62,62,71,62,157,157,157,157,157,157,157,157,157,157,157,157,157,157,157,157,157,157,157,157,157,157,157,157,157,157,157,157,157,157,157,157,157,
62,62,62,62,62,62,62,62,62,62,62,62,62,62,62,62,62,62,2,2,4,3,2,2,62,62,62,62,62,70,62,3,2,2,2,62,62,62,62,62,62,62,62,62,2,2,2,4,4,3,2,62,62,62,62,62,71,73,62,62,62,62,157,157,157,157,157,157,157,157,157,157,157,157,157,157,157,157,157,157,157,157,157,157,157,157,157,157,157,157,157,157,157,157,157,157,
62,62,62,62,62,69,62,62,62,62,62,62,73,62,71,62,62,2,2,2,2,2,4,69,62,62,62,62,62,2,2,2,2,4,2,62,62,62,67,62,75,62,62,62,2,2,2,2,2,2,2,62,62,62,62,62,62,62,62,64,62,62,157,157,157,157,157,157,157,157,157,157,157,157,157,157,157,157,157,157,157,157,157,157,157,157,157,157,157,157,157,157,157,157,157,157,
2,62,62,62,62,62,62,65,76,62,62,62,62,62,62,62,62,3,2,2,2,2,2,62,62,62,62,70,4,2,2,2,2,2,3,62,62,62,67,62,65,62,62,62,62,2,2,2,4,4,3,2,62,62,69,62,75,71,69,157,157,157,157,157,157,157,157,157,157,157,157,157,157,157,157,157,157,157,157,157,157,157,157,157,157,157,157,157,157,157,157,157,157,157,157,157,
4,62,62,62,62,62,62,62,62,62,62,62,62,62,62,62,62,3,3,2,62,62,62,71,62,62,62,2,2,2,3,3,2,2,62,62,62,62,62,64,62,62,62,62,62,62,2,2,4,3,2,2,62,62,62,62,62,62,62,157,157,157,157,157,157,157,157,157,157,157,157,157,157,157,157,157,157,157,157,157,157,157,157,157,157,157,157,157,157,157,157,157,157,157,157,157,
2,2,62,64,62,62,62,62,62,65,62,62,62,71,62,62,62,2,2,2,62,62,62,62,62,62,62,4,2,2,4,2,2,2,2,4,68,62,62,62,62,62,62,62,62,62,62,62,62,2,2,2,70,62,62,62,62,62,157,157,157,157,157,157,157,157,157,157,157,157,157,157,157,157,157,157,157,157,157,157,157,157,157,157,157,157,157,157,157,157,157,157,157,157,157,157,
4,2,62,62,62,62,62,62,62,62,76,62,62,62,62,62,62,62,67,62,62,62,62,62,62,62,62,4,3,2,67,2,2,2,2,2,62,62,62,62,62,62,66,62,75,62,62,62,64,62,62,62,62,62,62,62,62,157,157,157,157,157,157,157,157,157,157,157,157,157,157,157,157,157,157,157,157,157,157,157,157,157,157,157,157,157,157,157,157,157,157,157,157,157,157,157,
2,2,3,62,62,62,62,62,62,62,62,64,62,62,62,62,62,62,62,62,68,62,62,70,62,62,63,62,65,62,62,62,4,2,2,2,62,62,62,62,62,62,62,62,62,77,69,62,62,62,62,62,62,62,62,62,157,157,157,157,157,157,157,157,157,157,157,157,157,157,157,157,157,157,157,157,157,157,157,157,157,157,157,157,157,157,157,157,157,157,157,157,157,157,157,157,
2,2,2,2,4,2,62,62,62,62,65,62,62,62,62,62,62,62,62,62,62,65,62,62,62,62,62,62,62,62,62,62,62,62,62,62,62,62,62,62,62,62,62,69,62,62,62,62,62,73,62,62,62,62,62,62,157,157,157,157,157,157,157,157,157,157,157,157,157,157,157,157,157,157,157,157,157,157,157,157,157,157,157,157,157,157,157,157,157,157,157,157,157,157,157,157,
3,2,3,2,2,2,62,62,62,62,65,62,62,62,71,62,62,62,64,62,62,62,62,62,74,62,62,77,62,67,62,62,62,62,62,62,71,62,69,62,62,62,62,62,62,67,67,71,62,62,62,62,62,71,157,157,157,157,157,157,157,157,157,157,157,157,157,157,157,157,157,157,157,157,157,157,157,157,157,157,157,157,157,157,157,157,157,157,157,157,157,157,157,157,157,157,
62,2,2,2,3,2,62,62,62,62,62,62,75,62,62,62,62,62,62,62,62,62,62,62,62,62,62,62,62,62,62,62,62,62,62,62,62,64,62,62,62,72,62,62,62,66,70,62,62,62,62,62,62,157,157,157,157,157,157,157,157,157,157,157,157,157,157,157,157,157,157,157,157,157,157,157,157,157,157,157,157,157,157,157,157,157,157,157,157,157,157,157,157,157,157,157,
62,62,62,2,2,2,62,62,62,62,62,62,62,62,62,62,62,62,62,62,62,62,62,71,62,62,75,62,62,62,62,62,62,62,62,62,62,62,62,62,62,62,62,69,62,62,62,62,69,62,62,62,157,157,157,157,157,157,157,157,157,157,157,157,157,157,157,157,157,157,157,157,157,157,157,157,157,157,157,157,157,157,157,157,157,157,157,157,157,157,157,157,157,157,157,157,
72,62,62,65,62,62,62,62,62,62,62,62,62,62,62,62,77,62,62,62,62,70,62,62,62,62,62,62,62,62,62,62,62,62,62,74,62,62,62,62,62,62,62,62,62,62,62,62,62,62,157,157,157,157,157,157,157,157,157,157,157,157,157,157,157,157,157,157,157,157,157,157,157,157,157,157,157,157,157,157,157,157,157,157,157,157,157,157,157,157,157,157,157,157,157,157,
62,62,62,62,62,62,62,62,62,62,62,62,62,62,62,62,62,62,62,62,62,62,62,62,62,62,77,62,65,64,62,62,66,68,62,62,62,62,62,62,62,62,76,62,62,62,65,62,62,157,157,157,157,157,157,157,157,157,157,157,157,157,157,157,157,157,157,157,157,157,157,157,157,157,157,157,157,157,157,157,157,157,157,157,157,157,157,157,157,157,157,157,157,157,157,157,
66,62,71,62,62,62,64,62,62,62,62,62,62,62,62,62,74,62,62,62,62,62,62,62,62,65,62,62,62,62,62,62,62,62,62,62,62,62,62,62,62,62,62,62,62,73,62,157,157,157,157,157,157,157,157,157,157,157,157,157,157,157,157,157,157,157,157,157,157,157,157,157,157,157,157,157,157,157,157,157,157,157,157,157,157,157,157,157,157,157,157,157,157,157,157,157,
62,62,62,62,73,62,65,72,62,62,62,62,62,62,62,62,62,62,62,62,157,157,157,62,62,62,62,62,65,62,62,62,62,62,62,62,62,62,62,62,62,62,62,66,62,62,157,157,157,157,157,157,157,157,157,157,157,157,157,157,157,157,157,157,157,157,157,157,157,157,157,157,157,157,157,157,157,157,157,157,157,157,157,157,157,157,157,157,157,157,157,157,157,157,157,157,
62,62,62,62,65,62,65,62,62,62,72,62,62,62,62,157,157,157,157,157,157,157,157,157,157,157,66,62,62,62,62,62,62,62,75,62,62,62,69,62,62,62,74,62,157,157,157,157,157,157,157,157,157,157,157,157,157,157,157,157,157,157,157,157,157,157,157,157,157,157,157,157,157,157,157,157,157,157,157,157,157,157,157,157,157,157,157,157,157,157,157,157,157,157,157,157,
157,157,157,73,62,62,62,62,62,62,62,62,62,62,157,157,157,157,157,157,157,157,157,157,157,157,157,157,157,157,157,62,73,62,62,62,62,62,62,62,62,157,157,157,157,157,157,157,157,157,157,157,157,157,157,157,157,157,157,157,157,157,157,157,157,157,157,157,157,157,157,157,157,157,157,157,157,157,157,157,157,157,157,157,157,157,157,157,157,157,157,157,157,157,157,157,
157,157,157,157,157,157,62,62,62,157,157,157,157,157,157,157,157,157,157,157,157,157,157,157,157,157,157,157,157,157,157,157,157,157,157,157,157,157,157,157,157,157,157,157,157,157,157,157,157,157,157,157,157,157,157,157,157,157,157,157,157,157,157,157,157,157,157,157,157,157,157,157,157,157,157,157,157,157,157,157,157,157,157,157,157,157,157,157,157,157,157,157,157,157,157,157,
157,157,157,157,157,157,157,157,157,157,157,157,157,157,157,157,157,157,157,157,157,157,157,157,157,157,157,157,157,157,157,157,157,157,157,157,157,157,157,157,157,157,157,157,157,157,157,157,157,157,157,157,157,157,157,157,157,157,157,157,157,157,157,157,157,157,157,157,157,157,157,157,157,157,157,157,157,157,157,157,157,157,157,157,157,157,157,157,157,157,157,157,157,157,157,157,
157,157,157,157,157,157,157,157,157,157,157,157,157,157,157,157,157,157,157,157,157,157,157,157,157,157,157,157,157,157,157,157,157,157,157,157,157,157,157,157,157,157,157,157,157,157,157,157,157,157,157,157,157,157,157,157,157,157,157,157,157,157,157,157,157,157,157,157,157,157,157,157,157,157,157,157,157,157,157,157,157,157,157,157,157,157,157,157,157,157,157,157,157,157,157,157,
157,157,157,157,157,157,157,157,157,157,157,157,157,157,157,157,157,157,157,157,157,157,157,157,157,157,157,157,157,157,157,157,157,157,157,157,157,157,157,157,157,157,157,157,157,157,157,157,157,157,157,157,157,157,157,157,157,157,157,157,157,157,157,157,157,157,157,157,157,157,157,157,157,157,157,157,157,157,157,157,157,157,157,157,157,157,157,157,157,157,157,157,157,157,157,157,
157,157,157,157,157,157,157,157,157,157,157,157,157,157,157,157,157,157,157,157,157,157,157,157,157,157,157,157,157,157,157,157,157,157,157,157,157,157,157,157,157,157,157,157,157,157,157,157,157,157,157,157,157,157,157,157,157,157,157,157,157,157,157,157,157,157,157,157,157,157,157,157,157,157,157,157,157,157,157,157,157,157,157,157,157,157,157,157,157,157,157,157,157,157,157,157
</data>
 </layer>
 <layer id="2" name="Objects" width="96" height="96">
  <data encoding="csv">
0,0,0,0,0,5,60,57,0,0,0,0,0,0,54,61,0,0,0,0,5,56,0,0,0,0,0,86,78,87,0,0,0,0,0,0,97,90,90,90,90,90,96,0,0,97,93,0,0,0,0,0,0,0,0,0,0,0,0,0,0,0,0,0,0,0,0,0,0,0,0,0,0,0,0,0,0,0,0,0,0,0,0,0,0,0,0,0,0,0,0,0,0,0,0,0,
0,0,0,0,0,0,5,60,53,57,0,0,0,0,52,0,0,0,0,0,5,56,22,0,0,86,78,82,0,79,0,0,0,0,0,0,0,0,0,0,0,115,0,14,0,0,91,0,0,0,0,0,0,0,0,0,0,0,0,0,0,0,0,0,0,0,0,0,0,0,0,0,0,0,0,0,0,0,0,0,0,0,0,0,0,0,0,0,0,0,0,0,0,0,0,0,
0,0,0,0,0,0,0,0,5,60,53,57,0,54,61,0,0,0,0,0,7,56,114,0,86,82,0,0,22,79,0,0,0,0,0,0,0,0,0,0,0,0,0,0,0,0,97,93,0,0,0,0,0,0,0,0,0,0,0,0,0,0,0,0,0,0,0,0,0,0,0,0,0,0,0,0,0,0,0,0,0,0,0,0,0,0,0,0,0,0,0,0,0,0,0,0,
0,0,0,0,0,0,0,0,0,0,5,60,53,61,0,0,0,0,0,5,59,58,86,78,82,0,0,0,85,12,0,0,0,0,0,0,115,0,21,0,0,0,0,23,0,0,0,97,93,0,0,0,0,0,0,0,0,0,0,0,0,0,0,0,0,0,0,0,0,0,0,0,0,0,0,0,0,0,0,0,0,0,0,0,0,0,0,0,0,0,0,0,0,0,0,0,
0,0,0,0,0,0,0,0,0,0,0,0,0,0,0,0,0,0,0,7,56,0,81,0,0,115,80,80,89,0,0,0,0,19,0,0,0,0,0,0,0,0,0,0,0,0,0,0,97,93,0,0,0,0,0,0,0,0,0,0,0,0,0,0,0,0,0,0,0,0,0,0,0,0,0,0,0,0,0,0,0,0,0,0,0,0,0,0,0,0,0,0,0,0,0,0,
0,0,0,0,0,0,0,0,0,0,0,0,0,0,0,0,0,0,5,59,58,0,88,80,80,89,0,0,0,13,0,0,0,0,0,0,0,0,0,0,0,0,0,0,0,0,0,0,117,91,0,0,0,0,0,0,0,0,0,0,0,0,0,0,0,0,0,0,0,0,0,0,0,0,0,0,0,0,0,0,0,0,0,0,0,0,0,0,0,0,0,0,0,0,0,0,
0,0,0,0,0,0,0,0,0,0,0,0,0,0,0,0,0,0,7,56,0,0,0,0,0,0,20,0,0,0,0,116,0,0,23,0,0,0,0,0,0,0,21,116,0,0,0,0,0,91,0,0,0,0,0,0,0,0,0,0,0,0,0,0,0,0,0,0,0,0,0,0,0,0,0,0,0,0,0,0,0,0,0,0,0,0,0,0,0,0,0,0,0,0,0,0,
0,0,0,0,0,0,0,0,0,0,0,0,0,0,0,0,0,5,59,58,0,17,116,0,0,0,22,23,0,0,0,0,0,0,0,0,0,116,0,0,0,0,15,0,0,0,0,0,0,97,90,93,0,0,0,0,0,0,0,0,0,0,0,0,0,0,0,0,0,0,0,0,0,0,0,0,0,0,0,0,0,0,0,0,0,0,0,0,0,0,0,0,0,0,0,0,
0,0,0,0,0,0,0,0,0,0,0,0,0,0,0,0,6,7,56,0,0,0,0,0,0,0,0,0,0,117,0,0,0,0,12,78,87,0,0,0,0,0,0,0,0,0,0,0,0,0,0,97,93,0,0,0,0,0,0,0,0,0,0,0,0,0,0,0,0,0,0,0,0,0,0,0,0,0,0,0,0,0,0,0,0,0,0,0,0,0,0,0,0,0,0,0,
0,0,0,0,0,0,0,0,0,0,0,0,0,0,0,7,59,55,58,0,0,0,22,0,0,0,0,0,0,0,0,86,78,78,82,0,79,0,0,0,0,0,0,0,0,116,0,0,0,0,0,0,97,93,0,0,0,0,0,0,0,0,0,0,0,0,0,0,0,0,0,0,0,0,0,0,0,0,0,0,0,0,0,0,0,0,0,0,0,0,0,0,0,0,0,0,
0,0,0,0,0,0,0,0,0,0,0,0,0,0,7,59,58,86,78,78,78,78,78,87,0,0,0,0,19,0,86,82,0,0,0,85,89,0,14,0,0,0,0,86,78,87,0,0,0,14,0,115,0,97,93,0,0,0,0,0,0,0,0,0,0,0,0,0,0,0,0,0,0,0,0,0,0,0,0,0,0,0,0,0,0,0,0,0,0,0,0,0,0,0,0,0,
0,0,0,0,0,0,0,0,0,0,0,0,0,7,59,58,0,81,0,115,0,0,0,79,21,0,0,0,0,0,81,0,0,0,0,115,0,0,0,0,0,0,0,81,0,83,78,87,0,0,0,0,0,0,97,90,93,0,0,0,0,0,0,0,0,0,0,0,0,0,0,0,0,0,0,0,0,0,0,0,0,0,0,0,0,0,0,0,0,0,0,0,0,0,0,0,
0,0,0,0,0,0,0,0,0,0,0,0,7,59,58,0,0,88,80,23,0,0,0,79,0,0,0,117,115,86,22,0,0,0,85,89,0,23,0,0,0,116,0,81,0,0,0,79,0,0,0,0,0,0,0,0,97,93,0,0,0,0,0,0,0,0,0,0,0,0,0,0,0,0,0,0,0,0,0,0,0,0,0,0,0,0,0,0,0,0,0,0,0,0,0,0,
0,0,0,0,0,0,0,0,0,0,0,7,59,58,0,0,0,0,0,81,0,0,0,79,0,0,0,0,0,81,0,85,80,14,89,0,0,0,0,0,0,0,0,88,21,84,0,79,117,0,0,0,18,0,0,0,0,91,0,0,0,0,0,0,0,0,0,0,0,0,0,0,0,0,0,0,0,0,0,0,0,0,0,0,0,0,0,0,0,0,0,0,0,0,0,0,
0,0,0,0,0,0,0,0,0,0,7,59,58,115,0,0,0,116,0,14,80,84,0,115,87,0,0,0,0,88,80,89,0,0,0,0,0,0,0,0,0,0,0,0,0,88,84,83,78,87,0,0,0,0,0,0,0,97,93,0,0,0,0,0,0,0,0,0,0,0,0,0,0,0,0,0,0,0,0,0,0,0,0,0,0,0,0,0,0,0,0,0,0,0,0,0,
0,0,0,0,0,0,0,0,0,7,59,58,0,0,0,0,0,0,0,0,0,115,0,0,79,0,0,22,0,0,115,0,0,0,0,117,0,21,0,0,0,0,0,0,23,0,81,0,0,83,87,0,0,0,0,0,0,0,91,0,0,0,0,0,0,0,0,0,0,0,0,0,0,0,0,0,0,0,0,0,0,0,0,0,0,0,0,0,0,0,0,0,0,0,0,0,
0,0,0,0,0,0,0,0,5,59,58,0,0,0,12,0,22,0,0,0,0,88,80,80,89,0,0,0,0,0,0,0,0,0,0,0,0,0,0,0,0,18,0,0,115,0,88,80,84,0,79,0,0,0,131,23,0,0,97,90,93,0,0,0,0,0,0,0,0,0,0,0,0,0,0,0,0,0,0,0,0,0,0,0,0,0,0,0,0,0,0,0,0,0,0,0,
0,0,0,0,0,0,0,0,5,56,117,0,0,23,0,114,0,0,116,0,0,0,17,117,0,0,0,0,12,0,23,0,0,0,0,0,0,0,0,0,0,0,0,0,0,0,0,0,13,80,89,115,0,0,0,0,0,117,0,0,97,93,0,0,0,0,0,0,0,0,0,0,0,0,0,0,0,0,0,0,0,0,0,0,0,0,0,0,0,0,0,0,0,0,0,0,
0,0,0,0,0,0,0,0,7,56,0,0,0,0,0,0,0,0,0,0,0,0,0,0,0,0,0,0,0,0,0,0,0,0,115,0,0,0,0,0,117,0,0,0,0,0,0,0,0,0,0,0,0,23,0,0,0,0,0,0,0,91,0,0,0,0,0,0,0,0,0,0,0,0,0,0,0,0,0,0,0,0,0,0,0,0,0,0,0,0,0,0,0,0,0,0,
0,0,0,0,0,0,0,7,59,58,0,10,10,10,10,10,10,10,10,10,10,10,10,10,10,10,10,10,10,10,10,10,10,10,10,10,10,10,10,10,10,10,10,10,10,10,10,10,10,10,10,10,10,10,10,10,0,0,0,0,0,91,0,0,0,0,0,0,0,0,0,0,0,0,0,0,0,0,0,0,0,0,0,0,0,0,0,0,0,0,0,0,0,0,0,0,
0,0,0,0,0,0,7,59,58,0,9,0,0,117,0,0,0,0,0,0,0,0,105,0,0,0,0,114,0,0,0,114,0,0,0,115,0,0,0,0,0,0,0,0,0,0,0,0,0,0,0,0,0,0,0,9,0,0,0,21,0,91,0,0,0,0,0,0,0,0,0,0,0,0,0,0,0,0,0,0,0,0,0,0,0,0,0,0,0,0,0,0,0,0,0,0,
0,0,0,0,0,7,59,58,0,9,0,0,0,0,116,123,119,11,0,117,0,0,117,0,0,0,0,0,0,0,0,0,0,123,119,119,124,87,0,0,0,17,0,0,0,0,0,0,0,0,0,0,0,116,0,9,116,0,0,0,0,91,0,0,0,0,0,0,0,0,0,0,0,0,0,0,0,0,0,0,0,0,0,0,0,0,0,0,0,0,0,0,0,0,0,0,
0,0,0,0,7,59,58,0,0,9,0,0,0,0,0,122,108,11,124,0,0,0,0,0,0,0,0,0,0,0,0,123,119,110,111,108,11,79,0,0,0,0,0,0,116,0,0,0,116,0,0,106,0,0,0,9,0,131,0,0,0,115,93,0,0,0,0,0,0,0,0,0,0,0,0,0,0,0,0,0,0,0,0,0,0,0,0,0,0,0,0,0,0,0,0,0,
0,0,6,7,59,58,0,0,115,9,0,0,0,15,0,126,11,109,111,119,124,0,0,0,0,0,0,0,0,0,86,122,112,130,106,121,11,11,0,0,0,0,0,0,0,0,0,0,0,0,0,0,0,0,0,9,0,0,0,0,0,23,97,93,0,0,0,0,0,0,0,0,0,0,0,0,0,0,0,0,0,0,0,0,0,0,0,0,0,0,0,0,0,0,0,0,
6,7,59,55,58,0,0,0,0,9,0,0,0,0,0,88,126,104,106,118,120,0,0,0,0,114,0,0,0,104,81,126,108,125,89,0,0,0,0,0,0,0,0,0,0,0,0,0,0,0,0,0,0,0,0,9,0,0,0,0,0,0,0,91,0,0,0,0,0,0,0,0,0,0,0,0,0,0,0,0,0,0,0,0,0,0,0,0,0,0,0,0,0,0,0,0,
59,55,58,0,0,0,0,0,0,9,0,0,116,0,0,0,0,126,121,108,125,116,117,0,0,0,0,0,0,0,88,80,89,0,0,0,0,116,0,0,0,116,0,0,0,0,0,0,0,0,0,0,116,0,0,9,0,0,0,0,116,0,0,91,0,0,0,0,0,0,0,0,0,0,0,0,0,0,0,0,0,0,0,0,0,0,0,0,0,0,0,0,0,0,0,0,
58,0,0,0,10,10,10,10,10,9,0,0,0,0,0,0,0,0,0,0,0,0,0,0,0,0,0,0,0,0,0,0,0,0,0,0,0,0,0,0,0,0,0,114,0,0,105,119,124,78,87,0,0,0,0,9,0,0,0,0,0,17,20,91,0,0,0,0,0,0,0,0,0,0,0,0,0,0,0,0,0,0,0,0,0,0,0,0,0,0,0,0,0,0,0,0,
0,0,0,9,0,0,0,0,0,0,0,0,0,0,0,0,153,152,152,152,152,152,152,152,152,152,152,152,152,152,152,152,152,152,152,152,152,152,152,152,152,152,152,0,0,116,122,118,120,11,11,87,0,0,14,9,0,131,0,0,0,0,0,91,0,0,0,0,0,0,0,0,0,0,0,0,0,0,0,0,0,0,0,0,0,0,0,0,0,0,0,0,0,0,0,0,
0,0,0,9,0,0,0,0,13,0,0,0,0,0,0,0,151,11,151,0,0,0,0,104,155,0,0,0,0,0,0,0,0,0,0,104,0,0,0,0,11,11,151,0,0,0,122,118,108,11,11,79,0,11,0,9,116,0,0,0,0,0,0,91,0,0,0,0,0,0,0,0,0,0,0,0,0,0,0,0,0,0,0,0,0,0,0,0,0,0,0,0,0,0,0,0,
0,15,0,9,0,115,0,0,0,0,0,0,0,116,0,0,151,11,151,152,152,152,0,0,0,0,0,0,0,0,0,0,0,0,0,0,0,0,0,0,0,11,151,116,0,115,122,118,110,108,124,79,0,0,115,9,0,0,0,0,0,0,0,97,93,0,0,0,0,0,0,0,0,0,0,0,0,0,0,0,0,0,0,0,0,0,0,0,0,0,0,0,0,0,0,0,
0,0,0,9,0,0,86,78,87,0,0,0,0,0,0,0,151,0,0,0,0,151,0,0,0,0,0,0,0,137,0,0,0,135,0,0,0,0,0,0,0,0,151,116,0,86,126,106,111,118,120,83,87,0,0,9,0,0,0,0,115,0,0,0,91,0,0,0,0,0,0,0,0,0,0,0,0,0,0,0,0,0,0,0,0,0,0,0,0,0,0,0,0,0,0,0,
0,0,0,9,0,0,11,11,11,0,0,0,0,0,0,0,151,0,0,0,0,151,0,0,0,0,138,0,0,0,0,0,0,0,0,0,0,0,0,0,0,0,151,0,117,81,0,0,107,110,125,0,79,0,0,9,0,0,22,0,0,0,0,0,97,93,0,0,0,0,0,0,0,0,0,0,0,0,0,0,0,0,0,0,0,0,0,0,0,0,0,0,0,0,0,0,
0,116,0,9,0,86,11,106,124,0,0,0,117,0,0,0,151,0,0,153,104,156,0,0,0,0,0,0,0,0,0,0,0,153,152,152,152,152,0,0,0,0,151,0,0,88,84,0,0,0,85,80,89,104,0,9,0,0,0,0,114,14,0,0,0,91,0,0,0,0,0,0,0,0,0,0,0,0,0,0,0,0,0,0,0,0,0,0,0,0,0,0,0,0,0,0,
0,0,0,9,0,81,122,112,120,0,0,0,0,0,0,0,151,0,0,151,0,0,0,0,0,0,0,0,0,0,0,0,0,151,0,11,11,151,0,106,0,0,151,0,0,0,81,11,11,80,89,0,0,0,0,9,131,0,0,0,0,0,0,0,0,91,0,0,0,0,0,0,0,0,0,0,0,0,0,0,0,0,0,0,0,0,0,0,0,0,0,0,0,0,0,0,
0,0,0,9,0,88,122,112,110,87,0,0,19,0,0,0,151,0,0,0,0,0,0,0,0,0,153,0,0,0,0,0,0,151,0,0,11,151,24,0,0,0,151,0,0,0,88,80,11,0,0,117,0,0,0,9,0,0,116,117,0,0,22,0,0,117,93,0,0,0,0,0,0,0,0,0,0,0,0,0,0,0,0,0,0,0,0,0,0,0,0,0,0,0,0,0,
87,0,0,9,0,0,126,129,111,124,78,78,78,87,0,0,151,0,0,0,0,0,0,0,0,153,154,152,0,0,0,0,0,151,0,11,11,151,0,0,0,0,151,0,115,0,105,0,0,0,0,117,0,0,0,9,0,0,0,0,0,0,0,0,115,0,97,93,0,0,0,0,0,0,0,0,0,0,0,0,0,0,0,0,0,0,0,0,0,0,0,0,0,0,0,0,
14,0,0,9,0,117,0,122,118,120,0,123,11,124,87,0,151,0,137,0,0,0,0,153,152,154,106,11,0,0,0,0,153,156,0,0,0,151,152,152,104,152,154,0,0,0,0,0,0,0,0,0,0,0,0,9,0,22,0,0,0,0,0,0,0,0,0,91,0,0,0,0,0,0,0,0,0,0,0,0,0,0,0,0,0,0,0,0,0,0,0,0,0,0,0,0,
89,0,0,9,0,0,0,126,121,125,0,122,11,11,124,87,151,0,0,0,0,0,0,151,11,11,11,0,0,0,0,0,0,0,0,116,0,0,0,0,0,0,151,0,0,0,0,0,0,0,0,21,0,114,0,9,0,0,0,0,0,114,0,0,114,22,0,91,0,0,0,0,0,0,0,0,0,0,0,0,0,0,0,0,0,0,0,0,0,0,0,0,0,0,0,0,
0,0,0,9,0,0,0,14,88,80,84,126,129,111,128,119,151,0,0,0,0,0,0,151,0,0,0,0,0,0,133,0,0,0,0,0,0,0,0,0,0,0,151,0,0,0,115,0,0,0,116,0,0,0,0,9,0,0,131,0,0,0,117,0,0,20,0,91,0,0,0,0,0,0,0,0,0,0,0,0,0,0,0,0,0,0,0,0,0,0,0,0,0,0,0,0,
0,117,0,9,0,0,0,0,0,0,81,0,112,112,109,118,151,0,0,0,0,0,0,151,0,0,0,0,0,0,0,0,0,0,104,0,0,0,0,0,0,0,151,0,117,0,114,0,0,0,0,0,0,0,0,9,0,0,0,0,0,0,0,0,0,0,99,95,0,0,0,0,0,0,0,0,0,0,0,0,0,0,0,0,0,0,0,0,0,0,0,0,0,0,0,0,
0,0,0,9,0,0,0,0,86,78,82,0,0,111,126,121,151,0,0,0,153,104,152,154,152,152,152,152,152,0,0,0,0,0,0,0,0,0,0,0,0,0,151,0,0,0,0,0,0,0,0,0,0,0,0,9,0,0,0,0,0,0,12,0,0,0,91,0,0,0,0,0,0,0,0,0,0,0,0,0,0,0,0,0,0,0,0,0,0,0,0,0,0,0,0,0,
0,0,0,9,0,0,0,0,81,105,11,85,80,89,117,0,151,0,0,0,0,11,11,151,0,0,0,0,151,0,0,0,153,0,0,0,0,153,0,0,136,0,151,0,0,0,0,0,0,0,0,0,0,0,104,9,0,116,78,78,87,0,0,0,0,117,91,0,0,0,0,0,0,0,0,0,0,0,0,0,0,0,0,0,0,0,0,0,0,0,0,0,0,0,0,0,
0,0,0,9,0,0,0,0,88,11,80,89,0,0,0,0,151,0,0,0,0,0,11,151,0,0,134,0,151,152,0,153,154,0,0,0,0,151,152,152,0,0,151,0,0,0,0,0,0,0,0,0,116,0,0,9,0,81,0,0,83,87,0,0,0,0,91,0,0,0,0,0,0,0,0,0,0,0,0,0,0,0,0,0,0,0,0,0,0,0,0,0,0,0,0,0,
0,0,22,9,0,0,0,0,0,0,0,0,0,0,0,0,151,0,0,0,133,0,0,151,0,0,0,0,0,151,152,154,0,0,0,0,0,11,11,151,0,0,151,0,0,0,0,0,0,0,0,0,0,0,0,9,0,88,84,0,0,83,87,131,0,0,91,0,0,0,0,0,0,0,0,0,0,0,0,0,0,0,0,0,0,0,0,0,0,0,0,0,0,0,0,0,
0,0,0,9,0,0,0,0,0,0,0,0,0,104,0,0,151,0,0,0,0,0,0,151,0,104,0,0,0,0,155,0,0,0,0,0,0,0,11,151,0,0,151,0,0,0,131,0,0,115,0,0,0,0,0,9,0,0,15,23,84,115,83,78,87,0,91,0,0,0,0,0,0,0,0,0,0,0,0,0,0,0,0,0,0,0,0,0,0,0,0,0,0,0,0,0,
0,0,0,9,0,117,0,0,0,0,0,0,0,0,0,0,151,0,0,0,0,0,0,151,0,0,0,0,0,0,0,0,104,0,0,0,153,152,152,154,0,0,151,0,116,0,0,0,0,0,0,0,117,0,0,9,0,0,0,0,88,84,0,0,79,0,97,93,0,0,0,0,0,0,0,0,0,0,0,0,0,0,0,0,0,0,0,0,0,0,0,0,0,0,0,0,
116,0,0,9,0,0,0,0,0,104,0,0,0,0,0,0,151,11,0,0,0,0,0,151,0,0,0,0,0,0,0,0,0,0,0,0,151,0,0,0,0,0,151,0,0,0,86,78,87,0,0,0,0,0,0,9,0,0,0,0,0,88,80,80,23,0,0,97,93,0,0,0,0,0,0,0,0,0,0,0,0,0,0,0,0,0,0,0,0,0,0,0,0,0,0,0,
0,0,0,9,0,0,0,0,0,0,0,0,117,0,0,0,151,11,0,0,0,0,0,151,11,11,0,0,0,0,0,0,0,0,0,0,151,0,0,0,133,0,151,0,0,0,81,123,119,124,0,0,0,0,0,9,0,117,0,17,0,0,0,15,0,0,0,0,97,93,0,0,0,0,0,0,0,0,0,0,0,0,0,0,0,0,0,0,0,0,0,0,0,0,0,0,
0,23,0,9,0,0,0,0,0,0,0,0,0,0,0,0,151,152,152,152,152,152,152,154,152,152,152,0,153,152,156,152,0,153,152,152,154,152,152,152,152,152,154,0,116,0,106,109,108,120,87,21,0,0,0,9,0,0,0,0,0,0,0,0,0,0,0,0,0,97,90,93,0,0,0,0,0,0,0,0,0,0,0,0,0,0,0,0,0,0,0,0,0,0,0,0,
0,23,0,9,0,0,0,0,0,0,0,0,86,78,87,0,0,0,0,0,0,0,0,0,0,0,104,0,0,0,0,0,0,0,0,104,0,0,0,0,0,0,0,0,86,123,107,108,130,125,79,0,0,0,0,9,0,23,0,0,0,0,0,0,0,0,0,0,0,0,0,97,93,0,0,0,0,0,0,0,0,0,0,0,0,0,0,0,0,0,0,0,0,0,0,0,
0,0,0,9,0,0,0,0,0,0,86,123,17,119,124,87,0,0,0,0,0,0,0,0,14,0,0,0,0,0,0,0,116,0,116,0,0,0,106,0,0,0,0,0,123,127,110,105,125,11,89,0,115,0,0,9,0,0,0,0,0,0,0,117,0,0,115,0,131,0,0,0,97,93,0,0,0,0,0,0,0,0,0,0,0,0,0,0,0,0,0,0,0,0,0,0,
0,0,0,9,0,0,0,0,116,0,81,122,118,11,128,119,124,0,0,117,0,0,0,0,0,0,0,0,0,0,0,0,0,0,0,0,0,0,0,117,0,0,104,78,122,112,108,109,80,11,0,0,0,0,0,9,0,0,14,0,0,0,0,0,0,0,0,0,0,0,0,0,0,97,93,0,0,0,0,0,0,0,0,0,0,0,0,0,0,0,0,0,0,0,0,0,
0,115,0,9,0,0,131,0,0,0,88,126,11,11,111,109,120,87,0,0,0,0,0,0,0,0,0,0,0,0,104,0,0,0,0,0,0,0,0,0,0,0,81,0,11,11,106,125,0,0,0,0,0,0,0,9,0,0,0,0,0,0,0,0,0,0,0,0,0,0,0,0,0,0,91,0,0,0,0,0,0,0,0,0,0,0,0,0,0,0,0,0,0,0,0,0,
0,17,0,9,0,0,0,0,0,0,0,104,126,109,109,106,128,124,105,0,0,0,0,115,0,0,0,0,0,0,0,0,0,0,117,0,116,0,0,0,0,0,88,80,84,0,85,89,0,0,0,0,0,0,0,9,0,117,0,0,0,0,0,0,0,0,0,0,0,0,0,0,114,0,91,0,0,0,0,0,0,0,0,0,0,0,0,0,0,0,0,0,0,0,0,0,
0,0,0,9,0,0,0,0,0,0,0,88,84,0,109,109,118,120,0,0,0,0,0,0,0,0,0,0,0,20,0,0,0,0,0,0,0,0,0,0,0,116,0,0,11,11,89,0,0,0,115,0,0,21,0,9,0,0,0,0,115,0,22,0,0,0,0,0,0,0,0,0,0,0,91,0,0,0,0,0,0,0,0,0,0,0,0,0,0,0,0,0,0,0,0,0,
0,0,0,9,10,10,10,10,10,10,10,10,10,10,10,10,10,10,10,10,10,10,10,10,10,10,10,0,0,10,10,10,10,0,0,10,10,10,10,10,10,10,10,10,10,10,10,10,10,10,10,10,10,10,10,9,0,0,0,0,0,0,0,0,12,0,0,86,78,12,87,0,0,0,91,0,0,0,0,0,0,0,0,0,0,0,0,0,0,0,0,0,0,0,0,0,
0,0,0,0,0,0,0,0,0,0,0,0,0,0,0,0,0,0,86,78,87,0,0,0,0,117,86,78,78,87,0,0,86,78,87,0,0,0,0,0,0,23,0,0,0,0,0,0,0,115,0,0,0,0,0,0,0,0,0,0,0,0,0,0,86,78,78,117,0,0,79,0,0,0,97,93,0,0,0,0,0,0,0,0,0,0,0,0,0,0,0,0,0,0,0,0,
0,0,0,0,0,0,23,0,0,0,0,0,0,0,0,0,86,78,82,21,83,87,0,23,0,0,81,0,0,79,0,0,81,0,79,0,0,0,0,0,0,0,0,86,20,78,87,0,0,0,0,0,0,0,21,0,0,0,13,0,0,0,0,0,81,0,0,0,0,0,79,0,0,116,0,97,93,0,0,0,0,0,0,0,0,0,0,0,0,0,0,0,0,0,0,0,
78,87,0,0,0,115,0,0,13,0,0,0,0,116,117,78,82,0,0,0,0,79,0,0,0,0,88,80,84,83,78,78,82,0,83,87,0,0,0,0,0,115,86,82,0,0,79,0,0,0,0,19,0,0,115,0,0,0,0,0,0,0,0,0,81,0,0,0,0,85,89,0,0,0,0,0,91,0,0,0,0,0,0,0,0,0,0,0,0,0,0,0,0,0,0,0,
117,79,0,0,0,0,0,0,0,0,0,0,0,81,0,0,0,0,0,0,0,79,0,115,0,0,0,0,81,0,0,0,0,0,0,79,115,0,0,12,0,0,81,0,0,0,83,78,78,87,0,115,0,0,0,0,0,0,0,0,0,0,0,19,81,23,0,23,0,79,0,0,116,0,0,0,91,0,0,0,0,0,0,0,0,0,0,0,0,0,0,0,0,0,0,0,
0,79,0,0,0,0,115,0,0,0,0,0,0,88,80,80,84,0,0,0,0,19,0,0,0,23,0,0,81,0,0,0,0,85,80,89,0,0,0,0,0,0,88,80,80,84,0,0,0,83,78,87,0,23,0,0,0,0,0,0,0,0,86,78,82,22,0,0,0,83,87,0,0,0,0,0,91,0,0,0,0,0,0,0,0,0,0,0,0,0,0,0,0,0,0,0,
80,13,0,0,0,0,0,0,0,0,0,0,0,0,20,0,88,23,80,84,0,79,0,0,0,0,86,78,82,0,0,0,85,89,0,0,22,0,0,0,0,0,0,131,0,81,0,14,115,0,0,83,87,0,0,115,21,0,0,117,0,86,82,0,0,0,85,80,84,0,79,0,0,17,0,0,91,0,0,0,0,0,0,0,0,0,0,0,0,0,0,0,0,0,0,0,
0,0,0,0,0,22,0,0,0,0,117,0,0,0,0,0,0,115,0,81,0,79,0,86,78,78,82,0,0,85,80,80,89,0,0,0,0,0,0,15,115,0,0,0,0,81,0,0,0,0,0,0,79,0,0,0,0,0,0,17,0,81,0,85,80,80,89,15,88,80,89,0,0,0,0,99,95,0,0,0,0,0,0,0,0,0,0,0,0,0,0,0,0,0,0,0,
0,0,0,0,0,0,0,0,0,0,0,0,0,86,78,78,78,87,0,81,103,83,78,82,0,0,0,85,80,89,0,0,0,0,15,78,87,0,0,0,0,0,0,0,0,88,80,80,84,0,0,0,79,0,0,0,0,0,0,0,0,88,80,89,0,115,0,0,0,0,0,0,0,0,99,95,0,0,0,0,0,0,0,0,0,0,0,0,0,0,0,0,0,0,0,0,
0,0,0,20,0,0,0,0,0,0,0,0,86,82,0,0,0,83,78,82,101,0,0,0,85,80,80,89,0,0,22,0,0,0,81,0,83,87,115,0,0,0,0,0,0,0,0,0,88,80,80,115,89,0,0,116,0,0,0,0,0,0,0,0,0,0,12,0,0,0,99,92,92,92,95,0,0,0,0,0,0,0,0,0,0,0,0,0,0,0,0,0,0,0,0,0,
0,0,22,0,0,86,78,78,78,78,78,78,82,0,85,80,84,0,0,0,85,80,80,80,89,0,0,0,0,0,0,0,0,0,88,84,0,79,0,0,0,14,0,0,0,23,115,116,0,0,0,0,0,0,0,0,0,0,0,0,0,0,0,0,0,0,0,0,0,0,91,0,0,0,0,0,0,0,0,0,0,0,0,0,0,0,0,0,0,0,0,0,0,0,0,0,
0,0,0,0,86,82,0,0,0,0,0,0,85,80,89,0,88,80,80,80,89,0,0,0,0,0,117,0,0,13,117,0,0,0,0,81,0,15,78,87,0,0,0,0,0,0,0,0,0,0,0,0,0,21,0,0,0,0,0,0,0,19,0,0,115,0,0,0,0,131,91,0,0,0,0,0,0,0,0,0,0,0,0,0,0,0,0,0,0,0,0,0,0,0,0,0,
0,117,0,86,82,0,0,0,0,0,85,80,89,0,0,0,22,0,0,0,0,0,0,0,0,0,22,0,0,0,0,0,0,117,23,88,84,0,0,79,0,0,0,0,0,0,15,0,0,0,19,0,0,0,0,0,116,0,0,0,0,0,0,0,22,0,0,0,0,0,91,0,0,0,0,0,0,0,0,0,0,0,0,0,0,0,0,0,0,0,0,0,0,0,0,0,
78,78,78,82,0,0,85,80,80,80,89,0,0,22,0,0,0,0,0,0,115,0,0,0,12,0,0,0,0,0,0,0,0,0,0,0,88,80,80,89,0,0,0,0,0,0,0,0,0,0,0,0,0,0,0,0,0,0,0,0,0,0,0,0,0,0,0,99,92,92,95,0,0,0,0,0,0,0,0,0,0,0,0,0,0,0,0,0,0,0,0,0,0,0,0,0,
0,0,0,0,0,85,89,0,0,0,0,0,0,0,0,0,17,0,0,0,0,0,0,0,0,0,0,0,0,0,0,0,0,0,0,0,0,0,0,0,0,22,0,117,0,0,0,0,0,0,0,0,0,0,0,0,0,0,0,0,20,0,0,0,0,0,0,91,0,0,0,0,0,0,0,0,0,0,0,0,0,0,0,0,0,0,0,0,0,0,0,0,0,0,0,0,
0,0,0,0,85,89,0,0,0,0,0,0,0,0,0,0,0,0,86,78,78,87,0,0,0,0,0,0,0,0,0,0,12,0,0,0,0,0,0,0,0,0,0,0,0,0,0,0,0,0,0,21,0,0,0,0,0,0,0,22,0,0,0,0,99,92,92,95,0,0,0,0,0,0,0,0,0,0,0,0,0,0,0,0,0,0,0,0,0,0,0,0,0,0,0,0,
0,0,0,85,89,0,0,15,0,0,0,0,0,0,0,0,0,0,81,0,131,83,87,0,0,0,0,0,17,0,0,22,0,0,0,0,0,15,0,0,0,0,0,0,0,0,0,86,78,87,0,0,0,0,0,0,17,0,0,0,0,0,0,99,95,0,0,0,0,0,0,0,0,0,0,0,0,0,0,0,0,0,0,0,0,0,0,0,0,0,0,0,0,0,0,0,
80,80,80,89,0,0,0,0,0,0,0,17,0,116,0,0,0,0,88,80,84,0,83,87,0,0,0,0,0,0,0,0,0,0,0,0,0,0,0,0,0,0,0,19,0,0,17,116,0,79,0,0,0,0,0,0,20,0,0,0,0,0,99,95,0,0,0,0,0,0,0,0,0,0,0,0,0,0,0,0,0,0,0,0,0,0,0,0,0,0,0,0,0,0,0,0,
0,0,0,0,0,115,0,0,0,0,0,0,0,0,0,0,13,0,0,0,81,0,0,79,0,0,117,0,0,0,0,0,0,0,117,0,0,0,0,116,0,0,0,0,86,78,82,0,0,83,87,0,0,0,0,0,0,0,0,0,0,99,95,0,0,0,0,0,0,0,0,0,0,0,0,0,0,0,0,0,0,0,0,0,0,0,0,0,0,0,0,0,0,0,0,0,
0,0,0,22,0,0,0,15,0,0,0,0,0,0,0,0,0,0,86,78,82,0,20,89,0,0,0,0,0,0,0,86,78,78,87,0,0,0,0,0,15,0,0,0,81,0,0,0,0,0,114,0,0,0,0,0,12,0,0,0,0,91,0,0,0,0,0,0,0,0,0,0,0,0,0,0,0,0,0,0,0,0,0,0,0,0,0,0,0,0,0,0,0,0,0,0,
0,0,0,0,0,0,0,0,0,0,0,0,0,21,0,23,117,86,82,0,0,0,79,0,0,0,14,0,0,86,117,82,0,13,79,117,0,0,0,0,0,0,0,0,88,84,0,0,0,0,79,0,0,0,0,0,0,0,99,92,92,95,0,0,0,0,0,0,0,0,0,0,0,0,0,0,0,0,0,0,0,0,0,0,0,0,0,0,0,0,0,0,0,0,0,0,
87,0,0,0,0,0,0,0,0,22,0,0,0,0,0,0,0,81,0,85,117,80,89,0,0,0,0,0,86,82,0,0,0,85,89,0,0,0,0,0,0,0,0,117,0,23,84,0,0,0,83,87,0,0,12,0,0,0,91,0,0,0,0,0,0,0,0,0,0,0,0,0,0,0,0,0,0,0,0,0,0,0,0,0,0,0,0,0,0,0,0,0,0,0,0,0,
79,21,0,0,0,20,0,0,0,0,0,15,0,0,0,0,0,81,0,13,0,0,0,0,23,0,0,86,82,0,0,0,0,79,0,0,0,0,116,0,0,0,0,0,0,0,88,115,131,84,0,79,0,0,0,0,0,99,95,0,0,0,0,0,0,0,0,0,0,0,0,0,0,0,0,0,0,0,0,0,0,0,0,0,0,0,0,0,0,0,0,0,0,0,0,0,
83,87,0,0,0,0,0,0,115,0,0,0,0,0,0,0,0,88,80,89,0,0,0,0,0,0,0,81,14,85,80,84,0,115,78,87,0,0,0,15,0,0,0,0,0,0,0,0,0,88,80,89,0,0,0,0,99,95,0,0,0,0,0,0,0,0,0,0,0,0,0,0,0,0,0,0,0,0,0,0,0,0,0,0,0,0,0,0,0,0,0,0,0,0,0,0,
0,79,116,22,0,0,0,0,0,0,0,0,23,0,0,0,0,0,0,0,0,0,117,0,0,0,0,88,80,89,0,88,84,0,0,79,0,0,0,0,0,0,0,0,0,0,0,0,0,0,0,0,0,114,0,99,95,0,0,0,0,0,0,0,0,0,0,0,0,0,0,0,0,0,0,0,0,0,0,0,0,0,0,0,0,0,0,0,0,0,0,0,0,0,0,0,
84,83,115,0,0,0,0,0,0,23,0,0,0,0,14,0,0,0,22,0,0,0,0,14,0,0,0,0,0,0,0,0,88,80,80,89,0,0,0,0,0,0,131,0,0,0,0,0,0,115,0,0,0,0,0,91,0,0,0,0,0,0,0,0,0,0,0,0,0,0,0,0,0,0,0,0,0,0,0,0,0,0,0,0,0,0,0,0,0,0,0,0,0,0,0,0,
17,0,83,78,78,87,0,0,0,0,0,0,116,0,0,0,0,0,0,0,0,0,0,0,0,0,0,116,0,0,0,0,0,0,0,0,0,0,0,0,0,0,0,0,0,117,0,0,0,0,0,0,0,99,92,95,0,0,0,0,0,0,0,0,0,0,0,0,0,0,0,0,0,0,0,0,0,0,0,0,0,0,0,0,0,0,0,0,0,0,0,0,0,0,0,0,
116,84,0,0,13,79,0,0,0,0,0,0,0,0,0,0,0,0,0,0,0,0,0,0,19,0,0,0,0,0,0,23,0,13,0,0,0,116,14,0,0,0,0,0,0,117,0,13,0,0,0,0,99,95,0,0,0,0,0,0,0,0,0,0,0,0,0,0,0,0,0,0,0,0,0,0,0,0,0,0,0,0,0,0,0,0,0,0,0,0,0,0,0,0,0,0,
0,88,80,84,0,79,0,0,0,17,0,0,0,0,0,0,0,0,21,0,0,0,0,0,0,0,0,0,0,16,0,0,0,0,0,0,0,115,0,0,0,0,0,0,13,0,0,0,0,0,0,99,95,0,0,0,0,0,0,0,0,0,0,0,0,0,0,0,0,0,0,0,0,0,0,0,0,0,0,0,0,0,0,0,0,0,0,0,0,0,0,0,0,0,0,0,
0,0,0,88,80,89,0,22,0,0,0,0,0,23,0,0,0,0,0,0,0,0,0,117,0,0,0,0,116,0,0,0,0,0,0,0,0,0,0,0,0,0,0,0,0,0,0,0,0,99,92,95,0,0,0,0,0,0,0,0,0,0,0,0,0,0,0,0,0,0,0,0,0,0,0,0,0,0,0,0,0,0,0,0,0,0,0,0,0,0,0,0,0,0,0,0,
0,0,0,0,0,0,0,0,0,0,0,0,0,0,17,0,115,0,0,0,0,0,22,0,0,0,0,0,0,0,0,0,114,0,0,0,0,0,0,0,0,0,23,0,117,0,0,0,99,95,0,0,0,0,0,0,0,0,0,0,0,0,0,0,0,0,0,0,0,0,0,0,0,0,0,0,0,0,0,0,0,0,0,0,0,0,0,0,0,0,0,0,0,0,0,0,
14,0,0,115,0,0,0,0,0,0,0,116,0,0,0,0,0,0,0,0,0,0,0,0,0,0,0,0,0,0,0,0,0,0,20,0,0,0,0,0,0,0,0,0,0,0,99,92,95,0,0,0,0,0,0,0,0,0,0,0,0,0,0,0,0,0,0,0,0,0,0,0,0,0,0,0,0,0,0,0,0,0,0,0,0,0,0,0,0,0,0,0,0,0,0,0,
0,0,0,0,0,0,0,0,0,0,19,0,0,0,0,0,0,0,0,99,92,92,92,98,0,0,0,0,13,0,0,0,0,0,0,0,0,0,0,15,20,0,0,0,0,99,95,0,0,0,0,0,0,0,0,0,0,0,0,0,0,0,0,0,0,0,0,0,0,0,0,0,0,0,0,0,0,0,0,0,0,0,0,0,0,0,0,0,0,0,0,0,0,0,0,0,
98,0,0,23,0,0,0,12,0,0,0,0,0,0,99,92,92,92,92,95,0,0,0,94,92,92,98,0,0,0,0,0,0,0,115,0,17,0,0,0,0,0,0,99,92,95,0,0,0,0,0,0,0,0,0,0,0,0,0,0,0,0,0,0,0,0,0,0,0,0,0,0,0,0,0,0,0,0,0,0,0,0,0,0,0,0,0,0,0,0,0,0,0,0,0,0,
94,92,92,98,0,0,0,0,0,116,0,0,0,99,95,0,0,0,0,0,0,0,0,0,0,0,94,92,92,92,92,98,0,0,0,0,0,0,0,0,99,92,92,95,0,0,0,0,0,0,0,0,0,0,0,0,0,0,0,0,0,0,0,0,0,0,0,0,0,0,0,0,0,0,0,0,0,0,0,0,0,0,0,0,0,0,0,0,0,0,0,0,0,0,0,0,
0,0,0,94,92,92,98,0,99,92,92,92,92,95,0,0,0,0,0,0,0,0,0,0,0,0,0,0,0,0,0,94,92,92,92,92,92,92,92,92,95,0,0,0,0,0,0,0,0,0,0,0,0,0,0,0,0,0,0,0,0,0,0,0,0,0,0,0,0,0,0,0,0,0,0,0,0,0,0,0,0,0,0,0,0,0,0,0,0,0,0,0,0,0,0,0,
0,0,0,0,0,0,94,92,95,0,0,0,0,0,0,0,0,0,0,0,0,0,0,0,0,0,0,0,0,0,0,0,0,0,0,0,0,0,0,0,0,0,0,0,0,0,0,0,0,0,0,0,0,0,0,0,0,0,0,0,0,0,0,0,0,0,0,0,0,0,0,0,0,0,0,0,0,0,0,0,0,0,0,0,0,0,0,0,0,0,0,0,0,0,0,0,
0,0,0,0,0,0,0,0,0,0,0,0,0,0,0,0,0,0,0,0,0,0,0,0,0,0,0,0,0,0,0,0,0,0,0,0,0,0,0,0,0,0,0,0,0,0,0,0,0,0,0,0,0,0,0,0,0,0,0,0,0,0,0,0,0,0,0,0,0,0,0,0,0,0,0,0,0,0,0,0,0,0,0,0,0,0,0,0,0,0,0,0,0,0,0,0,
0,0,0,0,0,0,0,0,0,0,0,0,0,0,0,0,0,0,0,0,0,0,0,0,0,0,0,0,0,0,0,0,0,0,0,0,0,0,0,0,0,0,0,0,0,0,0,0,0,0,0,0,0,0,0,0,0,0,0,0,0,0,0,0,0,0,0,0,0,0,0,0,0,0,0,0,0,0,0,0,0,0,0,0,0,0,0,0,0,0,0,0,0,0,0,0,
0,0,0,0,0,0,0,0,0,0,0,0,0,0,0,0,0,0,0,0,0,0,0,0,0,0,0,0,0,0,0,0,0,0,0,0,0,0,0,0,0,0,0,0,0,0,0,0,0,0,0,0,0,0,0,0,0,0,0,0,0,0,0,0,0,0,0,0,0,0,0,0,0,0,0,0,0,0,0,0,0,0,0,0,0,0,0,0,0,0,0,0,0,0,0,0,
0,0,0,0,0,0,0,0,0,0,0,0,0,0,0,0,0,0,0,0,0,0,0,0,0,0,0,0,0,0,0,0,0,0,0,0,0,0,0,0,0,0,0,0,0,0,0,0,0,0,0,0,0,0,0,0,0,0,0,0,0,0,0,0,0,0,0,0,0,0,0,0,0,0,0,0,0,0,0,0,0,0,0,0,0,0,0,0,0,0,0,0,0,0,0,0
</data>
 </layer>
 <layer id="3" name="Collision" width="96" height="96">
  <data encoding="csv">
0,0,0,0,0,0,0,0,0,0,0,0,0,0,0,0,0,0,0,0,0,0,0,0,0,0,0,0,0,0,0,0,0,0,0,0,0,0,0,0,0,0,0,0,0,0,0,0,0,0,0,0,0,0,0,0,0,0,0,0,0,0,0,0,0,0,0,0,0,0,0,0,0,0,0,0,0,0,0,0,0,0,0,0,0,0,0,0,0,0,0,0,0,0,0,0,
0,0,0,0,0,0,0,0,0,0,0,0,0,0,0,0,0,0,0,0,0,0,0,0,0,0,0,0,0,0,0,0,0,0,0,0,0,0,0,0,0,0,0,0,0,0,0,0,0,0,0,0,0,0,0,0,0,0,0,0,0,0,0,0,0,0,0,0,0,0,0,0,0,0,0,0,0,0,0,0,0,0,0,0,0,0,0,0,0,0,0,0,0,0,0,0,
0,0,0,0,0,0,0,0,0,0,0,0,0,0,0,0,0,0,0,0,0,0,0,0,0,0,0,0,0,0,0,0,0,0,0,0,0,0,0,0,0,0,0,0,0,0,0,0,0,0,0,0,0,0,0,0,0,0,0,0,0,0,0,0,0,0,0,0,0,0,0,0,0,0,0,0,0,0,0,0,0,0,0,0,0,0,0,0,0,0,0,0,0,0,0,0,
0,0,0,0,0,0,0,0,0,0,0,0,0,0,0,0,0,0,0,0,0,0,0,0,0,0,0,0,0,0,0,0,0,0,0,0,0,0,0,0,0,0,0,0,0,0,0,0,0,0,0,0,0,0,0,0,0,0,0,0,0,0,0,0,0,0,0,0,0,0,0,0,0,0,0,0,0,0,0,0,0,0,0,0,0,0,0,0,0,0,0,0,0,0,0,0,
0,0,0,0,0,0,0,0,0,0,0,0,0,0,0,0,0,0,0,0,0,0,0,0,0,0,0,0,0,0,0,0,0,0,0,0,0,0,0,0,0,0,0,0,0,0,0,0,0,0,0,0,0,0,0,0,0,0,0,0,0,0,0,0,0,0,0,0,0,0,0,0,0,0,0,0,0,0,0,0,0,0,0,0,0,0,0,0,0,0,0,0,0,0,0,0,
0,0,0,0,0,0,0,0,0,0,0,0,0,0,0,0,0,0,0,0,0,0,0,0,0,0,0,0,0,0,0,0,0,0,0,0,0,0,0,0,0,0,0,0,0,0,0,0,0,0,0,0,0,0,0,0,0,0,0,0,0,0,0,0,0,0,0,0,0,0,0,0,0,0,0,0,0,0,0,0,0,0,0,0,0,0,0,0,0,0,0,0,0,0,0,0,
0,0,0,0,0,0,0,0,0,0,0,0,0,0,0,0,0,0,0,0,0,0,0,0,0,0,0,0,0,0,0,0,0,0,0,0,0,0,0,0,0,0,0,0,0,0,0,0,0,0,0,0,0,0,0,0,0,0,0,0,0,0,0,0,0,0,0,0,0,0,0,0,0,0,0,0,0,0,0,0,0,0,0,0,0,0,0,0,0,0,0,0,0,0,0,0,
0,0,0,0,0,0,0,0,0,0,0,0,0,0,0,0,0,0,0,0,0,0,0,0,0,0,0,0,0,0,0,0,0,0,0,0,0,0,0,0,0,0,0,0,0,0,0,0,0,0,0,0,0,0,0,0,0,0,0,0,0,0,0,0,0,0,0,0,0,0,0,0,0,0,0,0,0,0,0,0,0,0,0,0,0,0,0,0,0,0,0,0,0,0,0,0,
0,0,0,0,0,0,0,0,0,0,0,0,0,0,0,0,0,0,0,0,0,0,0,0,0,0,0,0,0,0,0,0,0,0,0,0,0,0,0,0,0,0,0,0,0,0,0,0,0,0,0,0,0,0,0,0,0,0,0,0,0,0,0,0,0,0,0,0,0,0,0,0,0,0,0,0,0,0,0,0,0,0,0,0,0,0,0,0,0,0,0,0,0,0,0,0,
0,0,0,0,0,0,0,0,0,0,0,0,0,0,0,0,0,0,0,0,0,0,0,0,0,0,0,0,0,0,0,0,0,0,0,0,0,0,0,0,0,0,0,0,0,0,0,0,0,0,0,0,0,0,0,0,0,0,0,0,0,0,0,0,0,0,0,0,0,0,0,0,0,0,0,0,0,0,0,0,0,0,0,0,0,0,0,0,0,0,0,0,0,0,0,0,
0,0,0,0,0,0,0,0,0,0,0,0,0,0,0,0,0,0,0,0,0,0,0,0,0,0,0,0,0,0,0,0,0,0,0,0,0,0,0,0,0,0,0,0,0,0,0,0,0,0,0,0,0,0,0,0,0,0,0,0,0,0,0,0,0,0,0,0,0,0,0,0,0,0,0,0,0,0,0,0,0,0,0,0,0,0,0,0,0,0,0,0,0,0,0,0,
0,0,0,0,0,0,0,0,0,0,0,0,0,0,0,0,0,0,0,0,0,0,0,0,0,0,0,0,0,0,0,0,0,0,0,0,0,0,0,0,0,0,0,0,0,0,0,0,0,0,0,0,0,0,0,0,0,0,0,0,0,0,0,0,0,0,0,0,0,0,0,0,0,0,0,0,0,0,0,0,0,0,0,0,0,0,0,0,0,0,0,0,0,0,0,0,
0,0,0,0,0,0,0,0,0,0,0,0,0,0,0,0,0,0,0,0,0,0,0,0,0,0,0,0,0,0,0,0,0,0,0,0,0,0,0,0,0,0,0,0,0,0,0,0,0,0,0,0,0,0,0,0,0,0,0,0,0,0,0,0,0,0,0,0,0,0,0,0,0,0,0,0,0,0,0,0,0,0,0,0,0,0,0,0,0,0,0,0,0,0,0,0,
0,0,0,0,0,0,0,0,0,0,0,0,0,0,0,0,0,0,0,0,0,0,0,0,0,0,0,0,0,0,0,0,0,0,0,0,0,0,0,0,0,0,0,0,0,0,0,0,0,0,0,0,0,0,0,0,0,0,0,0,0,0,0,0,0,0,0,0,0,0,0,0,0,0,0,0,0,0,0,0,0,0,0,0,0,0,0,0,0,0,0,0,0,0,0,0,
0,0,0,0,0,0,0,0,0,0,0,0,0,0,0,0,0,0,0,0,0,0,0,0,0,0,0,0,0,0,0,0,0,0,0,0,0,0,0,0,0,0,0,0,0,0,0,0,0,0,0,0,0,0,0,0,0,0,0,0,0,0,0,0,0,0,0,0,0,0,0,0,0,0,0,0,0,0,0,0,0,0,0,0,0,0,0,0,0,0,0,0,0,0,0,0,
0,0,0,0,0,0,0,0,0,0,0,0,0,0,0,0,0,0,0,0,0,0,0,0,0,0,0,0,0,0,0,0,0,0,0,0,0,0,0,0,0,0,0,0,0,0,0,0,0,0,0,0,0,0,0,0,0,0,0,0,0,0,0,0,0,0,0,0,0,0,0,0,0,0,0,0,0,0,0,0,0,0,0,0,0,0,0,0,0,0,0,0,0,0,0,0,
0,0,0,0,0,0,0,0,0,0,0,0,0,0,0,0,0,0,0,0,0,0,0,0,0,0,0,0,0,0,0,0,0,0,0,0,0,0,0,0,0,0,0,0,0,0,0,0,0,0,0,0,0,0,0,0,0,0,0,0,0,0,0,0,0,0,0,0,0,0,0,0,0,0,0,0,0,0,0,0,0,0,0,0,0,0,0,0,0,0,0,0,0,0,0,0,
0,0,0,0,0,0,0,0,0,0,0,0,0,0,0,0,0,0,0,0,0,0,0,0,0,0,0,0,0,0,0,0,0,0,0,0,0,0,0,0,0,0,0,0,0,0,0,0,0,0,0,0,0,0,0,0,0,0,0,0,0,0,0,0,0,0,0,0,0,0,0,0,0,0,0,0,0,0,0,0,0,0,0,0,0,0,0,0,0,0,0,0,0,0,0,0,
0,0,0,0,0,0,0,0,0,0,0,0,0,0,0,0,0,0,0,0,0,0,0,0,0,0,0,0,0,0,0,0,0,0,0,0,0,0,0,0,0,0,0,0,0,0,0,0,0,0,0,0,0,0,0,0,0,0,0,0,0,0,0,0,0,0,0,0,0,0,0,0,0,0,0,0,0,0,0,0,0,0,0,0,0,0,0,0,0,0,0,0,0,0,0,0,
0,0,0,0,0,0,0,0,0,0,0,0,0,0,0,0,0,0,0,0,0,0,0,0,0,0,0,0,0,0,0,0,0,0,0,0,0,0,0,0,0,0,0,0,0,0,0,0,0,0,0,0,0,0,0,0,0,0,0,0,0,0,0,0,0,0,0,0,0,0,0,0,0,0,0,0,0,0,0,0,0,0,0,0,0,0,0,0,0,0,0,0,0,0,0,0,
0,0,0,0,0,0,0,0,0,0,0,0,0,0,0,0,0,0,0,0,0,0,0,0,0,0,0,0,0,0,0,0,0,0,0,0,0,0,0,0,0,0,0,0,0,0,0,0,0,0,0,0,0,0,0,0,0,0,0,0,0,0,0,0,0,0,0,0,0,0,0,0,0,0,0,0,0,0,0,0,0,0,0,0,0,0,0,0,0,0,0,0,0,0,0,0,
0,0,0,0,0,0,0,0,0,0,0,0,0,0,0,0,0,0,0,0,0,0,0,0,0,0,0,0,0,0,0,0,0,0,0,0,0,0,0,0,0,0,0,0,0,0,0,0,0,0,0,0,0,0,0,0,0,0,0,0,0,0,0,0,0,0,0,0,0,0,0,0,0,0,0,0,0,0,0,0,0,0,0,0,0,0,0,0,0,0,0,0,0,0,0,0,
0,0,0,0,0,0,0,0,0,0,0,0,0,0,0,0,0,0,0,0,0,0,0,0,0,0,0,0,0,0,0,0,0,0,0,0,0,0,0,0,0,0,0,0,0,0,0,0,0,0,0,0,0,0,0,0,0,0,0,0,0,0,0,0,0,0,0,0,0,0,0,0,0,0,0,0,0,0,0,0,0,0,0,0,0,0,0,0,0,0,0,0,0,0,0,0,
0,0,0,0,0,0,0,0,0,0,0,0,0,0,0,0,0,0,0,0,0,0,0,0,0,0,0,0,0,0,0,0,0,0,0,0,0,0,0,0,0,0,0,0,0,0,0,0,0,0,0,0,0,0,0,0,0,0,0,0,0,0,0,0,0,0,0,0,0,0,0,0,0,0,0,0,0,0,0,0,0,0,0,0,0,0,0,0,0,0,0,0,0,0,0,0,
0,0,0,0,0,0,0,0,0,0,0,0,0,0,0,0,0,0,0,0,0,0,0,0,0,0,0,0,0,0,0,0,0,0,0,0,0,0,0,0,0,0,0,0,0,0,0,0,0,0,0,0,0,0,0,0,0,0,0,0,0,0,0,0,0,0,0,0,0,0,0,0,0,0,0,0,0,0,0,0,0,0,0,0,0,0,0,0,0,0,0,0,0,0,0,0,
0,0,0,0,0,0,0,0,0,0,0,0,0,0,0,0,0,0,0,0,0,0,0,0,0,0,0,0,0,0,0,0,0,0,0,0,0,0,0,0,0,0,0,0,0,0,0,0,0,0,0,0,0,0,0,0,0,0,0,0,0,0,0,0,0,0,0,0,0,0,0,0,0,0,0,0,0,0,0,0,0,0,0,0,0,0,0,0,0,0,0,0,0,0,0,0,
0,0,0,0,0,0,0,0,0,0,0,0,0,0,0,0,0,0,0,0,0,0,0,0,0,0,0,0,0,0,0,0,0,0,0,0,0,0,0,0,0,0,0,0,0,0,0,0,0,0,0,0,0,0,0,0,0,0,0,0,0,0,0,0,0,0,0,0,0,0,0,0,0,0,0,0,0,0,0,0,0,0,0,0,0,0,0,0,0,0,0,0,0,0,0,0,
0,0,0,0,0,0,0,0,0,0,0,0,0,0,0,0,0,0,0,0,0,0,0,0,0,0,0,0,0,0,0,0,0,0,0,0,0,0,0,0,0,0,0,0,0,0,0,0,0,0,0,0,0,0,0,0,0,0,0,0,0,0,0,0,0,0,0,0,0,0,0,0,0,0,0,0,0,0,0,0,0,0,0,0,0,0,0,0,0,0,0,0,0,0,0,0,
0,0,0,0,0,0,0,0,0,0,0,0,0,0,0,0,0,0,0,0,0,0,0,0,0,0,0,0,0,0,0,0,0,0,0,0,0,0,0,0,0,0,0,0,0,0,0,0,0,0,0,0,0,0,0,0,0,0,0,0,0,0,0,0,0,0,0,0,0,0,0,0,0,0,0,0,0,0,0,0,0,0,0,0,0,0,0,0,0,0,0,0,0,0,0,0,
0,0,0,0,0,0,0,0,0,0,0,0,0,0,0,0,0,0,0,0,0,0,0,0,0,0,0,0,0,0,0,0,0,0,0,0,0,0,0,0,0,0,0,0,0,0,0,0,0,0,0,0,0,0,0,0,0,0,0,0,0,0,0,0,0,0,0,0,0,0,0,0,0,0,0,0,0,0,0,0,0,0,0,0,0,0,0,0,0,0,0,0,0,0,0,0,
0,0,0,0,0,0,0,0,0,0,0,0,0,0,0,0,0,0,0,0,0,0,0,0,0,0,0,0,0,0,0,0,0,0,0,0,0,0,0,0,0,0,0,0,0,0,0,0,0,0,0,0,0,0,0,0,0,0,0,0,0,0,0,0,0,0,0,0,0,0,0,0,0,0,0,0,0,0,0,0,0,0,0,0,0,0,0,0,0,0,0,0,0,0,0,0,
0,0,0,0,0,0,0,0,0,0,0,0,0,0,0,0,0,0,0,0,0,0,0,0,0,0,0,0,0,0,0,0,0,0,0,0,0,0,0,0,0,0,0,0,0,0,0,0,0,0,0,0,0,0,0,0,0,0,0,0,0,0,0,0,0,0,0,0,0,0,0,0,0,0,0,0,0,0,0,0,0,0,0,0,0,0,0,0,0,0,0,0,0,0,0,0,
0,0,0,0,0,0,0,0,0,0,0,0,0,0,0,0,0,0,0,0,0,0,0,0,0,0,0,0,0,0,0,0,0,0,0,0,0,0,0,0,0,0,0,0,0,0,0,0,0,0,0,0,0,0,0,0,0,0,0,0,0,0,0,0,0,0,0,0,0,0,0,0,0,0,0,0,0,0,0,0,0,0,0,0,0,0,0,0,0,0,0,0,0,0,0,0,
0,0,0,0,0,0,0,0,0,0,0,0,0,0,0,0,0,0,0,0,0,0,0,0,0,0,0,0,0,0,0,0,0,0,0,0,0,0,0,0,0,0,0,0,0,0,0,0,0,0,0,0,0,0,0,0,0,0,0,0,0,0,0,0,0,0,0,0,0,0,0,0,0,0,0,0,0,0,0,0,0,0,0,0,0,0,0,0,0,0,0,0,0,0,0,0,
0,0,0,0,0,0,0,0,0,0,0,0,0,0,0,0,0,0,0,0,0,0,0,0,0,0,0,0,0,0,0,0,0,0,0,0,0,0,0,0,0,0,0,0,0,0,0,0,0,0,0,0,0,0,0,0,0,0,0,0,0,0,0,0,0,0,0,0,0,0,0,0,0,0,0,0,0,0,0,0,0,0,0,0,0,0,0,0,0,0,0,0,0,0,0,0,
0,0,0,0,0,0,0,0,0,0,0,0,0,0,0,0,0,0,0,0,0,0,0,0,0,0,0,0,0,0,0,0,0,0,0,0,0,0,0,0,0,0,0,0,0,0,0,0,0,0,0,0,0,0,0,0,0,0,0,0,0,0,0,0,0,0,0,0,0,0,0,0,0,0,0,0,0,0,0,0,0,0,0,0,0,0,0,0,0,0,0,0,0,0,0,0,
0,0,0,0,0,0,0,0,0,0,0,0,0,0,0,0,0,0,0,0,0,0,0,0,0,0,0,0,0,0,0,0,0,0,0,0,0,0,0,0,0,0,0,0,0,0,0,0,0,0,0,0,0,0,0,0,0,0,0,0,0,0,0,0,0,0,0,0,0,0,0,0,0,0,0,0,0,0,0,0,0,0,0,0,0,0,0,0,0,0,0,0,0,0,0,0,
0,0,0,0,0,0,0,0,0,0,0,0,0,0,0,0,0,0,0,0,0,0,0,0,0,0,0,0,0,0,0,0,0,0,0,0,0,0,0,0,0,0,0,0,0,0,0,0,0,0,0,0,0,0,0,0,0,0,0,0,0,0,0,0,0,0,0,0,0,0,0,0,0,0,0,0,0,0,0,0,0,0,0,0,0,0,0,0,0,0,0,0,0,0,0,0,
0,0,0,0,0,0,0,0,0,0,0,0,0,0,0,0,0,0,0,0,0,0,0,0,0,0,0,0,0,0,0,0,0,0,0,0,0,0,0,0,0,0,0,0,0,0,0,0,0,0,0,0,0,0,0,0,0,0,0,0,0,0,0,0,0,0,0,0,0,0,0,0,0,0,0,0,0,0,0,0,0,0,0,0,0,0,0,0,0,0,0,0,0,0,0,0,
0,0,0,0,0,0,0,0,0,0,0,0,0,0,0,0,0,0,0,0,0,0,0,0,0,0,0,0,0,0,0,0,0,0,0,0,0,0,0,0,0,0,0,0,0,0,0,0,0,0,0,0,0,0,0,0,0,0,0,0,0,0,0,0,0,0,0,0,0,0,0,0,0,0,0,0,0,0,0,0,0,0,0,0,0,0,0,0,0,0,0,0,0,0,0,0,
0,0,0,0,0,0,0,0,0,0,0,0,0,0,0,0,0,0,0,0,0,0,0,0,0,0,0,0,0,0,0,0,0,0,0,0,0,0,0,0,0,0,0,0,0,0,0,0,0,0,0,0,0,0,0,0,0,0,0,0,0,0,0,0,0,0,0,0,0,0,0,0,0,0,0,0,0,0,0,0,0,0,0,0,0,0,0,0,0,0,0,0,0,0,0,0,
0,0,0,0,0,0,0,0,0,0,0,0,0,0,0,0,0,0,0,0,0,0,0,0,0,0,0,0,0,0,0,0,0,0,0,0,0,0,0,0,0,0,0,0,0,0,0,0,0,0,0,0,0,0,0,0,0,0,0,0,0,0,0,0,0,0,0,0,0,0,0,0,0,0,0,0,0,0,0,0,0,0,0,0,0,0,0,0,0,0,0,0,0,0,0,0,
0,0,0,0,0,0,0,0,0,0,0,0,0,0,0,0,0,0,0,0,0,0,0,0,0,0,0,0,0,0,0,0,0,0,0,0,0,0,0,0,0,0,0,0,0,0,0,0,0,0,0,0,0,0,0,0,0,0,0,0,0,0,0,0,0,0,0,0,0,0,0,0,0,0,0,0,0,0,0,0,0,0,0,0,0,0,0,0,0,0,0,0,0,0,0,0,
0,0,0,0,0,0,0,0,0,0,0,0,0,0,0,0,0,0,0,0,0,0,0,0,0,0,0,0,0,0,0,0,0,0,0,0,0,0,0,0,0,0,0,0,0,0,0,0,0,0,0,0,0,0,0,0,0,0,0,0,0,0,0,0,0,0,0,0,0,0,0,0,0,0,0,0,0,0,0,0,0,0,0,0,0,0,0,0,0,0,0,0,0,0,0,0,
0,0,0,0,0,0,0,0,0,0,0,0,0,0,0,0,0,0,0,0,0,0,0,0,0,0,0,0,0,0,0,0,0,0,0,0,0,0,0,0,0,0,0,0,0,0,0,0,0,0,0,0,0,0,0,0,0,0,0,0,0,0,0,0,0,0,0,0,0,0,0,0,0,0,0,0,0,0,0,0,0,0,0,0,0,0,0,0,0,0,0,0,0,0,0,0,
0,0,0,0,0,0,0,0,0,0,0,0,0,0,0,0,0,0,0,0,0,0,0,0,0,0,0,0,0,0,0,0,0,0,0,0,0,0,0,0,0,0,0,0,0,0,0,0,0,0,0,0,0,0,0,0,0,0,0,0,0,0,0,0,0,0,0,0,0,0,0,0,0,0,0,0,0,0,0,0,0,0,0,0,0,0,0,0,0,0,0,0,0,0,0,0,
0,0,0,0,0,0,0,0,0,0,0,0,0,0,0,0,0,0,0,0,0,0,0,0,0,0,0,0,0,0,0,0,0,0,0,0,0,0,0,0,0,0,0,0,0,0,0,0,0,0,0,0,0,0,0,0,0,0,0,0,0,0,0,0,0,0,0,0,0,0,0,0,0,0,0,0,0,0,0,0,0,0,0,0,0,0,0,0,0,0,0,0,0,0,0,0,
0,0,0,0,0,0,0,0,0,0,0,0,0,0,0,0,0,0,0,0,0,0,0,0,0,0,0,0,0,0,0,0,0,0,0,0,0,0,0,0,0,0,0,0,0,0,0,0,0,0,0,0,0,0,0,0,0,0,0,0,0,0,0,0,0,0,0,0,0,0,0,0,0,0,0,0,0,0,0,0,0,0,0,0,0,0,0,0,0,0,0,0,0,0,0,0,
0,0,0,0,0,0,0,0,0,0,0,0,0,0,0,0,0,0,0,0,0,0,0,0,0,0,0,0,0,0,0,0,0,0,0,0,0,0,0,0,0,0,0,0,0,0,0,0,0,0,0,0,0,0,0,0,0,0,0,0,0,0,0,0,0,0,0,0,0,0,0,0,0,0,0,0,0,0,0,0,0,0,0,0,0,0,0,0,0,0,0,0,0,0,0,0,
0,0,0,0,0,0,0,0,0,0,0,0,0,0,0,0,0,0,0,0,0,0,0,0,0,0,0,0,0,0,0,0,0,0,0,0,0,0,0,0,0,0,0,0,0,0,0,0,0,0,0,0,0,0,0,0,0,0,0,0,0,0,0,0,0,0,0,0,0,0,0,0,0,0,0,0,0,0,0,0,0,0,0,0,0,0,0,0,0,0,0,0,0,0,0,0,
0,0,0,0,0,0,0,0,0,0,0,0,0,0,0,0,0,0,0,0,0,0,0,0,0,0,0,0,0,0,0,0,0,0,0,0,0,0,0,0,0,0,0,0,0,0,0,0,0,0,0,0,0,0,0,0,0,0,0,0,0,0,0,0,0,0,0,0,0,0,0,0,0,0,0,0,0,0,0,0,0,0,0,0,0,0,0,0,0,0,0,0,0,0,0,0,
0,0,0,0,0,0,0,0,0,0,0,0,0,0,0,0,0,0,0,0,0,0,0,0,0,0,0,0,0,0,0,0,0,0,0,0,0,0,0,0,0,0,0,0,0,0,0,0,0,0,0,0,0,0,0,0,0,0,0,0,0,0,0,0,0,0,0,0,0,0,0,0,0,0,0,0,0,0,0,0,0,0,0,0,0,0,0,0,0,0,0,0,0,0,0,0,
0,0,0,0,0,0,0,0,0,0,0,0,0,0,0,0,0,0,0,0,0,0,0,0,0,0,0,0,0,0,0,0,0,0,0,0,0,0,0,0,0,0,0,0,0,0,0,0,0,0,0,0,0,0,0,0,0,0,0,0,0,0,0,0,0,0,0,0,0,0,0,0,0,0,0,0,0,0,0,0,0,0,0,0,0,0,0,0,0,0,0,0,0,0,0,0,
0,0,0,0,0,0,0,0,0,0,0,0,0,0,0,0,0,0,0,0,0,0,0,0,0,0,0,0,0,0,0,0,0,0,0,0,0,0,0,0,0,0,0,0,0,0,0,0,0,0,0,0,0,0,0,0,0,0,0,0,0,0,0,0,0,0,0,0,0,0,0,0,0,0,0,0,0,0,0,0,0,0,0,0,0,0,0,0,0,0,0,0,0,0,0,0,
0,0,0,0,0,0,0,0,0,0,0,0,0,0,0,0,0,0,0,0,0,0,0,0,0,0,0,0,0,0,0,0,0,0,0,0,0,0,0,0,0,0,0,0,0,0,0,0,0,0,0,0,0,0,0,0,0,0,0,0,0,0,0,0,0,0,0,0,0,0,0,0,0,0,0,0,0,0,0,0,0,0,0,0,0,0,0,0,0,0,0,0,0,0,0,0,
0,0,0,0,0,0,0,0,0,0,0,0,0,0,0,0,0,0,0,0,0,0,0,0,0,0,0,0,0,0,0,0,0,0,0,0,0,0,0,0,0,0,0,0,0,0,0,0,0,0,0,0,0,0,0,0,0,0,0,0,0,0,0,0,0,0,0,0,0,0,0,0,0,0,0,0,0,0,0,0,0,0,0,0,0,0,0,0,0,0,0,0,0,0,0,0,
0,0,0,0,0,0,0,0,0,0,0,0,0,0,0,0,0,0,0,0,0,0,0,0,0,0,0,0,0,0,0,0,0,0,0,0,0,0,0,0,0,0,0,0,0,0,0,0,0,0,0,0,0,0,0,0,0,0,0,0,0,0,0,0,0,0,0,0,0,0,0,0,0,0,0,0,0,0,0,0,0,0,0,0,0,0,0,0,0,0,0,0,0,0,0,0,
0,0,0,0,0,0,0,0,0,0,0,0,0,0,0,0,0,0,0,0,0,0,0,0,0,0,0,0,0,0,0,0,0,0,0,0,0,0,0,0,0,0,0,0,0,0,0,0,0,0,0,0,0,0,0,0,0,0,0,0,0,0,0,0,0,0,0,0,0,0,0,0,0,0,0,0,0,0,0,0,0,0,0,0,0,0,0,0,0,0,0,0,0,0,0,0,
0,0,0,0,0,0,0,0,0,0,0,0,0,0,0,0,0,0,0,0,0,0,0,0,0,0,0,0,0,0,0,0,0,0,0,0,0,0,0,0,0,0,0,0,0,0,0,0,0,0,0,0,0,0,0,0,0,0,0,0,0,0,0,0,0,0,0,0,0,0,0,0,0,0,0,0,0,0,0,0,0,0,0,0,0,0,0,0,0,0,0,0,0,0,0,0,
0,0,0,0,0,0,0,0,0,0,0,0,0,0,0,0,0,0,0,0,0,0,0,0,0,0,0,0,0,0,0,0,0,0,0,0,0,0,0,0,0,0,0,0,0,0,0,0,0,0,0,0,0,0,0,0,0,0,0,0,0,0,0,0,0,0,0,0,0,0,0,0,0,0,0,0,0,0,0,0,0,0,0,0,0,0,0,0,0,0,0,0,0,0,0,0,
0,0,0,0,0,0,0,0,0,0,0,0,0,0,0,0,0,0,0,0,0,0,0,0,0,0,0,0,0,0,0,0,0,0,0,0,0,0,0,0,0,0,0,0,0,0,0,0,0,0,0,0,0,0,0,0,0,0,0,0,0,0,0,0,0,0,0,0,0,0,0,0,0,0,0,0,0,0,0,0,0,0,0,0,0,0,0,0,0,0,0,0,0,0,0,0,
0,0,0,0,0,0,0,0,0,0,0,0,0,0,0,0,0,0,0,0,0,0,0,0,0,0,0,0,0,0,0,0,0,0,0,0,0,0,0,0,0,0,0,0,0,0,0,0,0,0,0,0,0,0,0,0,0,0,0,0,0,0,0,0,0,0,0,0,0,0,0,0,0,0,0,0,0,0,0,0,0,0,0,0,0,0,0,0,0,0,0,0,0,0,0,0,
0,0,0,0,0,0,0,0,0,0,0,0,0,0,0,0,0,0,0,0,0,0,0,0,0,0,0,0,0,0,0,0,0,0,0,0,0,0,0,0,0,0,0,0,0,0,0,0,0,0,0,0,0,0,0,0,0,0,0,0,0,0,0,0,0,0,0,0,0,0,0,0,0,0,0,0,0,0,0,0,0,0,0,0,0,0,0,0,0,0,0,0,0,0,0,0,
0,0,0,0,0,0,0,0,0,0,0,0,0,0,0,0,0,0,0,0,0,0,0,0,0,0,0,0,0,0,0,0,0,0,0,0,0,0,0,0,0,0,0,0,0,0,0,0,0,0,0,0,0,0,0,0,0,0,0,0,0,0,0,0,0,0,0,0,0,0,0,0,0,0,0,0,0,0,0,0,0,0,0,0,0,0,0,0,0,0,0,0,0,0,0,0,
0,0,0,0,0,0,0,0,0,0,0,0,0,0,0,0,0,0,0,0,0,0,0,0,0,0,0,0,0,0,0,0,0,0,0,0,0,0,0,0,0,0,0,0,0,0,0,0,0,0,0,0,0,0,0,0,0,0,0,0,0,0,0,0,0,0,0,0,0,0,0,0,0,0,0,0,0,0,0,0,0,0,0,0,0,0,0,0,0,0,0,0,0,0,0,0,
0,0,0,0,0,0,0,0,0,0,0,0,0,0,0,0,0,0,0,0,0,0,0,0,0,0,0,0,0,0,0,0,0,0,0,0,0,0,0,0,0,0,0,0,0,0,0,0,0,0,0,0,0,0,0,0,0,0,0,0,0,0,0,0,0,0,0,0,0,0,0,0,0,0,0,0,0,0,0,0,0,0,0,0,0,0,0,0,0,0,0,0,0,0,0,0,
0,0,0,0,0,0,0,0,0,0,0,0,0,0,0,0,0,0,0,0,0,0,0,0,0,0,0,0,0,0,0,0,0,0,0,0,0,0,0,0,0,0,0,0,0,0,0,0,0,0,0,0,0,0,0,0,0,0,0,0,0,0,0,0,0,0,0,0,0,0,0,0,0,0,0,0,0,0,0,0,0,0,0,0,0,0,0,0,0,0,0,0,0,0,0,0,
0,0,0,0,0,0,0,0,0,0,0,0,0,0,0,0,0,0,0,0,0,0,0,0,0,0,0,0,0,0,0,0,0,0,0,0,0,0,0,0,0,0,0,0,0,0,0,0,0,0,0,0,0,0,0,0,0,0,0,0,0,0,0,0,0,0,0,0,0,0,0,0,0,0,0,0,0,0,0,0,0,0,0,0,0,0,0,0,0,0,0,0,0,0,0,0,
0,0,0,0,0,0,0,0,0,0,0,0,0,0,0,0,0,0,0,0,0,0,0,0,0,0,0,0,0,0,0,0,0,0,0,0,0,0,0,0,0,0,0,0,0,0,0,0,0,0,0,0,0,0,0,0,0,0,0,0,0,0,0,0,0,0,0,0,0,0,0,0,0,0,0,0,0,0,0,0,0,0,0,0,0,0,0,0,0,0,0,0,0,0,0,0,
0,0,0,0,0,0,0,0,0,0,0,0,0,0,0,0,0,0,0,0,0,0,0,0,0,0,0,0,0,0,0,0,0,0,0,0,0,0,0,0,0,0,0,0,0,0,0,0,0,0,0,0,0,0,0,0,0,0,0,0,0,0,0,0,0,0,0,0,0,0,0,0,0,0,0,0,0,0,0,0,0,0,0,0,0,0,0,0,0,0,0,0,0,0,0,0,
0,0,0,0,0,0,0,0,0,0,0,0,0,0,0,0,0,0,0,0,0,0,0,0,0,0,0,0,0,0,0,0,0,0,0,0,0,0,0,0,0,0,0,0,0,0,0,0,0,0,0,0,0,0,0,0,0,0,0,0,0,0,0,0,0,0,0,0,0,0,0,0,0,0,0,0,0,0,0,0,0,0,0,0,0,0,0,0,0,0,0,0,0,0,0,0,
0,0,0,0,0,0,0,0,0,0,0,0,0,0,0,0,0,0,0,0,0,0,0,0,0,0,0,0,0,0,0,0,0,0,0,0,0,0,0,0,0,0,0,0,0,0,0,0,0,0,0,0,0,0,0,0,0,0,0,0,0,0,0,0,0,0,0,0,0,0,0,0,0,0,0,0,0,0,0,0,0,0,0,0,0,0,0,0,0,0,0,0,0,0,0,0,
0,0,0,0,0,0,0,0,0,0,0,0,0,0,0,0,0,0,0,0,0,0,0,0,0,0,0,0,0,0,0,0,0,0,0,0,0,0,0,0,0,0,0,0,0,0,0,0,0,0,0,0,0,0,0,0,0,0,0,0,0,0,0,0,0,0,0,0,0,0,0,0,0,0,0,0,0,0,0,0,0,0,0,0,0,0,0,0,0,0,0,0,0,0,0,0,
0,0,0,0,0,0,0,0,0,0,0,0,0,0,0,0,0,0,0,0,0,0,0,0,0,0,0,0,0,0,0,0,0,0,0,0,0,0,0,0,0,0,0,0,0,0,0,0,0,0,0,0,0,0,0,0,0,0,0,0,0,0,0,0,0,0,0,0,0,0,0,0,0,0,0,0,0,0,0,0,0,0,0,0,0,0,0,0,0,0,0,0,0,0,0,0,
0,0,0,0,0,0,0,0,0,0,0,0,0,0,0,0,0,0,0,0,0,0,0,0,0,0,0,0,0,0,0,0,0,0,0,0,0,0,0,0,0,0,0,0,0,0,0,0,0,0,0,0,0,0,0,0,0,0,0,0,0,0,0,0,0,0,0,0,0,0,0,0,0,0,0,0,0,0,0,0,0,0,0,0,0,0,0,0,0,0,0,0,0,0,0,0,
0,0,0,0,0,0,0,0,0,0,0,0,0,0,0,0,0,0,0,0,0,0,0,0,0,0,0,0,0,0,0,0,0,0,0,0,0,0,0,0,0,0,0,0,0,0,0,0,0,0,0,0,0,0,0,0,0,0,0,0,0,0,0,0,0,0,0,0,0,0,0,0,0,0,0,0,0,0,0,0,0,0,0,0,0,0,0,0,0,0,0,0,0,0,0,0,
0,0,0,0,0,0,0,0,0,0,0,0,0,0,0,0,0,0,0,0,0,0,0,0,0,0,0,0,0,0,0,0,0,0,0,0,0,0,0,0,0,0,0,0,0,0,0,0,0,0,0,0,0,0,0,0,0,0,0,0,0,0,0,0,0,0,0,0,0,0,0,0,0,0,0,0,0,0,0,0,0,0,0,0,0,0,0,0,0,0,0,0,0,0,0,0,
0,0,0,0,0,0,0,0,0,0,0,0,0,0,0,0,0,0,0,0,0,0,0,0,0,0,0,0,0,0,0,0,0,0,0,0,0,0,0,0,0,0,0,0,0,0,0,0,0,0,0,0,0,0,0,0,0,0,0,0,0,0,0,0,0,0,0,0,0,0,0,0,0,0,0,0,0,0,0,0,0,0,0,0,0,0,0,0,0,0,0,0,0,0,0,0,
0,0,0,0,0,0,0,0,0,0,0,0,0,0,0,0,0,0,0,0,0,0,0,0,0,0,0,0,0,0,0,0,0,0,0,0,0,0,0,0,0,0,0,0,0,0,0,0,0,0,0,0,0,0,0,0,0,0,0,0,0,0,0,0,0,0,0,0,0,0,0,0,0,0,0,0,0,0,0,0,0,0,0,0,0,0,0,0,0,0,0,0,0,0,0,0,
0,0,0,0,0,0,0,0,0,0,0,0,0,0,0,0,0,0,0,0,0,0,0,0,0,0,0,0,0,0,0,0,0,0,0,0,0,0,0,0,0,0,0,0,0,0,0,0,0,0,0,0,0,0,0,0,0,0,0,0,0,0,0,0,0,0,0,0,0,0,0,0,0,0,0,0,0,0,0,0,0,0,0,0,0,0,0,0,0,0,0,0,0,0,0,0,
0,0,0,0,0,0,0,0,0,0,0,0,0,0,0,0,0,0,0,0,0,0,0,0,0,0,0,0,0,0,0,0,0,0,0,0,0,0,0,0,0,0,0,0,0,0,0,0,0,0,0,0,0,0,0,0,0,0,0,0,0,0,0,0,0,0,0,0,0,0,0,0,0,0,0,0,0,0,0,0,0,0,0,0,0,0,0,0,0,0,0,0,0,0,0,0,
0,0,0,0,0,0,0,0,0,0,0,0,0,0,0,0,0,0,0,0,0,0,0,0,0,0,0,0,0,0,0,0,0,0,0,0,0,0,0,0,0,0,0,0,0,0,0,0,0,0,0,0,0,0,0,0,0,0,0,0,0,0,0,0,0,0,0,0,0,0,0,0,0,0,0,0,0,0,0,0,0,0,0,0,0,0,0,0,0,0,0,0,0,0,0,0,
0,0,0,0,0,0,0,0,0,0,0,0,0,0,0,0,0,0,0,0,0,0,0,0,0,0,0,0,0,0,0,0,0,0,0,0,0,0,0,0,0,0,0,0,0,0,0,0,0,0,0,0,0,0,0,0,0,0,0,0,0,0,0,0,0,0,0,0,0,0,0,0,0,0,0,0,0,0,0,0,0,0,0,0,0,0,0,0,0,0,0,0,0,0,0,0,
0,0,0,0,0,0,0,0,0,0,0,0,0,0,0,0,0,0,0,0,0,0,0,0,0,0,0,0,0,0,0,0,0,0,0,0,0,0,0,0,0,0,0,0,0,0,0,0,0,0,0,0,0,0,0,0,0,0,0,0,0,0,0,0,0,0,0,0,0,0,0,0,0,0,0,0,0,0,0,0,0,0,0,0,0,0,0,0,0,0,0,0,0,0,0,0,
0,0,0,0,0,0,0,0,0,0,0,0,0,0,0,0,0,0,0,0,0,0,0,0,0,0,0,0,0,0,0,0,0,0,0,0,0,0,0,0,0,0,0,0,0,0,0,0,0,0,0,0,0,0,0,0,0,0,0,0,0,0,0,0,0,0,0,0,0,0,0,0,0,0,0,0,0,0,0,0,0,0,0,0,0,0,0,0,0,0,0,0,0,0,0,0,
0,0,0,0,0,0,0,0,0,0,0,0,0,0,0,0,0,0,0,0,0,0,0,0,0,0,0,0,0,0,0,0,0,0,0,0,0,0,0,0,0,0,0,0,0,0,0,0,0,0,0,0,0,0,0,0,0,0,0,0,0,0,0,0,0,0,0,0,0,0,0,0,0,0,0,0,0,0,0,0,0,0,0,0,0,0,0,0,0,0,0,0,0,0,0,0,
0,0,0,0,0,0,0,0,0,0,0,0,0,0,0,0,0,0,0,0,0,0,0,0,0,0,0,0,0,0,0,0,0,0,0,0,0,0,0,0,0,0,0,0,0,0,0,0,0,0,0,0,0,0,0,0,0,0,0,0,0,0,0,0,0,0,0,0,0,0,0,0,0,0,0,0,0,0,0,0,0,0,0,0,0,0,0,0,0,0,0,0,0,0,0,0,
0,0,0,0,0,0,0,0,0,0,0,0,0,0,0,0,0,0,0,0,0,0,0,0,0,0,0,0,0,0,0,0,0,0,0,0,0,0,0,0,0,0,0,0,0,0,0,0,0,0,0,0,0,0,0,0,0,0,0,0,0,0,0,0,0,0,0,0,0,0,0,0,0,0,0,0,0,0,0,0,0,0,0,0,0,0,0,0,0,0,0,0,0,0,0,0,
0,0,0,0,0,0,0,0,0,0,0,0,0,0,0,0,0,0,0,0,0,0,0,0,0,0,0,0,0,0,0,0,0,0,0,0,0,0,0,0,0,0,0,0,0,0,0,0,0,0,0,0,0,0,0,0,0,0,0,0,0,0,0,0,0,0,0,0,0,0,0,0,0,0,0,0,0,0,0,0,0,0,0,0,0,0,0,0,0,0,0,0,0,0,0,0,
0,0,0,0,0,0,0,0,0,0,0,0,0,0,0,0,0,0,0,0,0,0,0,0,0,0,0,0,0,0,0,0,0,0,0,0,0,0,0,0,0,0,0,0,0,0,0,0,0,0,0,0,0,0,0,0,0,0,0,0,0,0,0,0,0,0,0,0,0,0,0,0,0,0,0,0,0,0,0,0,0,0,0,0,0,0,0,0,0,0,0,0,0,0,0,0,
0,0,0,0,0,0,0,0,0,0,0,0,0,0,0,0,0,0,0,0,0,0,0,0,0,0,0,0,0,0,0,0,0,0,0,0,0,0,0,0,0,0,0,0,0,0,0,0,0,0,0,0,0,0,0,0,0,0,0,0,0,0,0,0,0,0,0,0,0,0,0,0,0,0,0,0,0,0,0,0,0,0,0,0,0,0,0,0,0,0,0,0,0,0,0,0,
0,0,0,0,0,0,0,0,0,0,0,0,0,0,0,0,0,0,0,0,0,0,0,0,0,0,0,0,0,0,0,0,0,0,0,0,0,0,0,0,0,0,0,0,0,0,0,0,0,0,0,0,0,0,0,0,0,0,0,0,0,0,0,0,0,0,0,0,0,0,0,0,0,0,0,0,0,0,0,0,0,0,0,0,0,0,0,0,0,0,0,0,0,0,0,0,
0,0,0,0,0,0,0,0,0,0,0,0,0,0,0,0,0,0,0,0,0,0,0,0,0,0,0,0,0,0,0,0,0,0,0,0,0,0,0,0,0,0,0,0,0,0,0,0,0,0,0,0,0,0,0,0,0,0,0,0,0,0,0,0,0,0,0,0,0,0,0,0,0,0,0,0,0,0,0,0,0,0,0,0,0,0,0,0,0,0,0,0,0,0,0,0,
0,0,0,0,0,0,0,0,0,0,0,0,0,0,0,0,0,0,0,0,0,0,0,0,0,0,0,0,0,0,0,0,0,0,0,0,0,0,0,0,0,0,0,0,0,0,0,0,0,0,0,0,0,0,0,0,0,0,0,0,0,0,0,0,0,0,0,0,0,0,0,0,0,0,0,0,0,0,0,0,0,0,0,0,0,0,0,0,0,0,0,0,0,0,0,0,
0,0,0,0,0,0,0,0,0,0,0,0,0,0,0,0,0,0,0,0,0,0,0,0,0,0,0,0,0,0,0,0,0,0,0,0,0,0,0,0,0,0,0,0,0,0,0,0,0,0,0,0,0,0,0,0,0,0,0,0,0,0,0,0,0,0,0,0,0,0,0,0,0,0,0,0,0,0,0,0,0,0,0,0,0,0,0,0,0,0,0,0,0,0,0,0,
0,0,0,0,0,0,0,0,0,0,0,0,0,0,0,0,0,0,0,0,0,0,0,0,0,0,0,0,0,0,0,0,0,0,0,0,0,0,0,0,0,0,0,0,0,0,0,0,0,0,0,0,0,0,0,0,0,0,0,0,0,0,0,0,0,0,0,0,0,0,0,0,0,0,0,0,0,0,0,0,0,0,0,0,0,0,0,0,0,0,0,0,0,0,0,0
</data>
 </layer>
 <objectgroup id="4" name="Spawns">
  <object id="1" name="player_spawn" type="player_spawn" x="1536" y="1536" width="32" height="32"/>
 </objectgroup>
</map>
