<?xml version="1.0" encoding="UTF-8"?>
<map version="1.10" tiledversion="1.10.2" orientation="orthogonal" renderorder="right-down" width="96" height="96" tilewidth="32" tileheight="32" infinite="0" nextlayerid="5" nextobjectid="2">
 <tileset firstgid="1" source="overworld.tsx"/>
 <layer id="1" name="Ground" width="96" height="96">
  <data encoding="csv">
493,493,493,8,4,4,8,493,18,18,18,18,18,18,18,18,18,18,18,18,18,18,18,18,18,493,493,493,535,493,493,493,493,493,493,493,493,493,493,527,493,493,493,493,493,493,493,493,497,1126,1126,1126,1126,1126,1126,1126,527,493,493,493,493,493,493,8,4,4,8,4,4,493,40,40,40,40,40,40,493,40,40,40,493,493,493,493,493,493,40,40,40,40,40,40,40,40,40,40,
499,493,493,503,4,4,4,493,17,15,17,15,17,15,17,15,17,15,17,15,17,15,17,15,17,493,493,493,497,40,40,499,493,493,493,497,493,8,4,4,4,4,4,4,4,4,4,493,493,1126,1126,1126,1126,1126,1126,1126,493,493,493,493,493,493,8,4,4,8,6,4,6,493,493,493,40,40,40,493,493,493,493,493,493,493,493,493,493,493,40,40,40,40,40,40,40,40,40,40,
493,531,493,493,527,493,493,493,18,18,18,18,18,18,18,18,18,18,18,18,18,18,18,18,18,493,493,493,493,493,499,493,493,493,4,4,4,4,8,4,4,4,4,4,4,4,4,493,493,1126,1126,1126,1126,1126,1126,1126,493,493,493,493,493,493,4,4,6,4,4,4,4,493,493,493,493,40,493,493,493,493,493,493,493,493,535,493,493,493,493,40,40,40,40,40,40,40,40,40,
493,493,494,493,493,493,493,493,493,493,511,493,493,493,493,493,493,493,4,4,4,4,8,4,4,4,493,493,493,493,493,493,493,493,4,8,4,8,8,4,4,6,6,4,4,4,8,493,493,1126,1126,1126,1126,1126,1126,1126,493,493,527,493,493,493,4,4,4,4,6,4,4,535,493,511,493,493,493,493,493,493,493,493,493,493,493,493,493,493,493,493,493,493,493,493,493,493,493,40,
493,493,519,498,493,496,493,493,511,493,515,503,493,507,493,493,4,4,4,6,4,6,4,4,4,6,8,493,493,493,493,493,493,493,4,4,4,4,4,4,4,4,6,4,4,4,6,493,493,1126,1126,1126,1126,1126,1126,1126,493,493,493,493,493,497,8,4,4,4,4,4,8,493,493,493,493,493,493,497,493,493,493,496,493,493,527,493,493,493,493,527,493,493,493,493,493,493,493,493,
503,515,493,493,8,4,8,4,8,493,493,493,493,493,493,493,493,493,493,493,498,493,493,493,493,493,494,493,493,493,493,493,493,493,493,493,493,4,4,4,4,4,4,4,4,4,4,519,493,1126,1126,1126,1126,1126,1126,1126,493,493,493,493,493,523,4,8,4,8,4,8,493,493,493,493,493,493,493,493,493,493,493,498,493,493,493,493,493,494,493,493,493,493,493,493,493,535,493,493,
493,493,493,493,4,4,4,493,493,493,493,493,527,493,493,493,493,493,503,493,493,493,493,493,493,493,493,493,493,493,498,493,493,493,493,493,507,4,8,4,4,4,4,4,6,6,4,493,493,1126,1126,1126,1126,1126,1126,1126,493,493,493,493,493,493,493,4,4,4,493,493,493,493,493,527,493,493,493,493,493,503,493,493,493,493,493,493,493,493,493,493,531,493,493,493,497,493,493,493,
493,493,493,493,495,493,493,493,493,497,493,493,493,493,493,493,493,494,498,493,519,493,493,493,493,493,493,493,499,493,493,493,493,493,493,493,493,493,4,4,4,4,8,8,4,4,493,493,493,1126,1126,1126,1126,1126,1126,1126,493,493,493,493,493,493,493,495,493,493,493,493,497,493,493,493,493,493,493,493,494,498,493,519,493,493,493,493,493,493,493,499,493,4,4,4,6,493,493,493,
496,493,493,493,493,493,493,493,493,493,493,493,493,493,493,503,493,493,493,40,40,40,40,40,40,40,493,493,493,493,493,493,493,493,493,493,493,493,4,4,4,4,493,4,6,4,535,493,493,1126,1126,1126,1126,1126,1126,1126,493,493,493,493,493,493,493,493,493,493,493,493,493,493,493,493,493,493,503,493,493,493,40,40,40,40,40,40,40,493,493,493,493,4,4,4,6,493,493,493,
493,493,493,493,493,493,493,503,493,493,493,493,493,511,493,493,493,493,40,40,40,40,40,40,40,40,493,493,493,493,493,493,493,493,493,493,493,493,493,493,493,493,493,493,493,493,493,493,493,1126,1126,1126,1126,1126,1126,1126,493,493,519,511,493,493,511,493,493,493,503,493,493,493,493,493,511,493,493,493,493,40,40,40,40,40,40,40,40,493,493,493,515,4,4,4,1,1,1,1,
493,493,493,493,493,493,493,493,493,515,493,493,493,499,493,40,40,40,40,40,40,40,40,40,40,40,40,493,493,493,493,519,493,493,493,493,493,493,493,498,493,499,493,523,493,493,493,493,493,1126,1126,1126,1126,1126,1126,1126,493,493,493,493,515,493,493,493,493,493,493,493,515,493,493,493,499,493,40,40,40,40,40,40,40,40,40,40,40,40,493,493,493,8,4,4,2,2,2,2,
493,493,493,493,493,493,493,493,493,493,519,494,535,493,493,40,40,40,40,40,40,40,40,40,40,40,40,493,493,493,493,493,493,531,527,493,493,493,519,493,493,527,493,493,493,496,493,493,493,1126,1126,1126,1126,1126,1126,1126,493,498,493,493,493,493,493,493,493,493,493,493,493,519,494,535,493,493,40,40,40,40,40,40,40,40,40,40,40,40,493,493,495,8,4,4,1,1,1,1,
493,535,523,4,493,493,535,493,493,527,499,493,493,40,40,40,40,40,40,40,40,40,40,40,40,40,40,493,493,493,493,493,493,493,493,493,493,493,493,493,493,493,493,493,493,493,493,493,493,1126,1126,1126,1126,1126,1126,1126,493,493,493,493,497,493,493,493,493,535,493,493,527,499,493,493,40,40,40,40,40,40,40,40,40,40,40,40,40,40,493,493,495,4,4,8,4,493,523,493,
493,493,493,4,497,493,493,493,498,493,493,40,40,40,40,40,40,40,493,493,493,493,40,40,40,40,40,493,493,493,493,493,493,493,493,493,493,493,493,493,493,493,493,493,493,493,493,493,493,1126,1126,1126,1126,1126,1126,1126,493,527,493,493,493,493,493,497,493,493,493,498,493,493,40,40,40,40,40,40,40,493,493,493,493,40,40,40,40,40,493,493,493,493,493,493,535,493,493,493,
493,493,493,4,519,493,493,493,493,493,40,40,40,40,40,40,493,493,493,493,493,493,40,40,40,40,40,493,493,493,493,493,496,493,493,493,493,493,493,511,493,493,493,493,493,493,511,511,493,1126,1126,1126,1126,1126,1126,1126,493,493,493,493,493,493,493,519,493,493,493,493,493,40,40,40,40,40,40,493,493,493,493,493,493,40,40,40,40,40,493,493,493,493,493,493,493,493,493,493,
493,493,493,493,503,515,493,493,519,40,40,40,40,40,40,40,493,1,1,493,493,493,40,40,40,40,493,493,493,499,493,493,493,493,498,503,493,493,493,493,493,493,493,493,493,4,4,4,493,1126,1126,1126,1126,1126,1126,1126,493,493,493,493,493,493,493,503,515,493,493,519,40,40,40,40,40,40,40,493,1,1,493,493,493,40,40,40,40,493,493,493,493,493,493,493,503,493,493,4,
493,493,493,493,493,493,493,493,493,40,40,40,40,40,40,493,493,2,2,2,493,40,40,40,40,493,493,493,493,493,493,493,507,493,493,493,493,493,493,493,493,493,493,4,4,4,4,4,493,1126,1126,1126,1126,1126,1126,1126,493,535,493,493,493,493,527,493,493,493,493,493,40,40,40,40,40,40,493,493,2,2,2,493,40,40,40,40,493,493,493,493,493,515,493,495,493,4,4,8,
493,493,493,493,493,493,493,493,493,40,40,40,40,511,493,493,493,1,1,1,493,40,40,40,40,515,493,493,493,493,493,493,493,493,493,493,493,493,515,493,493,495,493,8,4,4,4,4,493,1126,1126,1126,1126,1126,1126,1126,493,493,493,493,493,493,493,493,493,493,493,493,40,40,40,40,511,493,493,493,1,1,1,493,40,40,40,40,515,493,493,493,503,493,507,493,493,4,6,4,
493,523,493,493,493,495,493,493,493,40,40,40,519,493,519,507,2,2,2,493,493,40,40,40,40,493,493,493,493,493,493,496,493,493,493,493,493,493,493,493,493,493,4,4,6,4,4,493,493,1126,1126,1126,1126,1126,1126,1126,493,493,515,493,493,493,493,493,495,493,493,493,40,40,40,519,493,519,507,2,2,2,493,493,40,40,40,40,493,493,493,493,511,493,498,493,4,4,4,4,
493,493,493,493,493,493,493,40,40,40,40,40,493,1,1,1,1,1,493,493,40,40,40,40,40,493,493,499,493,493,493,1,1,1,493,493,493,503,493,493,493,4,4,6,4,4,4,493,493,1126,1126,1126,1126,1126,1126,1126,493,515,493,493,493,496,493,493,493,493,40,40,40,40,40,493,1,1,1,1,1,493,493,40,40,40,40,40,493,493,499,493,493,493,493,499,4,4,4,6,
493,493,495,493,493,493,493,40,40,40,40,40,493,2,2,2,2,493,493,40,40,40,40,40,40,493,493,493,493,493,2,2,2,2,2,493,519,493,493,493,493,4,4,4,4,4,4,493,493,1126,1126,1126,1126,1126,1126,1126,493,493,523,498,493,527,493,493,493,493,40,40,40,40,40,493,2,2,2,2,493,493,40,40,40,40,40,40,493,493,493,493,493,493,493,493,6,6,6,8,
493,493,493,493,493,493,493,40,40,40,40,40,493,493,1,1,493,493,493,40,40,40,493,493,493,495,493,493,493,493,1,1,1,1,1,1,493,493,493,493,493,4,4,4,4,4,4,493,493,1126,1126,1126,1126,1126,1126,1126,493,493,493,493,493,493,493,493,493,493,40,40,40,40,40,493,493,1,1,493,493,493,40,40,40,493,493,493,495,493,493,493,493,493,494,493,6,8,4,4,
493,493,493,493,493,503,495,40,40,40,40,40,493,493,2,2,497,493,493,40,40,40,493,498,493,493,515,493,493,493,493,2,2,2,2,2,493,495,493,493,493,4,4,4,4,4,493,493,493,1126,1126,1126,1126,1126,1126,1126,493,493,493,493,493,493,493,493,503,495,40,40,40,40,40,493,493,2,2,497,493,493,40,40,40,493,498,493,493,515,493,493,493,493,493,493,4,4,4,4,
497,493,493,493,493,493,493,493,493,40,40,493,493,493,493,493,493,493,493,493,493,493,493,498,499,493,493,493,493,493,493,493,1,1,1,1,493,493,493,494,493,493,493,493,493,493,493,493,493,1126,1126,1126,1126,1126,1126,1126,493,493,493,493,493,493,493,493,493,493,493,493,40,40,493,493,493,493,493,493,493,493,493,493,493,493,498,499,493,493,493,493,493,493,493,493,493,4,8,4,
493,493,531,535,493,519,493,493,493,493,493,493,493,493,493,493,493,493,493,493,493,493,493,493,493,493,493,527,493,515,493,497,493,493,493,493,493,493,519,499,503,493,493,493,493,2,2,2,493,1126,1126,1126,1126,1126,1126,1126,493,493,493,493,493,493,493,493,519,493,493,493,493,493,493,493,493,493,493,493,493,493,493,493,493,493,493,493,493,493,527,493,493,493,503,511,493,495,493,493,
4,4,493,493,523,493,493,493,493,531,493,493,493,493,493,535,515,493,493,493,493,493,493,493,493,493,493,493,493,493,493,493,493,493,493,493,493,497,493,493,493,1,1,1,1,1,1,1,493,1126,1126,1126,1126,1126,1126,1126,493,493,493,493,493,493,493,523,493,493,493,493,531,493,493,493,493,493,535,515,493,493,493,493,493,493,493,493,493,493,493,493,493,493,493,493,493,493,493,493,
4,4,493,493,493,4,4,4,4,6,6,4,4,4,493,493,493,493,493,493,493,493,493,493,493,493,493,493,493,493,493,493,493,493,493,2,2,2,2,493,493,2,2,2,2,2,2,2,493,1126,1126,1126,1126,1126,1126,1126,493,493,493,493,493,493,511,493,4,4,4,4,6,6,4,4,4,493,493,493,493,493,493,493,493,493,493,493,493,493,493,493,493,493,493,493,493,493,493,493,
4,4,493,493,499,493,493,493,4,4,8,4,4,4,4,8,6,4,6,4,493,493,493,493,495,493,493,493,497,40,40,493,1,1,1,1,1,1,1,493,493,1,1,1,1,1,1,1,493,1126,1126,1126,1126,1126,1126,1126,493,493,493,493,493,493,493,4,4,4,4,8,6,4,4,4,4,493,493,493,493,493,493,493,493,493,493,493,493,493,493,493,493,493,493,6,8,4,493,493,
493,493,519,493,493,493,493,493,4,4,4,4,4,4,6,4,4,4,4,493,493,493,493,493,493,493,493,493,493,493,493,493,2,2,2,2,2,2,2,493,493,493,493,493,493,499,493,493,493,1126,1126,1126,1126,1126,1126,1126,493,493,493,493,493,493,493,4,4,6,6,6,8,4,4,4,4,493,493,493,493,493,493,493,493,503,523,535,493,493,493,493,493,4,4,8,4,4,6,493,
4,4,4,493,493,493,493,493,4,4,6,4,4,4,4,4,4,4,4,493,493,535,493,493,493,493,493,1,1,1,493,493,1,1,1,1,1,1,1,493,493,493,493,493,493,498,493,493,493,1126,1126,1126,1126,1126,1126,1126,493,493,493,493,493,493,493,4,4,4,6,4,6,4,6,8,493,493,493,493,496,493,493,493,493,493,493,511,493,493,493,493,499,4,4,4,8,8,4,493,
4,8,4,493,493,493,493,493,493,4,4,4,4,4,4,4,8,4,4,493,493,493,493,493,493,2,2,2,2,2,2,493,493,515,496,493,493,493,523,493,493,493,493,493,493,493,499,493,493,1126,1126,1126,1126,1126,1126,1126,493,493,493,493,493,493,493,4,6,4,4,4,6,4,4,493,493,493,493,493,493,493,493,493,493,493,493,493,493,493,493,493,493,4,4,4,4,8,6,493,
6,8,4,4,493,493,493,493,493,4,4,4,4,4,8,4,4,4,493,503,493,515,493,493,1,1,1,1,1,1,1,493,493,493,493,493,493,493,493,493,493,493,493,493,493,493,493,493,498,1126,1126,1126,1126,1126,1126,1126,507,493,493,493,493,493,493,493,4,4,4,4,4,493,493,493,493,503,493,493,493,493,493,493,493,493,499,493,493,493,535,493,493,4,4,4,4,4,6,493,
4,4,4,4,493,493,531,493,493,493,493,493,6,8,4,4,8,4,493,493,493,493,493,493,2,2,2,2,2,2,493,4,4,493,493,493,493,493,498,493,493,493,493,495,493,493,531,493,493,1126,1126,1126,1126,1126,1126,1126,493,493,493,493,493,493,493,493,493,493,493,493,493,493,495,495,497,493,527,493,493,493,493,493,494,493,493,493,493,493,493,493,493,493,4,4,8,4,4,493,
11,11,11,11,493,493,497,515,11,11,11,11,11,11,11,11,495,493,493,493,493,493,493,498,1,1,1,1,493,493,4,4,4,8,4,493,493,493,493,493,493,493,493,493,493,493,493,493,493,1126,1126,1126,1126,1126,1126,1126,493,493,495,493,493,493,493,493,493,493,493,493,493,493,493,493,496,493,493,493,493,493,493,507,493,493,493,493,493,493,493,493,493,515,8,4,4,4,4,493,
11,11,11,11,493,493,493,493,11,11,11,11,11,11,11,11,493,493,2,2,2,2,2,493,2,2,2,493,4,4,4,4,4,4,4,493,493,493,493,493,493,493,493,493,493,493,493,493,493,1126,1126,1126,1126,1126,1126,1126,493,495,493,493,493,493,493,493,493,493,493,493,493,493,493,493,493,535,493,493,531,493,493,493,493,493,535,493,493,493,497,493,493,493,493,493,493,493,493,493,
11,11,11,11,11,11,11,11,11,11,11,11,11,11,11,11,493,1,1,1,1,1,1,519,519,531,493,4,4,4,4,8,4,6,4,4,493,493,493,493,493,493,493,493,493,499,493,493,493,1126,1126,1126,1126,1126,1126,1126,493,493,497,493,493,493,527,493,527,493,493,493,493,493,493,493,493,511,493,493,493,493,493,493,493,493,493,493,493,498,493,499,493,493,493,493,493,493,493,511,
11,11,11,11,11,11,11,11,11,11,11,11,11,11,11,11,511,2,2,2,2,2,2,493,493,493,4,4,6,4,4,4,4,8,6,4,494,493,493,493,493,493,493,493,493,493,493,493,493,1126,1126,1126,1126,1126,1126,1126,493,493,493,493,493,493,493,493,493,493,535,493,493,20,20,20,20,20,20,20,20,20,20,20,20,20,20,20,20,493,20,20,20,20,20,20,20,20,493,493,
11,11,11,11,11,11,11,11,11,11,11,11,11,11,11,11,493,1,1,1,1,493,493,493,493,493,4,4,4,8,4,4,4,4,4,4,493,493,493,493,493,493,493,496,493,493,493,493,493,1126,1126,1126,1126,1126,1126,1126,493,493,493,493,493,493,493,493,493,493,493,493,493,493,24,24,24,24,24,24,24,24,24,24,24,24,24,24,24,886,886,886,886,886,24,24,24,872,20,493,
11,11,11,11,493,493,493,493,11,11,11,11,11,11,11,11,493,493,498,493,493,493,493,503,493,493,4,4,4,8,4,4,4,4,4,493,493,498,498,493,493,493,493,493,519,493,493,493,493,1126,1126,1126,1126,1126,1126,1126,493,496,493,493,499,493,493,493,493,531,493,493,493,20,24,1017,1017,1017,1017,1017,1017,1017,1017,1017,1017,1017,1017,1017,1017,1017,1017,1017,1017,1017,1017,1017,1017,24,493,493,
11,11,11,11,493,493,493,493,11,11,11,11,11,11,11,11,493,493,493,493,493,493,493,493,493,493,6,4,8,4,8,4,4,4,4,493,493,497,515,493,493,493,493,493,493,493,493,493,493,1126,1126,1126,1126,1126,1126,1126,493,493,523,493,493,493,493,493,493,493,493,493,493,20,24,1017,1017,1017,1017,1017,1017,1017,1017,1017,1017,1017,1017,1017,1017,1017,1017,1017,1017,1017,1017,1017,1017,24,493,493,
11,11,11,11,493,493,493,493,11,11,11,11,11,11,11,11,493,493,493,493,493,493,493,493,493,493,8,4,4,4,4,4,8,4,499,493,493,493,493,493,493,493,493,496,493,493,493,493,493,24,24,24,24,24,24,24,493,493,493,493,493,493,493,493,493,493,497,493,493,20,24,1017,1017,1017,1017,1017,1017,1017,1017,1017,1017,1017,1017,1017,1017,1017,1017,1017,1017,1017,1017,1017,1017,24,493,40,
531,493,493,493,493,493,4,6,4,4,4,4,4,4,4,4,4,493,531,493,493,493,527,496,493,515,495,503,4,4,4,6,4,6,507,493,515,493,493,493,493,493,493,493,40,40,40,40,40,40,40,40,40,40,40,40,40,40,40,40,40,493,493,493,493,493,493,493,493,20,24,1017,1017,1017,1017,1017,1017,1017,1017,1017,1017,1017,1017,1017,1017,1017,1017,1017,1017,1017,1017,1017,1017,24,24,40,
495,493,493,493,493,493,4,4,6,8,4,6,4,4,4,4,4,493,493,493,493,493,493,493,493,493,493,493,493,493,493,493,493,493,493,493,493,495,494,20,20,20,20,493,40,40,40,40,40,40,40,40,40,40,40,40,40,40,40,40,40,493,493,493,20,20,20,20,20,872,24,1017,1017,1017,1017,1017,1017,1017,1017,1017,1017,1017,1017,1017,1017,1017,1017,1017,1017,1017,1017,1017,1017,24,0,40,
493,493,493,493,499,493,4,4,4,4,4,4,4,4,4,4,4,493,493,493,493,493,493,493,493,493,493,493,493,493,493,493,493,493,493,493,493,523,493,24,1081,1081,1081,1081,40,40,40,40,40,40,40,40,40,40,40,40,40,40,40,40,40,1081,1081,1081,1081,1081,1081,1081,1081,1081,24,1017,1017,1017,1017,1017,1017,1017,1017,1017,1017,1017,1017,1017,1017,1017,1017,1017,1017,1017,1017,1017,1017,24,493,40,
493,493,503,493,493,493,4,4,4,4,4,4,4,4,6,4,493,493,499,493,493,493,493,493,493,493,493,493,493,493,493,493,498,496,493,493,493,493,493,24,1081,1081,1081,1081,40,40,40,40,40,40,40,40,40,40,40,40,40,40,40,40,40,1081,1081,1081,1081,1081,1081,1081,1081,1081,24,1017,1017,1017,1017,1017,1017,1017,1017,1017,1017,1017,1017,1017,1017,1017,1017,1017,1017,1017,1017,1017,1017,24,493,40,
493,519,498,493,493,493,4,8,4,4,4,4,4,4,4,4,493,493,493,499,493,493,493,493,493,493,493,493,493,493,493,531,493,493,493,493,493,493,493,20,1081,1081,1081,1081,886,886,886,1081,1081,1081,1081,24,24,24,1081,1081,1081,1081,886,886,886,886,886,886,1081,1081,1081,1081,1081,1081,1081,1017,1017,1017,1017,1017,1017,1017,1017,1017,1017,1017,1017,1017,1017,1017,1017,1017,1017,1017,1017,1017,1017,1127,493,40,
493,493,493,493,493,493,531,493,4,4,4,4,4,4,4,493,493,493,493,493,519,493,493,493,493,493,497,493,493,493,493,493,493,493,493,519,493,493,493,20,886,1017,1017,1017,1017,1017,1017,1017,1081,1081,1081,24,24,24,1081,1081,1081,1081,1017,1017,1017,1017,1017,1017,1017,21,1081,1081,1081,1081,1081,0,1081,1081,1081,1081,1081,1081,1081,1081,1081,1081,1081,1081,1081,1081,1081,1081,1081,1081,1081,1081,1081,1081,20,40,
4,493,493,511,493,493,497,493,493,493,493,507,493,493,493,493,493,498,493,535,499,493,493,493,493,493,493,493,493,493,493,494,493,493,497,493,493,515,493,20,886,1017,1017,1017,1017,1017,1017,1017,1081,1081,1081,1094,1094,1094,1081,1081,1081,1081,1017,1017,1017,1017,1017,1017,1017,21,1081,1081,1081,1081,1081,1081,1081,1081,1081,1081,1081,1081,1081,1081,1081,1081,1081,1081,1081,1081,1081,1081,1081,1081,1081,1081,1081,1081,20,40,
4,493,493,493,493,493,493,493,493,493,493,493,493,531,493,493,493,515,493,493,493,493,493,515,493,511,493,493,507,493,493,496,493,493,493,493,493,493,493,20,886,1017,1017,1017,1017,1017,1017,1017,1081,1081,1081,1094,1094,1094,1081,1081,1081,1081,1017,1017,1017,1017,1017,1017,1017,21,1081,1081,1081,1081,1081,1081,1081,1081,1081,1081,1081,1081,1081,1081,1081,1081,1081,1081,1081,1081,1081,1081,1081,1081,1081,1081,1081,1081,20,40,
4,493,493,493,493,493,493,493,493,493,493,493,493,493,493,493,493,493,493,493,493,493,496,499,495,493,493,493,493,40,40,493,493,498,493,499,493,493,493,20,886,1017,1017,1017,1017,1017,1017,1017,1081,1081,1081,1094,1094,1094,1081,1081,1081,1081,1017,1017,1017,1017,1017,1017,1017,21,1081,1081,1081,1081,1081,1081,1081,1081,1081,1081,1081,1081,1081,1081,1081,1081,1081,1081,1081,1081,1081,1081,1081,1081,1081,1081,1081,1081,20,40,
493,493,493,493,493,493,493,493,535,503,493,493,493,535,493,493,493,493,493,493,493,493,531,493,493,498,493,493,493,493,493,493,493,503,493,493,493,493,493,20,1081,1081,1081,1081,1081,1081,1081,1081,1081,1081,1081,1094,1094,1094,1081,1081,1081,1081,1017,1017,1017,1017,1017,1017,1017,21,1081,1081,1081,886,0,0,0,1081,1081,1081,1081,1081,1081,1081,1081,1081,1081,1081,1081,1081,1081,1081,1081,1081,1081,1081,1081,1081,20,40,
493,493,507,493,493,493,493,493,499,493,493,493,493,519,493,493,493,493,493,493,493,493,493,493,495,493,493,493,493,493,493,503,493,493,493,493,493,493,493,20,1081,1081,1081,1081,1081,1081,1081,1081,1081,1081,1081,1094,1094,1094,1081,1081,1081,1081,1017,1017,1017,1017,1017,1017,1017,21,1081,1081,1081,886,1017,1017,1017,1017,1017,1017,1017,1017,1017,1017,1017,1017,1017,1017,1017,21,1081,1081,1081,1081,1081,1081,1081,1081,20,493,
493,493,519,493,493,511,493,493,493,493,493,493,493,493,503,515,493,20,24,0,0,0,0,0,0,0,0,0,0,0,0,0,0,0,0,0,0,0,0,0,0,0,0,0,0,1081,1081,1081,1081,1081,1081,1094,1094,1094,1081,1081,1081,1081,1017,1017,1017,1017,1017,1017,1017,21,1081,1081,1081,886,1017,1017,1017,1017,1017,1017,1017,1017,1017,1017,1017,1017,1017,1017,1017,21,1081,1081,1081,1081,1081,1081,1081,1081,20,493,
503,493,493,496,493,493,493,495,493,493,493,493,493,493,493,493,493,20,0,1017,1017,1017,1017,1017,1017,1017,1017,1017,1017,1017,1017,1017,1017,1017,1017,1017,1017,1017,1017,1017,1017,1017,1017,1017,1017,1081,1081,1081,1081,1081,1081,1094,1094,1094,1081,1081,1081,1081,1017,1017,1017,1017,1017,1017,1017,21,1081,1081,1081,886,1017,1017,1017,1017,1017,1017,1017,1017,1017,1017,1017,1017,1017,1017,1017,21,1081,1081,1081,1081,1081,1081,1081,1081,20,495,
493,493,535,493,493,493,493,493,498,493,493,493,493,531,493,495,493,20,0,1017,1017,1017,1017,1017,1017,1017,1017,1017,1017,1017,1017,1017,1017,1017,1017,1017,1017,1017,1017,1017,1017,1017,1017,1017,1017,4,1081,1081,1081,1081,1081,1094,1094,1094,1081,1081,1081,1081,1017,1017,1017,1017,1017,1017,1017,1017,1017,21,1081,24,1017,1017,1017,1017,1017,1017,1017,1017,1017,1017,1017,1017,1017,1017,1017,21,1081,1081,1081,1081,1081,1081,1081,1081,20,493,
493,493,493,493,493,493,493,493,527,493,493,493,493,493,493,493,20,20,0,1017,1017,1017,1017,1017,1017,1017,1017,1017,1017,1017,1017,1017,1017,1017,1017,1017,1017,1017,1017,1017,1017,1017,1017,1017,1017,4,1081,1081,1081,1081,1081,1094,1094,1094,1081,1081,1081,1081,1017,1017,1017,1017,1017,1017,1017,1017,1017,21,1081,24,1017,1017,1017,1017,1017,1017,1017,1017,1017,1017,1017,1017,1017,1017,1017,21,1081,1081,1081,1081,1081,1081,1081,1127,20,20,
23,23,23,23,23,493,23,23,23,493,493,493,493,493,493,493,24,1081,886,1017,1017,1017,1017,1017,1017,1017,1017,1017,1017,1017,1017,1017,1017,1017,1017,1017,1017,1017,1017,1017,1017,1017,1017,1017,1017,4,1081,1081,1081,1081,1081,1094,1094,1094,1081,1081,1081,1081,1017,1017,1017,1017,1017,1017,1017,1017,1017,21,1081,24,1017,1017,1017,1017,1017,1017,1017,1017,1017,1017,1017,1017,1017,1017,1017,21,1081,1081,1081,1081,1081,1081,1081,872,40,40,
832,832,832,832,832,832,832,832,836,832,11,11,11,11,11,11,1081,1081,886,1017,1017,1017,1017,1017,1017,1017,1017,1017,1017,1017,1017,1017,1017,1017,1017,1017,1017,1017,1017,1017,1017,1017,1017,1017,1017,4,1081,1081,1081,1081,1081,1094,1094,1094,1081,1081,1081,1081,1017,1017,1017,1017,1017,1017,1017,1017,1017,21,1081,24,1017,1017,1017,1017,1017,1017,1017,1017,1017,1017,1017,1017,1017,1017,1017,21,1081,1081,1081,1081,1081,1081,1081,0,40,40,
832,832,834,832,832,832,832,832,832,834,11,1017,1017,1017,1017,1017,0,1081,886,21,1017,1017,1017,1017,1017,1017,1017,1017,1017,1017,1017,1017,1017,1017,1017,1017,1017,1017,1017,1017,1017,1017,1017,1017,1017,4,1081,1081,1081,1081,1081,1094,1094,1094,1081,1081,1081,1081,0,0,0,0,0,0,0,1017,1017,0,1081,1081,1017,1017,1017,1017,1017,1017,1017,1017,1017,1017,1017,1017,1017,1017,1017,0,1081,1081,1081,1081,1081,1081,1081,0,40,40,
832,835,832,832,832,832,832,832,833,834,1081,1017,1017,1017,1017,1017,0,1081,886,12,12,12,12,12,12,12,12,12,12,12,12,12,12,12,12,12,12,12,12,12,12,12,12,12,12,4,1081,1081,1081,1081,1081,1094,1094,1094,1081,1081,1081,1081,1081,1081,1081,1081,1081,1081,1081,1081,1081,1081,1081,1081,1081,1081,1081,1081,1081,1081,1081,1081,1081,1081,1081,1081,1081,1081,1081,1081,1081,1081,1081,1081,1081,1081,1081,872,40,40,
832,832,832,832,832,832,832,832,1081,832,1081,1017,1017,1017,1017,1017,0,1081,886,12,12,12,12,12,12,12,12,12,12,12,12,12,12,12,12,12,12,12,12,12,12,12,12,12,12,8,1081,1081,1081,1081,1081,1094,1094,1094,1094,1094,1094,1094,1094,1094,1094,1094,1094,1094,1094,1094,1094,1094,1094,1094,1094,1094,1094,1094,1094,1094,1094,1094,1094,1094,1094,1094,1094,1094,1094,1094,1094,1094,1094,1094,1081,1081,1081,872,40,40,
4,493,493,493,493,832,832,835,832,1081,1081,1017,1017,1017,1017,1017,0,1081,1081,12,12,12,12,12,12,12,12,12,12,12,12,12,12,12,12,12,12,12,12,12,12,12,12,12,12,4,1081,1081,1081,1081,1081,1094,1094,1094,1094,1094,1094,1094,1094,1094,1094,1094,1094,1094,1094,1094,1094,1094,1094,1094,1094,1094,1094,1094,1094,1094,1094,1094,1094,1094,1094,1094,1094,1094,1094,1094,1094,1094,1094,1094,1081,1081,1081,872,40,40,
40,40,40,40,511,493,832,832,832,1081,1081,0,1017,1017,0,0,0,1081,1081,12,12,12,12,12,12,12,12,12,12,12,12,12,12,12,12,12,12,12,12,12,12,12,12,12,12,8,1081,1081,1081,1081,1081,1094,1094,1094,1094,1094,1094,1094,1094,1094,1094,1094,1094,1094,1094,1094,1094,1094,1094,1094,1094,1094,1094,1094,1094,1094,1094,1094,1094,1094,1094,1094,1094,1094,1094,1094,1094,1094,1094,1094,1081,1081,1081,20,40,40,
40,40,40,40,40,40,4,1081,832,1081,1081,1081,1081,1081,1081,1081,1081,1081,1081,1081,1081,1081,1081,1081,1081,1081,1081,1081,1081,1081,1081,1081,1081,1081,1081,1081,1081,1081,1081,1081,1081,1081,1081,1081,1081,1081,1081,1081,1081,1081,1081,1094,1094,1094,1081,1081,1081,1081,1081,1081,1081,1081,1081,1081,1081,1081,1081,1081,1081,1081,1081,1081,1081,1081,1081,1081,1081,1081,1081,1081,1081,1081,1081,1081,1081,1081,1081,1094,1094,1094,1094,1094,1008,493,40,40,
40,40,40,40,40,40,8,832,832,1081,1081,1081,1081,1081,1081,1081,1081,1081,1081,1081,1081,1081,1081,1081,1081,1081,1081,1081,1081,1081,1081,1081,1081,1081,1081,1081,1081,1081,1081,1081,1081,1081,1081,1081,1081,1081,1081,1081,1081,1081,1081,1094,1094,1094,1081,1081,1081,1081,1081,1081,1081,1081,1081,1081,1081,1081,1081,1081,1081,1081,1081,1081,1081,1081,1081,1081,1081,1081,1081,1081,1081,1081,1081,1081,1081,1081,1081,1094,1094,1094,1094,1094,1008,493,40,40,
40,40,40,40,40,40,835,832,832,1081,1081,1081,1081,1081,1081,1081,1081,1081,1081,1081,1081,1081,1081,1094,1094,1094,1094,1094,1094,1094,1094,1094,1094,1094,1094,1094,1094,1094,1094,1094,1094,1094,1094,1094,1094,1094,1094,1094,1094,1094,1094,1094,1094,1094,1081,1081,1081,1081,1081,1081,1081,1081,1081,1081,872,872,872,1081,1081,1081,1081,1081,1081,1081,1081,1081,1081,1081,1081,1081,1081,1081,1081,1081,1081,1081,1081,1094,1094,1094,1094,1094,1008,493,40,40,
40,40,40,40,40,40,832,832,832,11,11,872,872,872,872,872,872,872,872,872,872,1081,1081,1094,1094,1094,1094,1094,1094,1094,1094,1094,1094,1094,1094,1094,1094,1094,1094,1094,1094,1094,1094,1094,1094,1094,1094,1094,1094,1094,1094,1094,1094,1094,1081,1081,1081,1081,1081,1081,1017,1017,1017,1017,1017,1017,1017,1017,1081,1081,1081,1081,1081,1081,1081,1081,1081,1081,1081,1081,1081,1081,1081,1081,1081,1081,1081,1081,1081,1081,1081,1081,1081,20,40,40,
40,40,40,40,40,40,832,832,832,493,1017,1017,1017,1017,1017,1017,1017,1017,1017,1017,1017,1017,1081,1094,1094,1094,1094,1094,1094,1094,1094,1094,1094,1094,1094,1094,1094,1094,1094,1094,1094,1094,1094,1094,1094,1094,1094,1094,1094,1094,1094,1094,1094,1094,1081,1081,1081,1081,1081,1081,1017,1017,1017,1017,1017,1017,1017,1017,1081,1081,1081,1081,1081,886,13,13,13,13,13,13,1081,1081,1081,1081,1081,1081,1081,1081,1081,1081,1081,1081,1081,20,40,40,
40,40,40,40,40,40,848,832,832,493,1017,1017,1017,1017,1017,1017,1017,1017,1017,1017,1017,1017,1081,1094,1094,1094,1094,1094,1094,1094,1094,1094,1094,1081,1081,0,0,0,0,1081,1081,1081,1081,1081,1081,1081,1081,1081,1081,1081,1081,1094,1094,1094,1081,1081,1081,1081,1081,1081,1017,1017,1017,1017,1017,1017,1017,1017,1081,1081,886,886,886,886,13,13,13,13,13,13,877,0,1081,1081,1081,1081,1081,1081,1081,1081,1081,1081,1081,20,40,40,
40,40,40,40,40,40,832,832,832,493,1017,1017,1017,1017,1017,1017,1017,1017,1017,1017,1017,1017,1081,1094,1094,1094,1094,1094,1094,1094,1094,1094,1094,1081,1081,0,0,0,0,1081,1081,1081,1081,1081,1081,1081,1081,1081,1081,1081,1081,1094,1094,1094,1081,1081,1081,1081,1081,1081,1017,1017,1017,1017,1017,1017,1017,1017,1081,1081,886,13,13,13,13,13,13,13,13,13,13,13,1081,1081,1081,1081,1081,1081,1081,1081,1081,1081,1081,20,40,40,
40,40,40,40,40,40,832,832,832,493,1017,1017,1017,1017,21,0,1017,1017,1017,1017,1017,1017,1081,1094,1094,1094,1094,1094,1094,1094,1094,1094,1094,1081,1081,1081,1081,1081,1081,1081,1081,1081,1081,1081,1081,1081,1081,1081,1081,1081,1081,1094,1094,1094,1081,1081,1081,1081,1081,1081,1017,1017,1017,1017,1017,1017,1017,1017,1081,1081,886,13,13,13,13,13,13,13,13,13,13,13,13,1081,1081,1081,1081,1081,1081,1081,1081,1081,1081,20,40,40,
40,40,40,40,40,40,832,832,1081,493,1017,1017,1017,1017,1128,1128,1128,1017,1017,1017,1017,21,1081,1094,1094,1094,1094,1094,1094,1094,1094,1094,1094,1081,1081,1013,0,0,0,1013,1013,1013,1013,1013,1013,1013,1013,1013,1013,1081,1081,1094,1094,1094,1081,1081,1081,1081,1081,1081,1017,1017,1017,1017,1017,1017,1017,1017,1081,1081,886,13,14,14,14,14,14,14,14,14,14,13,13,832,832,1081,1081,1081,1081,1081,1081,1081,1081,20,40,40,
40,40,40,40,40,40,1081,832,832,493,1017,1017,1017,1017,1128,1128,1128,1017,1017,1017,1017,21,1081,1094,1094,1094,1094,1094,1094,1094,1094,1094,1094,1081,1081,0,0,0,0,1013,1013,1013,1013,1013,1013,1013,1013,1013,1013,1081,1081,1094,1094,1094,1081,1081,1081,1081,1081,1081,1017,1017,1017,1017,1017,1017,1017,1017,1081,1081,886,13,14,10,10,10,10,10,10,10,14,13,13,4,493,1017,1017,1017,1017,1017,1017,1017,21,493,40,40,
40,40,40,40,40,40,1081,832,832,493,1017,1017,1017,1128,1128,1128,1128,1017,1017,1017,1017,0,1081,1094,1094,1094,1094,1094,1094,1094,1094,1094,1094,1081,1081,1013,1041,1041,1041,1013,1013,1013,1013,1013,1013,1013,1013,1013,1013,1081,1081,1094,1094,1094,1081,1081,1081,1081,1081,1081,1017,1017,1017,1017,1017,1017,1017,1017,1081,1081,886,13,14,10,10,10,10,10,10,10,14,13,13,4,493,1017,1017,1017,1017,1017,1017,1017,1017,1017,493,493,
40,40,40,40,40,1081,1081,832,840,11,21,21,21,1128,1128,1128,1128,1017,1017,1017,1017,21,1081,1094,1094,1094,1094,1094,1094,1094,1094,1094,1094,1081,1081,1013,1041,1041,1041,1025,1029,1013,1013,1013,1013,1013,1013,1013,1013,1081,1081,1094,1094,1094,1081,1081,1081,1081,1081,1081,1081,1081,1081,1081,1081,1081,1081,1081,1081,1081,886,13,14,10,10,10,10,10,10,10,14,13,13,4,4,1017,1017,1017,1017,1017,1017,1017,1017,1017,493,493,
40,40,40,40,40,1081,1081,832,832,11,1128,1128,1128,1128,1128,1128,1128,1128,1128,1128,1128,1128,1081,1094,1094,1094,1094,1094,1094,1094,1094,1094,1094,1081,1081,1013,1041,1041,1013,1033,1037,1013,1013,1013,0,0,0,0,1013,1081,1081,1094,1094,1094,1081,1081,1081,1081,1081,1081,1081,1081,1081,1081,1081,1081,1081,1081,1081,1081,886,13,14,10,10,10,10,10,10,10,14,13,13,6,4,1017,1017,1017,1017,1017,1017,1017,1017,1017,493,493,
40,40,40,40,40,1081,1081,832,832,1081,1128,1128,1128,1128,1128,1128,1128,1128,1128,1128,1128,1128,1081,1094,1094,1094,1094,1094,1094,1094,1094,1094,1094,1081,1081,1041,1041,1041,1041,1041,1041,1041,1013,1013,0,0,0,0,1013,1081,1081,1094,1094,1094,1081,1081,1081,1081,1081,1081,1081,1081,1081,1081,1081,1081,1081,1081,1081,1081,886,13,14,10,10,10,10,10,10,10,14,13,13,4,4,1017,1017,1017,1017,1017,1017,1017,1017,1017,493,493,
40,40,40,40,40,40,1081,832,832,1081,1128,1128,1128,1128,1128,1128,1128,1128,1128,1128,1128,1128,1081,1094,1094,1094,1094,1094,1094,1094,1094,1094,1094,1081,1081,1009,951,1025,1029,1013,1013,1013,1013,1013,1013,1013,1013,1013,1013,1081,1081,1094,1094,1094,1081,1081,1081,1081,1081,1081,1081,1081,1017,1017,1017,1017,1017,1017,1017,21,24,13,14,10,10,10,10,10,10,10,14,13,13,4,8,1017,1017,1017,1017,1017,1017,1017,1017,1017,493,493,
40,40,40,40,40,1081,832,832,832,1081,1128,1128,1128,1128,1128,1128,1128,1128,1128,1128,1128,1128,1081,1094,1094,1094,0,1081,1081,1081,0,1094,1094,1081,1081,1009,1009,0,0,0,0,1013,1013,1081,0,0,0,0,1081,1081,1081,1094,1094,1094,1081,1081,1081,1081,1081,1081,1081,1081,1017,1017,1017,1017,1017,1017,1017,21,24,13,14,10,10,10,10,10,10,10,14,13,13,4,6,1017,1017,1017,1017,1017,1017,1017,1017,1017,493,493,
40,40,40,40,1081,1081,832,832,832,493,1128,1128,1128,1128,1128,1128,1128,1128,1128,1128,1128,1128,1081,1094,1094,1094,1094,1081,1081,1081,0,1094,1094,1081,1081,1013,1009,0,0,0,0,1013,1013,1081,0,0,0,0,1081,1081,1081,1094,1094,1094,1081,1081,1081,1081,1081,1081,1081,1081,1017,1017,1017,1017,1017,1017,1017,21,24,13,14,10,10,10,10,10,10,10,14,13,13,4,4,21,21,21,21,21,21,21,21,493,493,493,
832,844,832,832,832,832,832,832,832,11,1128,1128,1128,1128,1128,1128,1128,12,12,12,12,12,1081,1094,1094,1094,1094,1081,1081,1081,0,1094,1094,1081,1081,1013,1013,1013,1013,1013,1013,1013,1081,1081,1081,1081,1081,1081,1081,1081,1081,1094,1094,1094,1081,1081,1081,1081,1081,1081,1081,1081,1017,1017,1017,1017,1017,1017,1017,21,24,13,14,10,10,10,10,10,10,10,14,13,13,493,495,493,493,493,493,493,493,493,493,493,493,493,
1081,1081,832,1081,1081,1081,1081,832,832,493,1017,1017,1017,1017,1017,1017,1017,1017,1017,1017,1017,1017,1081,1094,1094,1094,1094,1081,1081,1081,0,1094,1094,1081,1081,1081,1081,0,0,0,0,1081,1081,1081,1081,1081,1081,1081,1081,1081,1081,1094,1094,1094,1081,1081,1081,1081,1081,1081,1081,1081,1017,1017,1017,1017,1017,1017,1017,21,24,13,14,14,14,14,14,14,14,14,14,13,13,493,493,493,493,493,493,493,493,493,493,493,493,493,
493,493,11,11,503,493,11,1081,1081,493,1017,1017,1017,1017,1017,1017,1017,1017,1017,1017,1017,1017,1081,1094,1094,1094,1094,1081,1081,1081,0,1094,1094,1081,1081,1081,1081,0,0,0,0,1081,1081,1081,1081,1081,1081,1081,1081,1081,1081,1094,1094,1094,1081,1081,1081,1081,1081,1081,1081,1081,1017,1017,1017,1017,1017,1017,1017,21,24,13,13,14,14,14,14,14,14,14,13,13,13,493,493,527,493,493,503,493,493,493,493,493,493,493,
1017,1017,1017,1017,1017,1017,1017,1081,1081,493,1017,1017,1017,1017,1017,1017,1017,1017,1017,1017,1017,1017,1081,1094,1094,1094,1094,1094,1094,1094,1094,1094,1094,1081,1081,1081,1081,1081,1081,1081,1081,1081,1081,1081,1081,1081,1081,1081,1081,1081,1081,1094,1094,1094,1081,1081,1081,1081,1081,1081,1081,1081,1017,1017,1017,1017,1017,1017,1017,21,24,13,13,13,13,13,13,13,13,13,13,13,13,493,493,493,493,493,493,493,493,493,493,493,527,493,
1017,1017,1017,1017,1017,1017,1017,1017,1081,0,1017,1017,1017,1017,1017,1017,1017,1017,1017,1017,1017,1017,1081,1094,1094,1094,1094,1094,1094,1094,1094,1094,1094,1094,1094,1094,1094,1094,1094,1094,1094,1094,1094,1094,1094,1094,1094,1094,1094,1094,1094,1094,1094,1094,1081,1081,1081,1081,1081,1081,1081,1081,1081,1081,1081,1081,1081,1081,1081,1081,1081,24,24,24,24,24,24,24,24,24,24,24,24,24,496,527,493,493,493,493,493,493,493,493,493,493,
1017,1017,1017,1017,1017,1017,1017,1017,1081,0,1017,1017,1017,1017,1017,1017,1017,1017,1017,1017,1017,1017,1081,1094,1094,1094,1094,1094,1094,1094,1094,1094,1094,1094,1094,1094,1094,1094,1094,1094,1094,1094,1094,1094,1094,1094,1094,1094,1094,1094,1094,1094,1094,1094,1081,1081,1081,1081,1081,1081,1081,1081,1081,1081,1081,1017,1017,1017,1017,1017,1017,1017,21,493,493,493,493,523,493,493,493,495,493,493,493,493,493,712,692,708,692,692,696,704,700,692,
1017,1017,1017,1017,1017,1017,1017,1017,1081,0,1017,1017,1017,1017,1017,1017,1017,1017,1017,1017,1017,1017,1081,1094,1094,1094,1094,1094,1094,1094,1094,1094,1094,1094,1094,1094,1094,1094,1094,1094,1094,1094,1094,1094,1094,1094,1094,1094,1094,1094,1094,1094,1094,1094,1081,1081,1081,1081,1081,1081,1081,1081,1081,1081,1081,1017,1017,1017,1017,1017,1017,1017,21,493,494,493,493,493,493,493,519,493,493,503,493,493,493,708,700,700,692,704,708,692,700,700,
1017,1017,1017,1017,1017,1017,1017,1017,1081,0,1017,1017,1017,1017,1017,1017,1017,1017,1017,1017,1017,1017,1081,1094,1094,1094,1081,1081,1081,1081,1081,1081,1081,1081,1081,1081,1081,1081,1081,1081,1081,1081,1081,1081,1081,1081,1081,1081,1081,1081,1081,1094,1094,1094,1081,1081,1081,1081,1081,1081,1081,1081,1081,1081,1081,1017,1017,1017,1017,1017,1017,1017,21,493,493,493,493,493,493,507,523,493,527,493,493,493,493,704,700,692,692,704,708,700,692,692,
1017,1017,1017,1017,1017,1017,1017,1017,1081,1081,1017,1017,1017,1017,1017,1017,1017,1017,1017,1017,1017,1017,1081,1094,1094,1094,1081,1081,1081,1081,1081,1081,1081,1081,1081,1081,1081,1081,1081,1081,1081,1081,1081,1081,1081,1081,1081,1081,1081,1081,1081,1094,1094,1094,1081,1081,1081,1081,1081,1081,1081,1081,1081,1081,1081,1017,1017,1017,1017,1017,1017,1017,21,493,493,493,493,493,493,493,493,493,493,493,493,493,493,692,692,692,696,692,692,692,692,692,
1017,1017,1017,1017,1017,1017,1017,1017,1081,1081,4,4,6,4,4,4,8,4,4,6,8,1081,1081,1094,1094,1094,1081,1081,1081,1081,1081,1081,1081,1081,1081,1081,1081,1081,1081,1081,1081,1081,1081,1081,1081,1081,1081,1081,1081,1081,1081,1094,1094,1094,1081,1081,1081,1081,1081,1081,1081,1081,1081,1081,1081,1017,1017,1017,1017,1017,1017,1017,21,493,493,493,493,493,493,704,692,712,704,494,493,493,493,712,692,696,696,692,700,692,692,692,
1017,1017,1017,1017,1017,1017,1017,1017,1081,1081,1081,1081,1081,1081,1081,1081,1081,1081,1081,1081,1081,1081,1081,1094,1094,1094,1081,1081,1081,1081,1081,1081,1081,1081,1081,1081,1081,1081,1081,1081,1081,1081,1081,1081,1081,1081,1081,1081,1081,1081,1081,1094,1094,1094,1081,886,1021,1021,1021,1021,1021,1021,1081,1081,1081,1017,1017,1017,1017,1017,1017,1017,21,493,493,493,493,493,493,493,692,692,692,708,493,523,493,692,712,708,692,700,692,708,692,700,
1081,1081,1081,1081,1081,1081,1081,1081,1081,1081,1081,1081,1081,1081,1081,1081,1081,1081,1081,1081,1081,1081,1081,1094,1094,1094,1081,1081,1081,1094,1094,1094,1094,1094,1094,1081,1081,1081,1081,1081,1081,1081,1081,1081,1081,1081,1094,1094,1081,1081,1081,1094,1094,1094,1081,886,1021,1021,1021,1021,1021,1021,1081,1081,1081,1017,1017,1017,1017,1017,1017,1017,21,493,493,493,493,493,493,493,712,704,692,700,696,696,700,704,708,712,692,700,692,692,704,712,
1094,1094,1094,1094,1094,1094,1094,1094,1094,1094,1094,1094,1094,1094,1094,1094,1094,1094,1094,1094,1094,1094,1094,1094,1094,1094,1081,1081,1081,0,1017,1017,1017,1017,1017,1128,1128,1128,1128,1128,1128,1128,12,1017,1017,1017,1017,1017,1081,1081,1081,1094,1094,1094,1081,886,1021,1021,1021,1021,1021,1021,1081,1081,1081,1017,1017,1017,1017,1017,1017,1017,21,493,493,493,696,493,493,700,692,708,696,692,700,712,700,692,692,700,692,704,708,708,708,704,
1094,1094,1094,1094,1094,1094,1094,1094,1094,1094,1094,1094,1094,1094,1094,1094,1094,1094,1094,1094,1094,1094,1094,1094,1094,1094,1081,1081,1081,0,1017,1017,1017,1017,1017,1017,1128,1128,1128,1128,1128,1128,1128,1017,1017,1017,1017,1017,1081,1081,1081,1094,1094,1094,1081,1081,0,0,0,0,0,0,1081,1081,1081,1017,1017,1017,1017,1017,1017,1017,21,493,493,493,712,708,692,692,692,692,712,704,700,696,708,692,700,696,696,712,704,692,708,704,
1094,1094,1094,1094,1094,1094,1094,1094,1094,1094,1094,1094,1094,1094,1094,1094,1094,1094,1094,1094,1094,1094,1094,1094,1094,1094,1081,1081,1081,0,1017,1017,1017,1017,1017,1017,1128,1128,1128,1128,1128,1128,1128,1017,1017,1017,1017,1017,1081,1081,1081,1094,1094,1094,1081,1021,1021,1021,1021,1021,1021,1021,1021,1081,1081,24,24,24,24,24,24,24,24,24,493,493,692,704,712,704,700,704,696,704,692,692,696,692,712,696,700,708,692,692,692,692,
1081,1081,1081,1081,1081,1081,1081,1081,1081,1081,1081,1081,1081,1081,1081,1081,1081,1081,1081,1094,1094,1094,1081,1081,1081,1081,1081,1081,1081,0,1017,1017,1017,1017,1017,1017,1128,1128,1128,1128,1128,1128,1128,1017,1017,1017,1017,1017,1081,1081,1081,1094,1094,1094,0,1021,1021,1021,1021,1021,1021,1021,1021,1081,24,24,24,24,24,24,24,24,24,24,493,493,708,704,700,696,692,712,708,696,704,712,708,712,692,712,704,700,692,712,692,692
</data>
 </layer>
 <layer id="2" name="Objects" width="96" height="96">
  <data encoding="csv">
612,0,0,793,304,755,756,75,719,286,286,0,0,0,0,0,0,0,0,0,0,0,0,83,719,294,0,0,1149,1146,320,0,0,322,0,753,754,0,0,290,300,756,756,0,321,322,761,0,287,0,0,0,0,0,0,1108,300,1112,1116,1120,760,0,292,300,321,321,759,320,543,371,26,26,0,0,0,28,390,26,26,28,450,391,440,0,426,475,0,0,0,0,0,0,0,0,0,0,
612,0,0,0,608,322,296,321,719,286,78,78,78,78,78,90,90,90,78,86,90,78,90,715,719,296,754,757,1147,1146,1148,0,290,0,0,755,756,600,321,290,539,354,539,539,300,539,604,757,1108,0,0,0,0,0,0,1108,758,293,0,299,793,0,600,571,0,299,755,756,543,761,396,477,26,0,28,453,442,395,396,393,442,754,0,0,0,371,26,0,0,0,0,0,0,0,0,0,
631,0,0,753,754,761,755,756,76,719,719,719,719,719,719,719,719,719,719,719,719,719,719,719,719,755,756,759,760,756,757,292,294,0,600,539,539,572,0,294,322,0,322,321,319,320,322,759,760,0,0,0,0,0,0,1108,760,754,0,300,0,0,296,308,0,300,304,755,756,758,0,421,470,26,448,433,755,756,322,759,760,756,291,750,322,423,472,26,26,26,26,26,26,26,26,0,
0,0,295,755,756,761,754,755,756,760,760,760,0,0,0,0,319,320,560,0,0,290,290,0,300,294,298,0,761,304,759,760,309,310,560,761,0,761,290,793,290,757,758,758,761,761,322,761,321,0,0,0,0,0,0,1108,761,756,0,0,0,322,560,0,0,0,322,0,543,760,0,322,426,391,440,0,0,0,761,0,290,761,751,752,761,754,428,389,390,391,392,389,721,391,476,26,
0,0,296,290,756,755,756,756,761,293,755,756,761,291,0,0,548,549,752,298,549,547,548,549,547,354,293,322,293,0,0,291,311,312,608,756,547,592,0,290,793,290,304,316,756,322,291,0,1108,0,0,0,0,0,0,1108,755,756,0,299,0,303,304,0,757,758,355,596,290,0,321,0,0,0,0,0,0,0,322,322,318,295,0,0,755,756,0,0,0,0,0,0,725,291,432,725,
0,753,754,761,761,287,760,756,756,760,291,293,298,754,302,0,0,294,321,0,319,320,296,0,0,0,291,0,296,0,299,0,0,290,761,757,758,559,0,0,0,293,756,760,288,322,761,0,322,0,0,0,0,0,0,1108,755,756,292,300,321,755,756,761,287,760,756,756,760,290,293,758,754,302,0,0,0,321,0,319,320,296,290,0,0,291,0,0,0,293,0,0,721,0,301,721,
288,755,756,754,608,320,609,321,761,760,0,759,760,756,304,0,0,322,0,287,0,0,0,0,0,0,0,757,322,0,300,0,0,793,760,761,760,608,592,761,0,0,759,760,289,596,321,0,290,0,0,0,0,0,0,1108,756,760,0,0,0,0,287,608,320,609,321,761,760,300,759,760,756,304,287,0,322,0,287,0,0,0,0,0,0,0,757,322,761,0,757,321,725,301,303,304,
289,793,761,756,760,0,0,757,758,0,0,755,756,758,0,0,0,0,384,372,372,372,372,372,372,372,420,759,760,0,0,0,0,0,755,756,756,760,752,0,0,322,547,304,321,321,322,0,1108,0,0,0,0,0,0,1108,760,297,298,322,0,0,761,760,0,0,757,758,0,0,755,756,758,0,0,0,0,383,372,372,372,372,372,372,372,419,298,760,760,600,761,312,721,793,304,721,
0,755,756,759,760,322,753,761,760,0,294,749,759,760,0,0,0,375,484,0,0,0,0,0,0,25,400,755,756,761,754,0,761,0,0,751,752,756,608,547,548,321,299,322,549,322,757,758,1108,0,0,0,0,0,0,1108,0,793,298,0,0,0,759,760,322,753,761,760,0,294,749,759,760,0,0,0,374,483,0,0,0,0,0,0,25,399,755,756,300,559,289,754,725,0,300,725,
0,755,756,758,0,300,793,756,356,0,0,321,752,761,380,372,372,487,0,0,0,0,0,0,0,25,464,413,0,290,756,0,0,0,0,0,0,0,0,0,0,321,300,759,760,0,290,760,290,0,0,0,0,0,0,1108,754,0,356,0,292,0,793,0,296,793,756,356,298,0,321,752,761,379,372,372,486,0,0,0,0,0,0,0,25,463,416,755,756,560,755,756,789,774,774,790,
753,294,759,760,0,293,0,0,295,0,0,0,0,0,371,0,0,0,0,0,0,0,0,0,0,0,25,405,0,0,0,0,0,0,0,0,0,288,290,292,291,0,761,755,756,0,321,0,1108,0,0,0,0,0,0,1108,756,0,0,297,298,0,0,0,293,0,0,295,0,0,0,0,0,371,0,0,0,0,0,0,0,0,0,0,0,25,408,0,321,561,756,685,787,339,343,788,
755,756,756,0,749,750,750,0,296,0,0,0,374,372,484,0,0,0,0,0,0,0,0,0,0,0,25,397,0,0,0,0,0,0,299,0,0,289,298,290,0,0,759,760,295,761,314,0,322,0,0,0,0,0,0,1108,761,0,0,0,295,321,0,749,750,750,0,296,0,0,0,373,372,483,0,0,0,0,0,0,0,0,0,0,0,25,400,0,0,559,318,687,792,778,782,791,
753,754,0,560,290,752,752,0,0,0,380,372,486,0,0,0,0,0,26,26,26,26,0,0,0,0,25,401,754,293,0,293,761,0,300,291,288,0,755,756,0,290,0,322,296,315,316,0,1108,0,0,0,0,0,0,1108,761,305,306,0,296,0,0,751,752,752,0,0,0,379,372,485,0,0,0,0,0,26,26,26,26,0,0,0,0,25,404,754,0,608,320,548,609,0,0,0,
755,756,754,355,0,0,321,0,0,383,492,0,0,0,0,0,26,28,456,393,394,479,0,0,0,0,25,405,756,0,0,0,0,0,0,0,289,0,755,756,0,0,0,0,0,0,0,757,1108,0,0,0,0,0,0,1108,760,307,308,0,0,0,0,0,0,321,0,0,382,491,0,0,0,0,0,26,28,455,396,393,478,0,0,0,0,25,408,756,0,287,305,303,304,0,0,0,
761,755,756,294,313,314,0,0,374,483,0,0,0,0,0,25,446,387,436,323,348,371,0,0,0,0,28,397,0,0,0,0,0,753,754,0,0,761,0,757,761,753,297,298,0,313,314,291,760,0,0,0,0,0,0,1108,301,302,754,0,0,290,288,313,314,0,0,373,482,0,0,0,0,0,25,445,386,435,323,348,371,0,0,0,0,28,400,749,750,754,307,308,0,0,0,0,
756,756,312,0,290,316,0,290,371,0,0,0,0,0,0,28,402,322,348,323,378,487,0,0,0,28,452,437,758,0,0,0,753,755,756,0,753,297,298,759,760,761,756,761,318,322,316,604,354,0,0,0,0,0,0,1108,287,304,756,291,0,289,289,315,316,0,290,371,0,0,0,0,0,0,28,401,322,348,323,377,486,0,0,0,28,451,440,751,752,756,761,0,0,0,0,321,
0,761,0,0,0,0,0,0,371,0,0,0,0,26,28,453,442,339,324,604,371,0,0,0,25,455,444,759,760,287,753,754,755,756,0,0,755,756,0,757,758,754,0,600,320,760,0,543,756,0,0,0,0,0,0,1108,759,760,761,0,757,758,0,0,0,0,0,371,0,0,0,0,26,28,456,441,339,324,604,371,0,0,0,25,454,443,759,760,0,319,320,0,0,600,539,573,
0,0,0,0,0,0,0,0,371,0,0,0,28,447,388,433,335,308,760,609,371,0,0,0,25,399,0,0,289,0,755,756,0,0,761,0,0,761,0,759,760,756,0,321,758,0,596,793,322,0,0,0,0,0,0,1108,0,761,321,291,759,760,0,0,0,0,0,371,0,0,0,28,446,387,436,335,308,760,609,371,0,0,0,25,398,0,0,289,293,0,0,0,749,559,0,761,
757,758,0,0,0,287,380,372,486,0,0,25,450,439,322,333,756,760,609,377,486,0,0,0,25,403,0,288,0,0,0,289,0,0,753,754,0,761,0,755,756,313,600,287,760,322,543,754,1108,0,0,0,0,0,0,1108,0,755,756,755,756,322,0,0,287,379,372,485,0,0,25,449,438,322,333,756,760,609,380,485,0,0,0,25,402,0,288,0,0,0,753,754,600,752,0,0,
291,760,793,290,306,0,371,0,0,0,0,25,406,320,321,756,354,609,384,489,0,0,0,0,25,407,0,289,0,0,600,539,539,761,755,756,758,761,0,0,0,600,316,307,308,0,543,756,761,0,0,0,0,0,0,1108,761,352,759,760,289,0,305,306,0,371,0,0,0,0,25,405,320,321,756,354,609,383,492,0,0,0,0,25,406,0,289,0,0,0,761,756,293,0,0,0,
0,0,0,307,308,0,371,0,0,0,0,25,398,323,756,760,358,760,371,0,0,0,26,26,28,399,750,761,761,0,559,0,0,583,604,759,760,756,0,321,0,761,321,0,305,306,293,756,1108,0,0,0,0,0,0,1108,761,354,287,0,0,299,307,308,0,371,0,0,0,0,25,397,323,756,760,358,760,371,0,0,0,26,26,28,398,750,761,761,0,290,758,0,559,0,761,322,
753,288,0,0,753,322,371,0,0,0,0,25,402,323,560,347,304,0,371,0,0,25,452,389,390,439,752,760,760,0,608,592,0,0,584,604,0,0,0,761,0,300,320,321,307,308,609,317,1108,0,0,0,0,0,0,1108,0,755,756,0,0,300,0,753,322,371,0,0,0,0,25,401,323,560,347,304,0,371,0,0,25,451,392,389,438,752,760,760,0,759,760,754,560,0,0,0,
755,756,297,298,356,756,371,26,26,0,0,28,406,0,608,609,0,0,371,26,26,28,408,0,0,755,756,0,0,0,0,608,592,0,753,543,0,0,0,0,757,608,547,760,549,761,760,319,320,0,0,0,0,0,0,1108,291,0,0,761,0,0,757,356,756,371,26,26,0,0,28,405,0,608,609,0,0,371,26,26,28,407,0,0,755,756,0,0,753,321,755,756,608,592,313,314,
0,0,0,759,760,321,424,385,470,26,28,445,434,313,314,326,327,0,424,385,386,387,436,295,0,296,322,322,0,753,754,0,608,547,548,756,0,322,321,0,759,760,761,760,290,760,315,316,1108,0,0,0,0,0,0,1108,0,0,0,290,0,0,793,760,321,423,388,469,26,28,448,433,313,314,326,327,0,423,388,385,386,435,295,0,296,322,322,0,755,756,760,758,793,608,548,316,
0,0,0,0,753,287,0,0,426,255,255,437,322,315,316,328,329,761,236,235,755,756,0,296,309,310,322,322,0,761,756,0,0,321,755,756,0,0,0,287,321,756,761,0,0,600,539,604,1108,0,0,0,0,0,0,1108,0,0,356,0,761,0,290,753,287,0,0,425,255,255,440,322,315,316,328,329,761,236,235,755,756,0,296,309,310,322,322,0,0,755,756,760,0,307,308,0,
539,294,0,753,755,756,754,793,256,257,257,760,0,0,761,760,0,0,234,233,754,287,0,0,311,312,0,321,0,0,0,0,0,0,0,0,0,0,0,0,322,600,539,539,539,571,0,543,291,0,0,0,0,0,0,1108,0,287,301,302,0,297,298,755,756,754,793,256,257,257,760,0,0,761,760,0,0,234,233,754,287,0,0,311,312,0,321,753,297,298,298,0,0,0,0,0,
793,543,297,298,756,549,756,548,592,539,539,761,322,604,0,0,0,0,289,761,756,0,0,0,0,0,0,761,761,1146,1146,290,0,0,0,600,539,539,604,0,0,559,0,0,0,0,0,543,1108,0,0,0,0,0,0,1108,309,310,303,304,0,0,755,756,600,756,539,539,539,539,761,322,604,0,0,0,0,289,761,756,0,0,757,758,0,295,761,761,756,302,0,0,0,321,0,287,
547,761,758,0,0,0,0,290,298,761,758,750,757,584,539,539,539,539,539,548,0,0,0,0,0,295,0,0,1147,1146,1148,0,600,539,539,573,0,0,543,0,0,608,547,548,549,547,548,609,1108,0,0,0,0,0,0,1108,311,312,353,354,0,0,755,756,572,761,354,0,757,758,755,756,543,753,291,0,321,0,321,0,0,0,292,760,322,296,0,322,294,304,0,600,356,604,0,0,
761,322,760,0,757,758,0,321,561,759,760,752,759,760,0,301,302,0,543,0,294,287,0,0,0,296,0,0,0,364,0,0,561,0,0,0,0,0,543,0,0,0,0,0,315,316,0,321,321,0,0,0,0,0,0,1108,0,0,0,0,0,0,761,561,306,291,321,0,759,760,756,300,609,755,756,0,0,0,0,287,0,0,755,756,0,761,0,753,292,793,539,572,0,585,604,0,
761,354,298,290,759,760,793,0,321,312,756,289,761,0,322,303,304,0,543,0,0,0,0,0,0,297,298,600,539,604,0,288,608,547,548,549,547,548,609,0,0,0,0,0,0,0,0,0,293,0,0,0,0,0,0,1108,0,321,322,287,0,0,299,559,308,0,761,0,321,754,596,322,761,0,321,0,0,0,322,0,0,0,753,754,0,753,322,755,756,559,793,0,0,293,543,0,
321,0,322,0,755,756,758,0,321,560,756,759,760,290,0,0,0,596,321,0,0,322,321,0,761,289,287,571,0,584,604,289,760,0,0,0,322,0,300,0,0,0,0,0,0,322,321,0,1108,0,0,0,0,0,0,1108,0,757,758,322,0,0,300,608,592,321,0,356,596,756,756,0,753,754,322,793,0,0,0,0,0,295,755,756,757,755,756,0,0,290,300,0,0,0,543,758,
0,0,585,604,761,760,760,0,0,608,548,549,592,0,0,0,0,543,0,0,0,293,0,0,761,572,0,0,0,596,609,0,753,754,288,0,0,0,0,0,0,0,0,0,321,754,0,0,292,0,0,0,0,0,0,1108,355,759,760,0,0,0,0,0,608,289,321,761,756,0,761,298,755,756,761,0,288,0,288,0,0,296,761,290,759,760,757,758,753,608,592,322,0,0,543,760,
1146,1146,1146,1146,0,0,0,1149,1146,1146,1146,1146,1146,1146,1146,1146,548,609,0,0,322,753,754,0,559,0,0,596,548,609,322,321,761,756,289,761,0,295,0,0,322,0,0,0,755,756,0,0,1108,0,0,0,0,0,0,1108,0,0,301,302,0,290,0,0,0,0,0,322,300,761,0,0,321,0,0,0,289,0,289,753,754,322,760,0,761,761,293,760,761,756,559,0,0,0,543,0,
0,0,0,1147,0,0,0,1147,0,0,0,0,0,0,0,1147,0,0,0,0,0,755,756,754,560,288,596,609,754,761,300,761,584,539,756,0,757,296,321,0,322,0,321,0,0,0,297,298,322,0,0,0,0,0,0,1108,0,356,303,304,0,0,0,0,0,0,0,288,0,0,0,0,793,0,0,290,0,0,0,755,756,756,761,0,761,761,756,756,0,294,608,548,549,547,609,298,
0,0,0,1147,0,0,0,1147,0,0,0,0,0,0,0,1147,297,298,600,539,539,539,604,756,608,289,609,321,756,539,760,355,759,760,543,0,293,760,0,0,321,761,754,0,0,0,0,305,1108,0,0,0,0,0,0,1108,0,0,0,289,761,322,0,0,0,0,0,289,0,0,0,0,0,0,0,0,0,0,287,0,0,761,298,293,755,756,0,793,0,0,0,0,0,300,0,0,
0,0,0,1147,1146,1146,1146,1148,0,0,0,0,0,0,0,1147,0,600,571,0,0,0,543,0,755,756,756,793,572,0,0,0,322,756,793,604,322,0,753,290,0,755,756,0,0,0,0,307,308,0,0,0,0,0,0,1108,297,298,0,0,0,761,0,0,0,0,0,0,49,50,46,290,46,46,46,46,290,46,46,46,46,46,46,46,46,46,46,46,46,46,46,291,46,46,46,0,
0,0,0,0,0,0,0,0,0,0,0,245,0,0,743,1154,0,560,0,0,596,547,609,0,0,322,600,571,355,0,291,322,750,356,761,316,756,321,755,756,0,0,0,0,288,0,0,0,321,0,0,0,0,0,0,1108,0,0,321,0,0,322,287,0,321,0,288,290,51,52,48,48,48,48,48,48,48,48,48,48,48,48,48,48,48,48,48,48,48,48,48,48,48,48,48,0,
0,0,0,1149,1146,1146,1146,1146,0,0,0,0,0,0,743,1158,0,608,547,548,609,0,0,322,322,322,355,753,754,309,310,751,752,761,596,609,295,296,756,0,0,0,0,0,289,0,0,0,1108,0,0,0,0,0,0,1108,0,0,291,0,321,322,757,758,0,757,289,0,43,44,1149,1146,1146,1146,1146,1146,1146,1146,1146,1146,1146,1146,1146,1146,1146,1146,1146,1146,1146,1146,1146,1146,1146,1146,44,0,
0,0,0,1147,0,0,0,1147,0,0,0,0,0,0,0,1147,0,0,0,757,758,0,297,298,321,761,761,755,756,311,312,0,0,289,543,761,296,0,0,0,0,0,0,0,0,288,0,0,1108,0,0,252,252,252,0,1108,0,0,0,0,288,321,322,760,0,759,760,0,43,44,1147,0,0,0,0,0,0,0,1147,0,0,0,0,0,0,0,1147,0,0,0,0,0,0,1147,44,0,
0,0,0,1147,0,0,0,1147,0,0,0,0,0,0,0,1147,0,288,0,759,760,291,0,0,0,0,560,308,296,761,754,0,753,596,609,287,752,0,0,0,0,0,49,322,46,289,46,46,1108,46,46,253,253,253,46,1108,46,46,46,46,289,0,0,0,0,0,0,0,291,44,1147,0,0,0,0,0,0,0,1147,0,0,0,0,0,0,0,1147,0,0,0,0,0,0,1147,44,372,
1146,1146,1146,1148,0,0,0,1147,1146,1146,1146,1146,1146,1146,1146,1148,0,289,0,0,0,0,0,0,0,0,608,547,592,304,756,322,755,756,0,296,0,0,0,0,321,321,51,52,48,48,48,48,48,48,48,251,251,251,48,48,48,48,48,48,48,0,0,0,0,288,0,0,43,44,1147,0,0,0,0,0,0,0,1147,0,0,0,0,0,0,1142,1147,0,0,0,0,0,0,1147,44,0,
0,0,0,0,0,0,600,539,573,299,0,0,0,0,0,583,604,0,0,322,793,0,295,0,0,0,0,0,608,549,547,761,322,609,290,300,0,0,49,50,46,46,43,44,0,0,0,0,0,0,0,0,0,0,0,0,0,0,0,43,44,46,46,46,46,289,46,46,43,44,1147,0,0,0,0,0,0,0,1147,0,0,0,0,0,0,1144,1145,0,0,0,0,0,0,1147,44,0,
0,0,0,0,0,0,560,308,757,300,0,0,297,298,0,322,761,321,753,754,296,0,296,0,0,793,298,0,0,0,291,0,0,0,299,289,0,0,51,52,48,48,48,56,0,0,0,0,0,0,0,0,0,0,0,0,0,0,0,43,44,48,48,48,48,48,48,48,48,56,1147,0,0,0,0,0,0,0,1147,0,0,0,0,0,0,0,1147,0,0,0,0,0,0,1147,44,0,
0,0,0,0,0,0,300,0,759,760,0,295,297,312,352,596,609,291,755,756,753,754,300,322,322,0,0,0,0,0,793,0,757,758,300,0,0,0,43,44,0,0,585,44,46,46,46,46,46,46,46,46,46,46,46,46,46,46,46,43,44,0,0,0,0,0,0,0,0,0,1147,0,0,0,0,0,0,0,1147,0,0,0,0,0,0,0,1147,0,0,0,0,0,0,1147,44,0,
758,0,0,0,0,0,559,0,303,304,294,296,758,353,761,543,757,761,0,0,755,756,758,0,0,299,0,0,0,0,0,0,759,760,753,754,293,0,296,44,0,0,43,44,48,48,48,48,48,48,48,48,48,48,48,48,48,48,48,48,56,0,0,0,0,0,0,0,0,0,1147,0,0,1168,1169,1139,0,0,1147,1138,1139,0,1168,1169,0,0,1147,1138,1139,1168,1169,1138,1139,1147,44,0,
760,321,322,761,0,0,608,793,300,309,310,793,760,298,596,609,759,760,0,322,322,759,760,0,0,300,0,321,0,322,0,0,321,0,755,756,321,0,43,44,1149,1146,1146,1146,1146,1146,1146,1146,0,0,1077,255,255,255,1077,0,0,1149,1146,1146,1146,1146,1146,1146,1146,1146,0,0,0,0,1147,1146,1146,1146,1171,1141,1146,1146,1148,1146,1141,1146,1146,1171,1146,1146,1148,1146,1141,1146,1171,1146,1141,1148,44,0,
761,755,756,0,0,291,0,0,293,547,312,321,547,548,761,756,291,0,0,761,291,0,0,288,0,322,0,0,761,0,322,754,0,0,0,759,760,0,43,44,1147,0,0,0,0,0,0,1147,0,0,256,257,257,257,0,0,0,1147,0,0,0,0,0,0,0,1147,0,0,0,0,0,245,245,0,0,0,0,0,1077,0,0,0,0,0,0,0,0,0,0,0,0,0,0,585,44,0,
756,760,756,0,0,0,0,0,0,291,760,760,756,0,0,761,760,0,0,759,760,0,322,289,0,0,0,0,0,0,755,756,0,0,761,0,0,0,296,44,1147,0,0,0,0,0,1172,1147,0,0,0,1099,0,1096,0,0,0,1147,0,0,0,0,0,0,0,1147,0,0,0,0,0,0,0,0,0,0,0,0,0,0,0,0,0,0,0,0,0,0,0,0,0,0,0,43,44,0,
760,296,321,0,0,0,0,0,0,0,0,0,0,0,0,0,0,0,0,0,0,0,321,0,0,0,0,0,1149,1146,1146,366,293,757,321,757,287,0,43,44,1147,0,0,0,0,0,1174,1175,0,0,0,1099,861,1096,0,0,1172,1147,0,0,0,0,0,245,1142,1147,0,0,0,0,0,0,0,0,0,0,0,0,0,0,0,0,0,0,0,0,0,0,0,0,0,0,0,43,44,0,
609,0,321,0,0,0,322,0,0,0,0,0,0,0,0,0,0,0,0,287,0,0,0,0,0,0,0,0,1147,1146,1148,362,756,321,760,759,760,0,43,44,1147,0,0,1138,1139,0,0,1147,0,0,0,1099,0,1096,0,0,1174,1175,0,0,0,0,0,0,1144,1145,0,0,0,0,0,0,1138,1139,0,0,0,0,0,0,1138,1139,0,0,0,0,0,0,0,0,0,0,0,1077,44,0,
753,754,758,0,288,0,322,0,0,0,0,0,0,0,295,0,49,50,46,46,46,322,46,46,46,46,46,46,46,364,359,363,321,46,296,46,46,297,298,44,1147,1146,1146,1146,1141,1146,1146,1148,0,0,0,1099,0,1096,0,0,1142,1147,0,0,0,0,0,0,0,1147,0,0,0,1149,1146,1146,1146,1141,1146,1146,1146,1146,1146,1146,1146,1141,1146,1146,1146,1146,0,0,0,0,0,0,0,43,44,26,
755,756,760,753,289,0,0,0,0,0,322,0,0,321,296,0,51,52,48,48,48,48,48,48,48,48,48,48,48,48,48,48,48,48,48,48,48,48,48,56,0,0,0,0,0,0,1121,1122,0,0,0,1099,861,1096,0,0,1144,1145,0,0,0,0,0,0,0,1147,0,0,0,1147,0,0,0,0,0,0,0,1147,0,0,0,0,0,0,0,1147,0,0,239,237,238,0,0,43,44,389,
287,0,321,755,756,322,0,0,0,0,291,0,0,0,0,0,43,44,1149,1146,1146,1146,1146,1146,1146,1146,1146,1146,1146,1146,1146,1146,1146,1146,1146,1146,1146,1146,1146,1146,1146,1146,1146,1146,1146,1146,1123,1124,0,0,0,1099,0,1096,0,0,0,1147,0,0,0,0,0,0,0,1147,0,0,0,1147,0,0,0,0,0,0,0,1147,0,0,0,0,0,0,0,1147,0,0,241,242,244,0,0,43,44,0,
0,0,0,0,287,0,0,322,0,0,0,0,0,0,0,0,287,44,1147,0,0,0,0,0,0,0,1147,0,0,0,0,0,0,0,0,0,1147,0,0,0,0,0,0,0,1142,1147,0,0,0,0,1077,1099,0,1096,0,0,0,1147,1146,1146,1146,1146,1146,1146,1146,1148,1146,1146,0,1147,0,0,0,0,0,0,0,1147,0,0,0,0,0,0,0,1147,0,0,0,0,0,0,0,43,44,290,
0,0,0,0,0,0,0,0,0,0,0,297,298,0,0,49,43,44,1147,0,0,0,0,0,0,0,1147,0,0,0,0,0,0,0,0,0,1147,0,0,0,0,0,0,0,1144,1145,0,0,0,0,0,1099,0,1096,0,0,0,1147,0,0,0,0,0,0,0,0,1142,1147,0,1147,0,0,0,0,0,0,0,1147,0,0,0,0,0,0,0,1147,0,0,0,0,0,0,49,1077,44,298,
46,293,46,46,46,46,46,46,46,293,46,46,46,46,46,51,52,56,1147,0,0,0,0,0,0,0,1147,0,0,0,0,0,0,0,0,0,1147,0,0,0,0,0,0,0,0,1147,0,0,0,0,0,1099,0,1096,0,0,1172,1147,0,0,0,0,0,0,0,245,1144,1145,0,1147,0,0,0,0,0,0,0,1147,0,0,0,0,0,0,0,1147,0,0,0,0,0,0,51,52,56,48,
48,48,48,48,48,48,48,48,48,48,48,48,48,48,48,48,56,0,1147,0,0,0,0,0,0,0,1147,0,0,0,0,0,0,0,0,0,1147,0,0,0,0,0,0,0,1142,1147,0,0,0,0,0,1099,861,1096,0,0,1174,1175,0,0,0,0,0,0,0,0,1142,1147,0,1147,0,0,0,0,0,0,0,1147,0,0,0,0,0,0,0,1147,0,0,0,0,0,0,43,44,0,0,
761,756,322,761,312,0,296,759,760,0,1149,1146,1146,1146,1146,1146,1146,0,1147,0,0,1168,1169,0,0,0,1147,0,0,0,1168,1169,0,0,0,0,1147,0,0,1168,1169,0,0,0,1144,1145,0,0,0,0,0,1099,0,1096,0,0,0,1147,1138,1139,0,0,0,0,1138,1139,1144,1145,0,1147,1138,1139,1168,1169,1138,1139,0,1147,0,1138,1139,1168,1169,1138,1139,1147,0,0,0,0,0,0,43,44,0,0,
0,0,0,301,302,321,761,322,354,761,1147,0,0,0,0,0,1147,0,1147,1146,1146,1146,1171,1146,1146,1146,1148,1146,1146,1146,1146,1171,1146,1146,1146,1146,1148,1146,1146,1146,1171,1146,1146,1146,1146,1148,0,0,0,0,0,1099,0,1096,0,0,0,1147,1146,1141,1146,1146,1146,1146,1146,1141,1146,1148,0,1147,1146,1141,1146,1171,1146,1141,1146,1148,1146,1146,1141,1146,1171,1146,1141,1148,0,0,0,0,0,0,43,44,0,0,
0,0,291,303,304,0,757,758,0,0,1147,0,0,0,0,0,1147,0,1147,0,0,0,0,0,0,0,0,0,0,0,0,0,0,0,0,0,0,0,0,0,0,0,0,0,667,1147,0,0,0,0,0,1099,0,1096,0,0,0,0,0,0,0,0,0,0,0,0,0,0,0,0,0,0,0,0,0,0,0,0,0,0,0,0,0,0,0,0,0,0,0,0,0,0,43,44,0,0,
0,0,0,0,0,0,759,760,322,0,1147,0,0,0,0,0,1147,0,1147,0,0,0,0,0,0,0,0,0,0,0,0,0,0,0,0,0,0,0,0,0,0,0,0,0,667,1147,0,0,0,0,0,1099,0,1097,1105,1104,860,860,860,1104,1105,1104,1105,1104,1105,1104,1105,1104,1105,1104,1105,1104,1105,1104,1105,1104,1105,1104,1105,1104,1105,1104,1105,1104,1105,1104,1105,1104,1105,1096,0,0,43,44,0,0,
372,372,372,372,418,0,0,761,761,815,1147,0,1168,1169,0,0,1147,0,1147,1138,1139,0,737,737,737,737,1138,1139,0,0,0,0,0,0,0,1138,1139,0,0,737,737,737,737,1138,667,1145,0,0,0,0,0,1099,856,0,0,0,860,860,860,0,0,0,860,0,0,0,0,860,0,0,0,0,860,0,0,0,0,860,0,0,0,0,860,0,0,0,0,0,864,1096,0,1121,43,44,0,0,
0,0,0,25,458,372,366,319,320,795,1147,1146,1146,1171,1146,1146,1148,0,1147,1146,1141,1146,1159,1167,1159,1167,1146,1141,1146,1146,1146,1146,1146,1146,1146,1146,1141,1146,1146,1159,1167,1159,1167,1146,1141,1148,0,0,0,0,0,1099,0,1095,1101,1101,860,860,860,1101,1101,1101,1101,1101,1101,1101,1101,1101,1101,1101,1101,1101,1101,1101,1101,1101,1101,1101,1101,1101,1101,1101,1101,1101,1101,1101,1101,1098,0,1096,0,1123,1124,44,0,0,
0,0,0,0,0,25,249,250,0,795,0,0,0,0,0,0,0,0,0,0,0,0,0,0,0,0,0,0,0,0,0,245,245,0,0,0,0,0,0,0,0,0,0,0,0,0,0,0,0,0,0,1099,0,1096,1077,0,0,0,0,0,0,0,0,0,0,0,0,0,0,1077,0,0,0,0,0,0,0,0,0,0,0,0,0,0,0,0,1077,1099,0,1097,1105,1104,248,247,0,0,
0,0,0,0,0,25,249,250,0,795,0,0,0,0,0,0,0,0,0,0,0,0,0,0,0,0,0,0,0,0,0,0,0,0,0,0,0,0,0,0,0,0,0,1077,0,0,0,0,0,0,0,1099,0,1096,0,0,0,0,0,0,0,0,1138,1139,0,0,0,0,0,0,0,0,0,0,0,0,0,0,0,0,1125,0,0,0,0,0,0,1099,863,0,863,1121,248,247,0,0,
0,0,0,0,0,25,400,0,355,795,0,0,0,0,0,0,0,0,0,0,0,0,0,1099,1103,1102,1103,1102,1103,1102,1103,1102,1103,1102,1103,1102,1103,1102,1103,1102,1103,1102,1103,1102,1103,1102,1103,1102,1103,1102,1103,1100,0,1096,0,0,0,0,0,1149,1146,1146,1146,1141,1146,1146,1146,1146,0,0,0,0,69,70,278,66,737,737,278,66,0,0,0,0,0,0,0,1099,1101,1101,1101,1101,248,247,0,0,
0,0,0,0,0,25,404,292,0,1149,1146,1146,1146,1146,1146,1146,1146,1146,1146,1146,1146,1146,0,1099,868,0,0,0,860,0,0,0,858,0,0,0,0,860,0,0,0,0,860,0,0,0,0,860,0,0,0,0,857,1096,0,0,0,0,0,1147,0,0,0,0,0,0,0,1147,0,0,0,0,71,72,68,68,738,72,68,68,0,0,0,0,0,0,0,0,0,0,0,0,59,60,0,0,
0,0,0,0,0,25,408,0,1142,1147,0,0,0,0,907,1147,0,0,0,0,1142,1147,0,1099,0,0,0,0,0,0,0,0,1095,1101,1101,1101,1101,1101,1101,1101,1101,1101,1101,1101,1101,1101,1101,1101,1101,1101,1101,1098,0,1096,0,0,0,0,0,1147,0,0,0,0,0,0,0,1147,0,129,130,230,63,64,271,0,0,0,271,120,230,230,230,0,0,0,0,0,0,0,0,0,43,44,0,0,
0,0,0,0,0,25,400,0,321,1145,0,1129,1130,1131,907,1147,0,0,0,0,1144,1145,1077,1099,861,0,1149,1146,861,1149,1146,0,861,1077,1080,1081,1081,1081,1081,0,0,0,0,0,0,0,0,0,0,0,1077,1099,0,1096,0,0,0,0,1172,1147,0,0,0,0,0,0,0,1147,0,131,132,232,232,220,270,0,0,0,227,228,232,232,232,0,0,0,0,0,0,0,0,0,43,44,0,0,
0,0,0,0,0,25,404,0,0,1147,0,1132,1133,909,907,1147,0,0,0,0,0,1147,0,1099,0,0,1147,1148,0,1147,1148,0,1096,0,1080,1081,1081,1081,1046,1045,1046,0,0,0,1046,1045,1046,0,0,0,0,1099,0,1096,0,0,0,0,1174,1175,0,0,0,0,0,0,0,1147,0,191,192,277,0,0,271,0,0,0,271,0,276,277,192,351,352,0,0,0,0,0,0,0,43,44,0,0,
0,0,0,0,0,25,408,793,0,1147,0,1135,907,1137,1146,1148,1146,0,0,0,0,1147,0,1099,861,0,0,0,861,0,0,0,861,0,1059,1007,738,738,1006,911,911,911,911,911,911,950,911,911,911,911,0,1099,0,1096,0,0,0,0,1142,1147,0,0,0,0,0,0,0,1147,0,199,200,280,0,0,0,0,0,0,0,0,258,280,200,826,354,812,0,1168,761,1138,1139,0,43,44,0,0,
0,0,0,0,0,25,400,0,322,1147,0,0,1172,1147,0,1172,1147,0,0,0,1142,1147,0,1099,0,0,0,0,0,0,0,0,1096,0,912,1069,1013,1013,1013,981,0,1002,986,732,246,0,0,981,0,912,0,1099,861,1096,0,0,0,0,1144,1145,0,0,0,0,0,0,0,1147,0,183,184,261,274,275,0,0,0,0,274,275,260,261,184,299,1149,1146,1146,1146,1171,1146,1141,1146,1146,44,46,46,
0,0,0,0,0,25,404,0,1144,1145,0,0,1174,1175,0,1174,1175,0,0,0,1144,1145,0,1099,861,0,0,0,861,0,0,0,861,0,912,1013,1013,1041,1013,977,994,0,982,0,0,0,0,977,0,964,0,1099,0,1096,0,0,0,0,0,1147,0,0,0,0,1138,1139,0,1147,0,191,192,265,276,277,0,0,0,0,276,277,264,265,192,300,1147,797,0,0,0,0,0,0,1147,44,48,48,
0,0,0,0,0,28,408,0,0,1147,909,909,907,1147,0,0,1147,909,909,909,909,1147,0,1099,0,0,0,0,0,0,0,0,1096,0,964,873,0,0,0,973,969,990,965,0,911,911,0,973,969,912,0,861,861,861,0,0,0,0,0,1147,1146,1146,1146,1146,1146,1141,1146,1148,0,199,200,280,0,0,0,0,0,0,0,0,0,280,200,756,1147,679,0,0,0,0,0,0,1147,1146,1146,44,
0,0,0,0,25,399,400,0,761,1147,1146,1146,1146,1148,0,0,1147,1146,1146,1146,1146,1148,0,1099,0,0,0,0,861,0,0,0,861,0,912,0,0,0,0,0,0,0,0,0,906,906,0,0,0,912,0,861,861,861,0,0,0,0,0,0,0,0,0,0,0,0,0,0,0,183,184,0,0,0,0,0,0,0,0,0,0,183,184,308,1147,245,0,0,0,0,0,0,0,0,1147,44,
0,0,0,0,25,403,828,291,0,1147,0,0,0,0,0,0,0,0,0,0,0,1147,0,1099,861,0,0,0,0,0,0,0,1096,0,912,873,0,0,0,0,0,0,0,0,1013,1013,1013,1013,876,912,0,861,861,861,0,0,0,0,0,0,0,0,0,0,1138,1139,0,0,0,191,192,282,0,0,0,0,0,0,0,0,281,191,192,756,1147,0,0,0,0,0,0,0,0,0,1147,44,
0,0,0,0,25,407,828,0,0,1147,0,0,0,0,0,0,0,0,0,0,0,1147,0,1099,0,0,0,0,861,0,0,0,1096,1077,912,0,0,0,0,0,0,0,0,0,1013,1013,1013,1013,0,912,1077,1099,0,1096,0,0,0,0,0,0,0,1149,1146,1146,1146,1141,1146,1146,1146,1146,200,284,0,0,0,0,0,0,0,0,283,284,200,287,1145,0,0,0,0,0,0,0,0,0,1147,44,
0,0,0,0,0,26,400,356,743,1152,0,1147,720,0,0,0,0,0,0,0,743,1152,0,1099,861,0,1149,1146,1146,1146,1146,0,861,0,964,873,0,0,0,0,0,0,1059,911,1007,738,738,1006,875,913,0,1099,861,1096,0,0,0,0,0,0,0,1147,0,0,0,0,0,0,0,1147,184,261,0,0,0,0,0,0,0,0,260,261,184,354,1147,0,0,0,0,0,0,0,0,0,1147,44,
0,0,0,0,28,403,363,0,743,1158,0,0,0,0,0,0,0,0,0,0,743,1158,0,1099,0,0,1147,0,0,0,1147,0,1096,0,912,0,0,1033,1037,1013,1013,0,964,1046,1081,1081,1081,1081,1046,1045,0,1099,0,1096,0,0,0,0,0,0,0,1147,0,0,0,0,0,0,0,1147,192,265,0,0,0,0,0,0,0,0,264,265,192,0,1147,0,0,0,0,0,0,0,0,0,1147,44,
26,26,26,28,406,825,0,0,0,1147,0,0,0,0,1168,1169,0,0,0,0,0,1147,0,1099,0,0,1147,0,245,245,1147,0,1096,0,912,0,0,1013,1013,1013,1013,0,912,1045,1081,1081,1081,1081,0,1046,0,1099,0,1096,0,0,0,0,0,0,1172,1147,0,0,0,1146,0,0,0,1147,200,280,0,0,0,0,0,0,0,0,0,280,200,291,1147,1146,1146,1146,1146,1146,1146,1146,1146,1146,1148,44,
386,387,388,385,398,0,0,290,0,1147,1146,1146,1146,1146,1146,1171,1146,1146,1146,1146,1146,1148,0,1099,861,0,1147,0,0,0,1147,0,861,0,912,911,875,1007,738,738,1006,875,913,0,0,0,0,0,0,0,0,1099,861,1096,0,0,0,0,0,0,1174,1175,0,0,0,245,0,0,0,1147,184,0,274,275,0,0,0,0,274,275,0,183,184,52,48,48,48,48,48,48,48,48,48,48,48,56,
794,816,0,815,794,794,816,0,0,1147,0,0,0,0,0,0,0,0,0,0,0,1147,0,1099,0,0,1147,1160,1161,1165,1147,0,1096,0,1073,1046,1046,1081,1081,1081,1081,0,0,0,0,0,0,0,0,0,0,1099,0,1096,0,0,0,0,0,0,1142,1147,0,0,0,0,0,0,0,1147,192,279,276,277,0,0,0,0,276,277,0,191,192,44,758,0,0,0,0,0,0,300,0,290,754,322,
1146,1146,1146,1146,1146,1146,1146,1146,794,1147,0,0,0,0,0,0,0,0,0,0,1142,1147,0,1099,0,0,1147,1159,1163,1167,1148,0,1096,0,0,1046,1045,1081,1081,1081,1081,0,0,0,0,0,0,0,0,0,0,1099,0,1096,0,0,0,0,0,0,1144,1145,0,0,0,0,0,0,0,1147,200,280,281,282,0,0,0,0,281,282,274,280,200,44,760,0,292,758,0,294,0,287,0,755,756,761,
0,0,0,0,0,0,0,1147,752,1145,0,0,0,0,0,0,0,0,0,0,1144,1145,0,1099,0,0,0,0,0,0,0,0,1096,1077,0,0,0,0,0,0,0,0,0,0,0,0,0,0,0,0,1077,1099,0,1096,0,0,0,0,0,0,0,1147,1146,1146,1146,1146,1146,1146,1146,1148,184,277,283,284,146,142,146,142,283,284,276,277,184,44,756,761,759,760,0,291,0,0,0,290,0,0,
0,0,0,0,0,0,0,1147,0,1147,0,0,0,0,0,0,0,0,0,0,0,1147,0,1099,0,0,0,0,0,0,0,0,1097,1104,1105,1104,1105,1104,860,860,860,1104,1105,1104,1105,1104,1105,1104,1105,1104,1105,1100,0,1096,0,0,0,0,0,0,0,0,0,0,1149,1146,1146,1146,1146,1146,192,144,148,144,148,144,148,144,148,144,148,144,168,44,0,0,659,611,611,611,611,611,611,611,611,611,
0,0,0,0,0,0,0,1147,861,1147,0,0,0,0,0,0,0,0,0,0,1142,1147,0,1099,856,0,0,0,860,0,0,0,859,0,0,19,860,0,860,860,860,0,860,0,0,860,0,860,0,0,0,0,857,1096,0,0,0,0,0,0,0,0,0,1172,1147,0,0,0,0,1147,1146,1146,1146,52,48,48,48,48,48,48,48,48,48,56,0,0,610,0,0,0,0,0,0,0,0,0,
0,0,0,0,0,0,0,1147,1144,1145,0,0,0,0,0,0,0,0,0,0,1144,1145,0,1099,0,1095,1101,1101,1101,1101,1101,1101,1101,1101,1101,1101,1101,1101,860,860,860,1101,1101,1101,1101,1101,1101,1101,1101,1101,1101,0,0,1096,0,0,0,0,0,0,0,0,0,1174,1175,0,0,0,0,0,0,0,1147,44,760,756,761,761,756,756,756,0,753,754,0,0,610,0,0,0,0,0,0,0,0,0,
0,0,0,0,0,0,0,1147,0,1147,0,1138,1139,0,0,0,0,1138,1139,0,0,1147,0,1099,0,1096,1077,0,0,0,0,0,0,0,0,0,0,0,0,0,0,0,0,0,0,0,0,0,0,0,1096,0,0,1096,0,0,0,0,0,0,0,0,0,1144,1145,0,0,0,0,0,0,0,1147,44,756,756,760,0,0,291,760,761,761,756,793,0,610,0,0,0,0,0,0,0,0,0,
0,0,0,0,0,0,0,1147,861,1147,1146,1146,1141,1146,1146,1146,1146,1146,1141,1146,1146,1148,0,1099,0,1096,0,0,1149,1146,1146,0,0,0,0,0,0,0,0,0,0,0,0,0,0,0,0,0,0,0,1096,0,0,1096,0,0,0,0,0,0,0,0,0,0,1147,0,0,0,0,0,0,0,1147,44,0,290,760,754,659,611,611,611,611,647,0,0,610,0,0,0,0,0,0,0,0,0,
0,0,1168,1169,0,0,0,1147,0,0,350,316,0,287,756,298,316,349,756,298,312,1099,0,1099,0,861,0,0,1147,1148,1148,0,0,0,0,0,0,0,0,0,0,0,0,0,0,0,0,0,0,0,1096,0,0,1096,0,1149,1146,1146,1146,1146,1146,1146,0,1142,1147,0,0,0,0,0,0,0,1147,44,754,755,756,756,610,0,0,0,0,621,647,761,610,0,0,0,0,0,0,0,0,0,
1146,1146,1146,1171,1146,1146,1146,1148,861,0,1105,1104,1105,1104,1105,1104,1105,1104,1105,1104,1105,1100,0,1099,0,1096,0,0,0,0,0,0,0,0,0,0,0,737,737,737,737,0,0,0,0,0,0,0,0,0,1096,0,861,1096,0,1147,0,0,874,0,743,744,0,1144,1145,0,0,0,0,0,0,0,1147,44,756,761,756,0,639,613,0,0,0,0,621,611,625,0,0,0,0,0,0,0,0,0,
0,0,0,0,0,0,0,1077,0,0,0,0,0,0,0,0,0,0,0,0,0,0,1077,1099,0,1096,0,0,0,1149,1146,1146,1146,1146,1146,1146,1146,1159,1167,1159,1167,1146,1146,1146,1146,1146,1146,1146,1146,0,1096,0,0,1096,0,1147,0,0,874,0,743,744,0,0,1147,0,0,0,0,0,0,0,1147,44,761,659,611,647,659,625,0,0,0,0,0,0,0,0,0,0,0,0,0,0,0,0,
1103,1102,1103,1102,1103,1102,1103,1102,1103,1102,1103,1102,1103,1102,860,860,860,1102,1103,1102,1103,1102,1103,1100,0,1096,0,0,0,1147,0,0,0,0,0,1147,0,0,0,0,0,0,1147,0,0,0,0,0,1147,0,1096,0,0,1096,915,1147,0,0,874,737,743,744,0,0,1147,0,0,0,0,0,0,0,1147,44,756,610,0,621,625,0,0,0,0,0,0,0,0,0,0,0,0,0,0,0,0,0,
860,0,0,0,0,860,0,0,0,0,860,0,0,0,860,860,860,0,0,0,858,0,0,0,0,862,0,0,0,1147,0,0,0,0,0,1147,0,0,0,0,0,0,1147,245,0,0,0,0,1147,0,1096,0,0,1096,831,831,911,911,911,911,911,911,911,0,1147,0,0,0,0,0,0,0,1147,44,760,610,0,0,0,0,0,0,0,0,0,0,0,0,0,0,0,0,0,0,0,0,
1101,1101,1101,1101,1101,1101,1101,1101,1101,1101,1101,1101,1101,1101,860,860,860,1101,1101,1098,0,1095,1101,1101,1101,1101,0,0,0,1147,245,0,0,0,1172,1147,0,0,0,0,0,1172,1147,0,0,0,0,0,1147,0,1096,0,0,761,831,1060,1066,0,1053,1054,0,0,912,49,1147,1146,1146,1146,1146,1146,1146,1146,1148,44,761,610,0,0,0,0,0,0,0,0,0,0,0,0,0,0,0,0,0,0,0,0,
0,0,0,0,0,0,0,1077,0,0,0,0,0,0,0,0,0,0,1077,1099,0,1096,0,0,0,0,0,0,0,1147,0,0,0,0,1174,1175,0,0,0,0,0,1174,1175,0,0,0,0,0,1147,0,1096,0,861,1096,912,1055,0,0,1049,1050,0,0,912,51,52,48,48,48,48,48,48,48,48,56,761,610,0,0,0,0,0,0,0,0,0,0,0,0,0,0,0,0,0,0,0,0
</data>
 </layer>
 <layer id="3" name="Collision" width="96" height="96">
  <data encoding="csv">
0,0,0,0,0,0,0,0,1,0,0,0,0,0,0,0,0,0,0,0,0,0,0,0,1,0,0,0,0,0,0,0,0,1,0,0,0,0,0,0,1,0,0,0,0,1,0,0,1,0,0,0,0,0,0,0,1,0,0,0,0,0,0,1,0,0,0,0,0,0,0,0,0,0,0,0,0,0,0,0,0,0,0,0,0,0,0,0,0,0,0,0,0,0,0,0,
0,0,0,0,0,1,0,0,1,0,0,0,0,0,0,0,0,0,0,0,0,0,0,0,0,0,0,0,0,0,0,0,0,0,0,0,0,0,0,0,0,0,0,0,1,0,0,0,0,0,0,0,0,0,0,0,0,1,0,0,0,0,0,0,0,0,0,0,0,0,0,0,0,0,0,0,0,0,0,0,0,0,0,0,0,0,0,0,0,0,0,0,0,0,0,0,
0,0,0,0,0,0,0,0,1,1,1,1,1,1,1,1,1,1,1,1,1,1,1,1,1,0,0,0,0,0,0,0,0,0,0,0,0,0,0,0,1,0,1,0,0,0,1,0,0,0,0,0,0,0,0,0,0,0,0,1,0,0,0,0,0,1,0,0,0,0,0,0,0,0,0,0,0,0,1,0,0,0,1,0,1,0,0,0,0,0,0,0,0,0,0,0,
0,0,0,0,0,0,0,0,0,0,0,0,0,0,0,0,0,0,0,0,0,0,0,0,1,0,0,0,0,0,0,0,0,0,0,0,0,0,0,0,0,0,0,0,0,0,1,0,0,0,0,0,0,0,0,0,0,0,0,0,0,1,0,0,0,0,1,0,0,0,0,1,0,0,0,0,0,0,0,0,0,0,0,0,0,0,0,0,0,0,0,0,0,0,0,0,
0,0,0,0,0,0,0,0,0,1,0,0,0,1,0,0,0,0,0,0,0,0,0,0,0,0,1,1,1,0,0,1,0,0,0,0,0,0,0,0,0,0,0,0,0,1,1,0,0,0,0,0,0,0,0,0,0,0,0,0,0,0,0,0,0,0,0,0,0,0,0,0,0,0,0,0,0,0,1,1,0,0,0,0,0,0,0,0,0,0,0,0,0,1,0,0,
0,0,0,0,0,1,0,0,0,0,1,1,0,0,0,0,0,0,0,0,0,0,0,0,0,0,1,0,0,0,0,0,0,0,0,0,0,0,0,0,0,1,1,0,0,1,0,0,1,0,0,0,0,0,0,0,0,0,0,1,0,0,0,0,1,0,0,0,0,0,1,0,0,0,0,0,0,0,0,0,0,0,0,0,0,1,0,0,0,1,0,0,0,0,0,0,
0,0,0,0,0,0,0,0,0,0,0,0,0,0,0,0,0,1,0,1,0,0,0,0,0,0,0,0,1,0,1,0,0,0,1,0,0,0,0,0,0,0,0,0,0,0,0,0,0,0,0,0,0,0,0,0,0,0,0,0,0,0,1,0,0,0,0,0,0,1,0,0,0,0,1,0,1,0,1,0,0,0,0,0,0,0,0,1,0,0,0,0,0,0,0,0,
0,0,0,0,0,0,0,0,0,0,0,0,0,0,0,0,0,0,0,0,0,0,0,0,0,0,0,0,0,0,0,0,0,0,0,0,0,0,0,0,0,1,0,0,0,0,1,0,0,0,0,0,0,0,0,0,0,0,0,1,0,0,0,0,0,0,0,0,0,0,0,0,0,0,0,0,0,0,0,0,0,0,0,0,0,0,0,0,0,0,0,0,0,0,0,0,
0,0,0,0,0,1,0,0,0,0,0,0,0,0,0,0,0,0,0,0,0,0,0,0,0,0,0,0,0,0,0,0,0,0,0,0,0,0,0,0,0,0,0,1,0,1,0,0,0,0,0,0,0,0,0,0,0,0,0,0,0,0,0,0,1,0,0,0,0,0,0,0,0,0,0,0,0,0,0,0,0,0,0,0,0,0,0,0,1,0,0,0,0,0,1,0,
0,0,0,0,0,1,0,0,0,0,0,0,0,0,0,0,0,0,0,0,0,0,0,0,0,0,0,0,0,0,0,0,0,0,0,0,0,0,0,0,0,0,1,0,0,0,0,0,0,0,0,0,0,0,0,0,0,0,0,0,0,0,0,0,0,0,0,0,0,0,0,0,0,0,0,0,0,0,0,0,0,0,0,0,0,0,0,0,0,0,0,0,0,0,0,0,
0,0,0,0,0,1,0,0,0,0,0,0,0,0,0,0,0,0,0,0,0,0,0,0,0,0,0,0,0,0,0,0,0,0,0,0,0,0,0,0,1,0,0,0,0,0,0,0,0,0,0,0,0,0,0,0,0,0,0,0,0,0,0,0,1,0,0,0,0,0,0,0,0,0,0,0,0,0,0,0,0,0,0,0,0,0,0,0,0,0,0,0,0,0,0,0,
0,0,0,0,0,0,0,0,0,0,0,0,0,0,0,0,0,0,0,0,0,0,0,0,0,0,0,0,0,0,0,0,0,0,0,0,0,0,0,0,0,0,0,0,0,0,0,0,1,0,0,0,0,0,0,0,0,0,0,0,0,0,0,0,0,0,0,0,0,0,0,0,0,0,0,0,0,0,0,0,0,0,0,0,0,0,0,0,0,0,0,0,0,0,0,0,
0,0,0,0,0,0,0,0,0,0,0,0,0,0,0,0,0,0,0,0,0,0,0,0,0,0,0,0,0,1,0,1,0,0,1,1,0,0,0,0,0,0,0,1,0,0,0,0,0,0,0,0,0,0,0,0,0,0,0,0,0,0,0,0,0,0,0,0,0,0,0,0,0,0,0,0,0,0,0,0,0,0,0,0,0,0,0,0,0,0,0,0,0,0,0,0,
0,0,0,0,0,0,0,0,0,0,0,0,0,0,0,0,0,0,0,0,0,0,0,0,0,0,0,0,0,0,0,0,0,0,0,0,0,0,0,0,0,0,0,0,0,0,0,0,0,0,0,0,0,0,0,0,0,0,0,0,0,0,0,0,0,0,0,0,0,0,0,0,0,0,0,0,0,0,0,0,0,0,0,0,0,0,0,0,0,1,0,0,0,0,0,0,
0,0,0,0,0,0,0,0,0,0,0,0,0,0,0,0,0,0,0,0,0,0,0,0,0,0,0,0,0,0,0,0,0,0,0,0,0,0,0,0,0,0,0,0,0,0,0,1,0,0,0,0,0,0,0,0,0,0,0,0,0,0,0,0,0,0,0,0,0,0,0,0,0,0,0,0,0,0,0,0,0,0,0,0,0,0,0,0,0,0,0,0,0,0,0,0,
0,0,0,0,0,0,0,0,0,0,0,0,0,0,0,0,0,1,0,0,0,0,0,0,0,0,0,0,0,0,0,0,0,0,0,0,0,0,0,0,0,0,0,0,0,1,0,0,0,0,0,0,0,0,0,0,1,0,0,1,0,0,0,0,0,0,0,0,0,0,0,0,0,0,0,0,1,0,0,0,0,0,0,0,0,0,0,0,0,0,0,0,0,0,0,0,
0,0,0,0,0,0,0,0,0,0,0,0,0,0,0,0,0,0,0,0,0,0,0,0,0,0,0,0,0,1,0,0,0,0,0,0,0,0,0,0,0,0,0,0,0,0,0,0,0,0,0,0,0,0,0,0,0,0,0,0,0,0,0,0,0,0,0,0,0,0,0,0,0,0,0,0,0,0,0,0,0,0,0,0,0,0,0,0,0,0,0,0,0,0,0,0,
0,0,0,0,0,0,0,0,0,0,0,0,0,0,0,0,0,0,0,0,0,0,0,0,0,0,0,0,0,0,0,0,0,0,0,0,0,0,0,0,0,0,0,0,0,0,0,0,1,0,0,0,0,0,0,0,0,0,0,1,0,0,0,0,0,0,0,0,0,0,0,0,0,0,0,0,0,0,0,0,0,0,0,0,0,0,0,0,1,0,0,0,0,0,0,0,
0,0,0,0,0,1,0,0,0,0,0,0,0,0,1,0,0,0,0,0,0,0,0,0,0,0,0,0,0,0,0,0,0,0,0,0,0,0,0,0,0,0,0,1,0,1,0,0,0,0,0,0,0,0,0,0,0,0,0,0,0,1,0,0,1,0,0,0,0,0,0,0,0,1,0,0,0,0,0,0,0,0,0,0,0,0,0,0,0,0,0,0,0,0,0,0,
1,0,0,0,0,0,0,0,0,0,0,0,0,0,0,0,0,0,0,0,0,0,0,0,0,0,0,0,0,0,0,0,0,0,0,0,0,0,0,0,0,0,0,0,0,0,0,0,0,0,0,0,0,0,0,0,0,0,0,0,0,0,0,0,0,0,0,0,0,0,0,0,0,0,0,0,0,0,0,0,0,0,0,0,0,0,0,0,0,0,0,0,1,0,0,0,
0,0,0,0,0,0,0,0,0,0,0,0,0,0,0,0,0,0,0,0,0,0,0,0,0,0,0,0,0,0,0,0,0,0,0,0,0,0,0,0,0,0,0,0,0,0,1,0,0,0,0,0,0,0,0,0,0,0,1,0,0,0,0,0,0,0,0,0,0,0,0,0,0,0,0,0,0,0,0,0,0,0,0,0,0,0,0,0,0,0,0,0,0,0,0,1,
0,0,0,0,0,1,0,0,0,0,0,0,0,0,0,0,0,0,0,0,0,0,0,0,0,0,0,0,0,0,0,0,0,0,0,0,0,0,0,0,0,1,0,0,0,0,0,0,0,0,0,0,0,0,0,0,0,0,0,0,0,1,0,0,1,0,0,0,0,0,0,0,0,0,0,0,0,0,0,0,0,0,0,0,0,0,0,0,0,0,0,0,0,0,0,0,
0,0,0,0,0,0,0,0,0,0,0,0,0,0,0,0,0,0,0,0,0,0,0,0,0,0,0,0,0,0,0,0,0,0,0,0,0,0,0,0,0,0,0,0,0,0,0,0,0,0,0,0,0,0,0,0,1,0,0,0,0,0,0,0,0,0,0,0,0,0,0,0,0,0,0,0,0,0,0,0,0,0,0,0,0,0,0,0,0,0,0,0,0,0,0,0,
0,0,0,0,0,0,0,0,0,0,0,0,0,0,0,0,0,0,0,0,0,0,0,0,0,0,1,1,0,0,0,0,0,0,0,0,0,1,0,0,0,0,0,0,0,0,0,0,0,0,0,0,0,0,0,0,0,0,0,0,0,0,0,0,0,0,0,0,0,0,0,0,0,0,0,0,0,0,0,0,0,0,0,0,0,1,1,0,0,0,0,0,0,0,0,0,
0,0,0,0,0,1,0,0,0,0,0,0,1,0,0,0,0,0,0,0,0,0,0,0,0,0,1,1,0,0,0,0,0,0,0,0,0,0,0,1,0,0,0,0,0,0,0,0,0,0,0,0,0,0,0,0,0,0,0,0,0,0,0,0,1,0,0,0,0,0,0,1,0,0,0,0,0,0,0,0,0,0,0,0,0,1,1,0,0,0,0,0,0,0,0,0,
0,0,0,0,0,0,0,0,0,0,0,0,0,0,0,0,0,0,0,0,0,1,0,0,0,0,0,0,0,0,0,0,0,0,0,0,0,0,0,0,1,0,0,0,0,0,0,0,1,0,0,0,0,0,0,0,0,1,0,0,0,0,0,0,0,0,0,0,0,0,0,0,0,0,0,0,0,0,0,0,1,0,0,0,0,0,0,0,0,0,0,0,0,0,0,0,
0,0,0,0,0,0,0,0,0,0,0,0,1,0,0,0,0,0,0,0,0,0,0,0,0,0,0,0,0,0,0,0,0,0,0,0,0,0,0,0,0,0,0,0,0,0,0,0,0,0,0,0,0,0,0,0,0,0,0,0,0,0,0,0,0,0,0,0,0,0,0,1,0,0,0,0,0,0,0,0,0,0,0,0,0,0,0,0,0,0,0,0,0,0,0,1,
0,0,0,0,0,0,0,0,0,0,0,0,0,0,0,0,0,0,0,0,0,0,0,0,0,0,0,0,0,0,0,0,0,0,0,0,0,0,0,0,0,0,0,0,0,0,0,0,0,0,0,0,0,0,0,0,0,0,0,0,0,0,0,0,0,0,0,0,0,0,0,0,0,0,1,0,0,0,0,0,0,0,0,0,1,0,0,1,0,0,0,0,0,0,0,0,
0,1,0,0,0,0,0,0,0,0,0,0,0,0,0,0,0,0,0,0,0,1,0,0,0,0,0,0,0,0,0,0,0,0,0,0,0,0,0,0,0,0,0,0,0,0,0,0,0,0,0,0,0,0,0,0,0,0,0,0,0,0,0,0,0,1,0,0,0,0,0,1,0,0,0,0,0,0,0,1,0,0,0,0,0,0,0,0,0,0,0,0,0,0,0,0,
0,0,0,0,0,0,0,0,0,0,0,0,0,0,1,0,0,0,0,0,0,0,0,0,0,0,0,0,0,0,0,0,0,0,0,0,0,0,0,0,0,0,0,0,0,0,0,0,1,0,0,0,0,0,0,0,0,0,1,1,0,0,0,0,0,0,0,0,0,0,0,1,0,0,0,0,0,0,1,0,0,0,0,0,0,0,1,0,0,0,0,0,0,1,0,0,
0,0,1,0,0,0,0,0,0,0,0,0,0,0,0,0,0,0,0,0,0,1,0,0,0,0,1,0,0,0,0,0,0,0,0,0,1,0,1,0,0,0,0,0,0,1,0,0,0,0,0,0,0,0,0,0,0,0,0,1,0,0,1,0,0,0,0,0,0,0,0,0,0,0,1,0,0,0,0,0,0,0,0,0,0,0,0,0,0,0,1,0,0,0,0,0,
0,0,0,0,0,0,0,0,0,0,0,0,0,0,0,0,0,0,0,0,0,1,0,0,0,0,0,0,0,0,0,0,0,0,0,0,0,0,0,0,0,0,0,0,0,0,0,0,0,0,0,0,0,0,0,0,0,0,0,0,0,0,0,0,0,0,0,0,0,0,0,0,0,0,0,0,0,0,0,0,0,0,0,0,0,0,0,0,0,0,0,1,0,0,0,0,
0,0,0,0,0,0,0,0,0,0,0,0,0,0,0,0,0,0,0,0,1,0,0,0,0,0,0,0,0,0,1,0,0,0,0,0,0,0,0,0,1,0,0,0,0,0,0,0,0,0,0,0,0,0,0,0,0,0,0,0,0,0,0,0,0,0,0,1,1,0,0,0,0,0,0,0,0,0,0,0,0,1,0,0,0,0,1,0,0,1,0,0,0,0,0,0,
0,0,0,0,0,0,0,0,0,0,0,0,0,0,0,0,0,0,0,0,0,0,0,0,0,0,0,0,0,0,1,0,0,0,0,0,0,0,0,0,1,0,0,0,0,0,0,0,1,0,0,0,0,0,0,0,0,0,0,0,0,0,0,0,0,0,0,0,0,0,0,0,0,0,0,0,0,0,0,0,0,0,0,0,0,0,0,0,0,0,0,0,0,0,0,0,
0,0,0,0,0,0,0,0,0,0,0,0,0,0,0,0,0,0,0,0,0,0,0,0,0,0,0,0,0,0,0,0,0,0,0,0,1,0,0,0,0,0,0,0,0,0,0,0,0,0,0,0,0,0,0,0,0,0,0,0,0,1,0,0,0,0,0,0,0,0,0,0,0,0,0,0,0,0,1,0,0,0,0,1,0,0,0,0,0,0,0,0,0,1,0,0,
0,0,0,0,0,0,0,0,0,0,0,0,0,0,0,0,0,0,0,0,0,0,0,0,0,1,0,0,0,0,0,0,1,0,0,0,1,0,0,0,0,0,0,0,0,0,0,0,0,0,0,0,0,0,0,0,0,0,0,0,0,0,0,0,0,0,0,0,0,0,0,0,0,0,0,0,0,0,0,0,0,0,0,0,0,0,0,0,0,0,0,1,0,0,0,0,
0,0,0,0,0,0,0,0,0,0,0,0,0,0,0,0,0,0,0,0,0,0,0,0,0,1,0,0,0,0,1,1,0,0,0,0,0,0,0,0,0,0,0,0,0,0,0,0,0,0,0,0,0,0,0,0,0,0,0,0,0,1,1,0,0,0,0,0,0,1,1,1,1,1,1,1,1,1,1,1,1,1,1,1,1,1,1,1,1,1,1,1,1,1,1,0,
0,0,0,0,0,0,0,0,0,0,0,0,0,0,0,0,0,0,0,0,0,0,0,1,1,1,0,0,0,0,0,0,0,0,0,0,0,0,0,0,0,0,0,0,0,0,0,0,0,0,0,0,0,0,0,0,0,0,1,0,0,1,0,0,0,0,0,0,0,1,0,0,0,0,0,0,0,0,0,0,0,0,0,0,0,0,0,0,0,0,0,0,0,0,1,0,
0,0,0,0,0,0,0,0,0,0,0,0,0,0,0,0,0,0,0,0,0,0,0,0,0,1,0,0,0,0,0,0,0,0,0,0,0,0,0,0,0,0,0,0,0,0,0,0,0,0,0,0,0,0,0,0,0,0,0,0,0,0,1,0,0,0,0,0,0,1,0,0,0,0,0,0,0,0,0,0,0,0,0,0,0,0,0,0,0,0,0,0,0,0,1,0,
0,0,0,0,0,0,0,0,0,0,0,0,0,0,0,0,0,0,0,0,0,1,0,0,0,0,0,0,0,0,0,0,0,0,0,1,0,0,0,0,0,0,0,1,0,0,0,0,0,0,0,0,0,0,0,0,0,0,0,0,0,0,0,0,0,0,0,0,1,1,0,0,0,0,0,0,0,0,0,0,0,0,0,0,0,0,0,0,0,0,0,0,0,0,1,0,
0,0,0,0,0,0,0,0,0,0,0,0,0,0,0,0,0,0,0,0,0,0,0,0,0,0,0,0,0,0,0,1,0,0,0,0,0,0,0,0,0,0,0,1,1,1,1,1,1,1,1,0,0,0,1,1,1,1,1,1,1,0,0,0,0,0,0,0,0,1,0,0,0,0,0,0,0,0,0,0,0,0,0,0,0,0,0,0,0,0,0,0,0,0,1,0,
0,0,0,0,0,0,0,0,0,0,0,0,0,0,0,0,0,0,0,1,0,0,0,0,0,0,0,0,0,0,0,0,1,0,0,1,0,0,0,0,0,0,0,1,0,0,0,0,0,0,0,0,0,0,0,0,0,0,0,0,1,0,0,0,0,0,0,0,0,1,0,0,0,0,0,0,0,0,0,0,0,0,0,0,0,0,0,0,0,0,0,0,0,0,1,0,
0,0,0,0,0,0,0,0,0,1,0,0,0,0,0,1,0,0,0,0,0,0,0,0,0,0,0,0,0,0,1,0,0,0,0,0,0,0,0,1,1,1,1,1,0,0,0,0,0,0,0,0,0,0,0,0,0,0,0,0,1,1,1,1,1,1,1,1,1,1,0,0,0,0,0,0,0,0,0,0,0,0,0,0,0,0,0,0,0,0,0,0,0,0,1,0,
0,0,0,0,0,0,1,0,0,0,0,0,0,0,0,0,0,1,0,0,0,0,1,1,1,0,0,0,0,0,0,0,0,0,1,0,0,0,0,1,0,0,0,1,0,0,0,0,0,0,0,0,0,0,0,0,0,0,0,0,1,0,0,0,0,0,0,0,0,0,0,0,0,0,0,0,0,0,0,0,0,0,0,0,0,0,0,0,0,0,0,0,0,0,1,0,
0,0,0,0,0,0,0,0,0,0,0,0,0,0,0,0,0,0,0,0,0,0,0,0,0,0,0,0,0,0,0,0,0,0,0,0,1,0,0,1,0,0,0,1,1,1,1,1,1,1,1,1,1,1,1,1,1,1,1,1,1,0,0,0,0,0,0,0,0,0,0,0,0,0,0,0,0,0,0,0,0,0,0,0,0,0,0,0,0,0,0,0,0,0,1,0,
0,0,1,0,0,0,0,0,1,0,0,0,0,0,0,0,0,0,0,1,1,0,0,0,0,1,0,0,0,1,0,0,0,0,0,0,0,0,0,1,0,0,0,0,0,0,0,0,0,0,0,0,0,0,0,0,0,0,0,0,0,0,0,0,0,0,0,0,0,0,0,0,0,0,1,0,0,0,0,0,0,0,0,1,0,0,0,0,0,0,1,0,0,0,1,0,
0,0,0,0,0,1,0,0,1,0,0,0,0,0,0,0,1,0,0,0,1,0,0,0,0,1,0,0,0,0,1,0,0,0,0,0,0,0,0,1,0,0,0,0,0,0,0,0,0,0,0,0,0,0,0,0,0,0,0,0,0,0,0,0,0,0,0,0,0,0,0,1,0,0,0,0,0,0,0,0,0,0,0,0,0,0,0,0,0,0,0,0,0,0,1,0,
0,0,1,0,0,0,0,0,0,1,0,0,0,0,0,0,0,0,0,0,0,0,1,0,0,0,0,0,0,0,0,0,0,0,0,0,0,0,0,1,0,0,0,0,0,0,0,0,0,0,0,0,0,0,0,0,0,0,0,0,0,0,0,0,0,0,0,0,0,0,0,0,0,0,0,0,0,0,0,0,0,0,0,0,0,0,0,0,0,0,0,0,0,0,1,0,
0,0,0,0,0,0,0,0,0,0,0,0,0,0,0,0,0,0,0,0,0,0,0,0,0,0,0,0,0,0,0,0,1,0,0,0,1,0,0,1,0,0,0,0,0,0,0,1,0,0,0,0,0,0,0,0,0,0,0,0,0,0,0,0,0,0,0,0,0,0,0,0,0,0,0,0,0,0,0,0,0,0,0,0,0,0,0,0,0,0,0,0,0,0,1,0,
0,0,0,0,0,0,1,0,0,0,0,0,0,0,0,0,0,0,0,1,0,0,0,0,0,0,0,0,0,0,0,0,0,0,0,0,0,0,0,1,0,0,0,0,0,0,0,0,0,0,0,0,0,0,0,0,0,1,0,0,0,0,0,0,0,0,0,0,0,0,0,0,0,0,0,0,0,0,0,0,0,0,0,0,0,0,0,0,0,0,0,0,0,0,1,0,
0,0,0,0,0,0,1,0,0,0,0,0,0,0,0,0,0,0,0,0,0,1,0,0,0,0,0,0,0,0,0,0,0,0,0,0,0,0,0,1,0,0,0,0,0,0,0,0,0,0,0,0,0,0,0,0,0,0,0,0,0,0,0,0,0,0,0,0,0,0,1,1,1,0,0,0,0,0,0,0,0,0,0,0,0,0,0,0,0,0,0,0,0,0,1,0,
0,0,0,0,0,0,0,0,0,0,1,0,0,0,0,0,0,1,1,1,1,1,1,1,1,1,1,1,1,1,1,1,1,1,1,1,1,1,1,1,0,0,0,0,0,0,0,0,0,0,0,0,0,0,0,0,0,0,0,0,0,0,0,0,0,0,0,0,0,0,0,0,0,0,0,0,0,0,0,0,0,0,0,0,0,0,0,0,0,0,0,0,0,0,1,0,
1,0,0,0,0,1,0,0,0,0,1,0,0,0,0,0,0,1,0,1,1,1,1,1,1,1,1,1,1,1,1,1,1,1,1,1,1,1,1,1,1,1,1,1,1,0,0,0,0,0,0,0,0,0,0,0,0,0,0,0,0,0,0,0,0,0,0,0,0,0,0,0,0,0,0,0,0,0,0,0,0,0,0,0,0,0,0,0,0,0,0,0,0,0,1,0,
0,0,0,0,1,0,0,1,0,0,0,0,0,0,0,0,1,1,1,0,0,0,0,0,0,0,0,0,0,0,0,0,0,0,0,0,0,0,0,0,0,0,0,0,0,0,0,0,0,0,0,0,0,0,0,0,0,0,0,0,0,0,0,0,0,0,0,0,0,0,0,0,0,0,0,0,0,0,0,0,0,0,0,0,0,0,0,0,0,0,0,0,0,0,1,0,
0,0,0,0,0,0,0,0,0,0,0,0,0,0,0,0,0,1,1,0,0,0,0,0,0,0,0,0,0,0,0,0,0,0,0,0,0,0,0,0,0,0,0,0,0,0,0,0,0,0,0,0,0,0,0,0,0,0,0,0,0,0,0,0,0,0,0,0,0,0,0,0,0,0,0,0,0,0,0,0,0,0,0,0,0,0,0,0,0,0,0,0,0,0,1,0,
0,1,0,0,0,0,0,0,0,1,0,0,0,0,0,0,1,1,1,0,0,0,0,0,0,0,0,0,0,0,0,0,0,0,0,0,0,0,0,0,0,0,0,0,0,0,0,0,0,0,0,0,0,0,0,0,0,0,0,0,0,0,0,0,0,0,0,0,0,0,0,0,0,0,0,0,0,0,0,0,0,0,0,0,0,0,0,0,0,0,0,0,0,1,1,1,
1,1,1,1,1,1,1,1,1,1,1,1,1,1,1,1,1,0,0,0,0,0,0,0,0,0,0,0,0,0,0,0,0,0,0,0,0,0,0,0,0,0,0,0,0,0,0,0,0,0,0,0,0,0,0,0,0,1,0,0,0,0,0,0,0,0,0,0,0,0,0,0,0,0,0,0,0,0,0,0,0,0,0,0,0,0,0,0,0,0,0,0,0,1,0,0,
0,0,1,0,0,0,0,0,0,0,0,0,0,0,0,0,0,0,0,0,0,0,0,0,0,0,0,0,0,0,0,0,0,0,0,0,0,0,0,0,0,0,0,0,0,0,0,0,0,0,0,0,0,0,0,0,0,0,0,0,0,0,0,0,0,0,0,0,0,0,0,0,0,0,0,0,0,0,0,0,0,0,0,0,0,0,0,0,0,0,0,0,0,1,0,0,
0,0,0,0,0,0,0,1,0,0,0,0,0,0,0,0,1,0,0,0,0,0,1,0,0,0,0,0,0,0,0,1,0,0,0,0,0,0,0,0,1,0,0,0,0,0,0,0,0,0,0,0,0,0,0,0,0,0,1,1,1,1,1,1,1,0,0,1,0,0,0,0,0,1,0,0,0,0,0,0,0,0,1,0,0,1,0,0,0,0,0,0,0,1,0,0,
0,0,1,0,0,0,0,0,0,0,0,0,0,0,0,0,1,0,0,0,0,0,0,0,0,0,0,0,0,0,0,0,0,0,0,0,0,0,0,0,0,0,0,0,0,0,0,0,0,0,0,0,0,0,0,0,0,0,0,0,0,0,0,0,0,0,0,0,0,0,0,0,0,0,0,0,0,0,0,0,0,0,0,0,0,0,0,0,0,0,0,0,0,1,0,0,
0,0,0,0,0,0,0,0,1,0,0,0,0,0,0,0,1,0,0,0,0,0,0,0,0,0,0,0,0,0,0,0,0,0,0,0,0,0,0,0,0,0,0,0,0,0,0,0,0,0,0,0,0,0,0,0,0,0,0,0,0,0,0,0,0,0,0,0,0,0,0,0,0,0,0,0,0,0,0,0,0,0,0,0,0,0,0,0,0,0,0,0,0,1,0,0,
0,0,0,0,0,0,0,0,0,0,0,0,0,0,0,0,1,0,0,0,0,0,0,0,0,0,0,0,0,0,0,0,0,0,0,0,0,0,0,0,0,0,0,0,0,0,0,0,0,0,0,0,0,0,0,0,0,0,0,0,0,0,0,0,0,0,0,0,0,0,0,0,0,0,0,0,0,0,0,0,0,0,0,0,0,0,0,0,0,0,0,0,0,1,0,0,
0,0,0,0,0,0,0,0,0,0,0,1,0,1,1,1,1,0,0,0,0,0,0,0,0,0,0,0,0,0,0,0,0,0,0,0,0,0,0,0,0,0,0,0,0,0,0,0,0,0,0,0,0,0,0,0,0,0,0,0,0,0,0,0,0,0,0,0,0,0,0,0,0,0,0,0,0,0,0,0,0,0,0,0,0,0,0,0,0,0,0,0,0,1,0,0,
0,0,0,0,0,0,0,0,0,0,0,0,0,0,0,0,0,0,0,0,0,0,0,0,0,0,0,0,0,0,0,0,0,0,0,0,0,0,0,0,0,0,0,0,0,0,0,0,0,0,0,0,0,0,0,0,0,0,0,0,0,0,0,0,0,0,0,0,0,0,0,0,0,0,0,0,0,0,0,0,0,0,0,0,0,0,0,0,0,0,0,0,0,0,0,0,
0,0,0,0,0,0,0,0,0,0,0,0,0,0,0,0,0,0,0,0,0,0,0,0,0,0,0,0,0,0,0,0,0,0,0,0,0,0,0,0,0,0,0,0,0,0,0,0,0,0,0,0,0,0,0,0,0,0,0,0,0,0,0,0,0,0,0,0,0,0,0,0,0,0,0,0,0,0,0,0,0,0,0,0,0,0,0,0,0,0,0,0,0,0,0,0,
0,0,0,0,0,0,0,0,0,0,0,0,0,0,0,0,0,0,0,0,0,0,0,0,0,0,0,0,0,0,0,0,0,0,0,0,0,0,0,0,0,0,0,0,0,0,0,0,0,0,0,0,0,0,0,0,0,0,0,0,0,0,0,0,0,0,0,0,0,0,0,0,0,0,1,0,0,0,1,0,0,0,0,0,0,0,0,0,0,0,0,0,0,0,0,0,
0,0,0,0,0,0,0,0,0,0,0,0,0,0,0,0,0,0,0,0,0,0,0,0,0,0,0,0,0,0,0,0,0,0,0,0,0,0,0,0,0,0,0,0,0,0,0,0,0,0,0,0,0,0,0,0,0,0,0,0,0,0,0,0,0,0,0,0,0,0,0,0,0,1,1,1,0,1,1,1,0,0,0,0,0,0,0,0,0,0,0,0,0,1,0,0,
0,0,0,0,0,0,0,0,0,0,0,0,0,0,0,0,0,0,0,0,0,0,0,0,0,0,0,0,0,0,0,0,0,0,0,0,0,0,0,0,0,0,0,0,0,0,0,0,0,0,0,0,0,0,0,0,0,0,0,0,0,0,0,0,0,0,0,0,0,0,0,0,0,1,0,0,0,0,0,1,0,0,0,0,0,0,0,0,0,0,0,0,0,1,0,0,
0,0,0,0,0,0,0,0,0,0,0,0,0,0,0,0,0,0,0,0,0,0,0,0,0,0,0,0,0,0,0,0,0,0,0,1,1,1,1,0,0,0,0,0,0,0,0,0,0,0,0,0,0,0,0,0,0,0,0,0,0,0,0,0,0,0,0,0,0,0,1,1,1,1,0,0,0,0,0,1,1,1,1,0,0,0,0,0,0,0,0,0,0,1,0,0,
0,0,0,0,0,0,0,0,0,0,0,0,0,0,0,0,0,0,0,0,0,0,0,0,0,0,0,0,0,0,0,0,0,0,0,1,1,1,1,0,0,0,0,0,0,0,0,0,0,0,0,0,0,0,0,0,0,0,0,1,0,0,0,0,0,0,0,0,0,0,1,0,0,0,0,0,0,0,0,0,0,0,1,0,0,0,0,0,0,0,0,0,0,1,0,0,
0,0,0,0,0,0,0,0,0,0,0,0,0,0,0,1,0,0,0,0,0,0,0,0,0,0,0,0,0,0,0,0,0,0,0,0,0,0,1,0,0,0,0,0,0,0,0,0,0,0,0,0,0,0,0,0,0,0,0,0,0,0,0,0,0,0,0,0,0,0,1,1,0,0,0,0,0,0,0,0,0,1,1,0,0,0,0,0,0,0,0,0,0,1,0,0,
0,0,0,0,0,0,0,0,1,0,0,0,0,0,0,0,0,0,0,0,0,0,0,0,0,0,0,0,0,0,0,0,0,0,0,0,1,1,1,0,0,0,0,0,0,0,0,0,0,0,0,0,0,0,0,0,0,0,0,0,0,0,0,0,0,0,0,0,0,0,1,0,0,0,0,0,0,0,0,0,0,0,1,0,0,0,0,0,1,0,0,0,0,1,0,0,
0,0,0,0,0,0,0,0,0,0,0,0,0,1,0,0,1,0,0,0,0,0,0,0,0,0,0,0,0,0,0,0,0,0,0,1,1,1,1,0,0,0,0,0,0,0,0,0,0,0,0,0,0,0,0,0,0,0,0,0,0,0,0,0,0,0,0,0,0,0,1,0,0,0,0,0,0,0,0,0,0,0,1,1,0,0,0,0,0,0,0,0,0,1,1,1,
0,0,0,0,0,0,0,0,0,0,0,0,0,0,0,0,0,0,0,0,0,1,0,0,0,0,0,0,0,0,0,0,0,0,0,0,0,0,0,0,0,0,0,0,0,0,0,0,0,0,0,0,0,0,0,0,0,0,0,0,0,0,0,0,0,0,0,0,0,0,1,1,0,0,0,0,0,0,0,0,0,1,1,0,0,0,0,0,0,0,0,0,0,0,0,1,
0,0,0,0,0,0,0,0,0,0,0,0,0,0,0,0,0,0,0,0,0,0,0,0,0,0,0,0,0,0,0,0,0,0,0,0,0,0,0,0,0,0,0,0,0,0,0,0,0,0,0,0,0,0,0,0,0,0,0,0,0,0,0,0,0,0,0,0,0,0,1,0,0,0,0,0,0,0,0,0,0,0,1,0,0,0,0,0,0,0,0,0,0,0,0,1,
0,0,0,0,0,0,0,1,0,0,0,0,0,0,0,0,0,0,0,0,0,0,0,0,0,0,0,0,0,0,0,0,0,0,0,0,0,0,0,0,0,0,0,0,1,1,1,1,0,0,0,0,0,0,0,0,0,0,0,0,0,0,0,0,0,0,0,0,0,0,1,0,0,0,0,0,0,0,0,0,0,0,1,0,0,0,0,0,0,0,0,0,0,0,0,1,
0,0,0,0,0,0,0,0,0,0,0,0,0,0,0,0,0,0,0,0,0,0,0,0,0,0,0,0,0,0,0,0,0,0,0,0,0,0,0,0,0,0,0,0,1,1,1,1,0,0,0,0,0,0,0,0,0,0,0,0,0,0,0,0,0,0,0,0,0,0,1,1,0,0,0,0,0,0,0,0,0,1,1,1,0,0,0,0,0,0,0,0,0,0,0,1,
0,0,0,0,0,0,0,0,0,0,0,0,0,0,0,0,0,0,0,0,0,0,0,0,0,0,0,0,0,0,0,0,0,0,0,0,0,0,0,0,0,0,0,0,0,0,0,1,0,0,0,0,0,0,0,0,0,0,0,0,0,0,0,0,0,0,0,0,0,0,1,0,0,0,0,0,0,0,0,0,0,0,1,0,0,0,0,0,0,0,0,0,0,0,0,1,
0,0,0,0,0,0,0,0,0,0,0,0,0,0,0,0,0,0,0,0,0,0,0,0,0,0,1,0,0,0,1,0,0,0,0,0,0,1,1,1,1,0,0,0,1,1,1,1,0,0,0,0,0,0,0,0,0,0,0,0,0,0,0,0,0,0,0,0,0,0,1,0,0,0,0,0,0,0,0,0,0,0,1,0,0,0,0,0,0,0,0,0,0,0,0,1,
0,0,0,0,0,0,0,0,0,0,0,0,0,0,0,0,0,0,0,0,0,0,0,0,0,0,0,0,0,0,1,0,0,0,0,0,0,1,1,1,1,0,0,0,1,1,1,1,0,0,0,0,0,0,0,0,0,0,0,0,0,0,0,0,0,0,0,0,0,0,1,1,0,0,0,0,0,0,0,0,0,1,1,1,0,0,0,0,0,0,0,0,0,0,0,1,
0,0,0,0,0,0,0,0,0,0,0,0,0,0,0,1,0,0,0,0,0,0,0,0,0,0,0,0,0,0,1,0,0,0,0,0,0,0,0,0,1,0,0,0,0,0,0,0,0,0,0,0,0,0,0,0,0,0,0,0,0,1,0,0,0,0,0,0,0,0,1,0,0,0,0,0,0,0,0,0,0,0,1,1,1,1,1,1,1,1,1,1,1,1,1,1,
0,0,0,0,0,0,0,0,0,0,0,0,0,0,0,0,0,0,0,0,0,0,0,0,0,0,0,0,0,0,1,0,0,0,0,0,0,1,1,1,1,0,0,0,0,0,0,0,0,0,0,0,0,0,0,0,0,0,0,0,0,0,0,0,0,0,0,0,0,0,1,0,0,0,0,0,0,0,0,0,0,0,1,1,0,0,0,0,0,0,0,1,0,0,0,1,
0,0,0,0,0,0,0,0,0,0,0,0,0,0,0,0,0,0,0,0,0,0,0,0,0,0,0,0,0,0,1,0,0,0,0,0,0,1,1,1,1,0,0,0,0,0,0,0,0,0,0,0,0,0,0,0,0,0,0,0,0,0,0,0,0,0,0,0,0,0,1,1,0,0,0,0,0,0,0,0,0,1,1,1,0,0,0,0,0,0,0,1,0,0,0,0,
0,0,0,0,0,0,0,0,0,0,0,0,0,0,0,0,0,0,0,0,0,0,0,0,0,0,0,0,0,0,0,0,0,0,0,0,0,0,0,0,0,0,0,0,0,0,0,0,0,0,0,0,0,0,0,0,0,0,0,0,0,0,0,0,0,0,0,0,0,0,1,0,0,1,0,0,0,0,0,1,0,0,1,1,0,0,0,0,0,1,0,0,0,0,0,0,
0,0,0,0,0,0,0,0,0,1,0,0,0,0,0,0,0,0,0,0,0,0,0,0,0,0,0,0,0,0,0,0,0,0,0,0,0,0,0,0,0,0,0,0,0,0,0,0,0,0,0,0,0,0,0,0,0,0,0,0,0,0,0,0,0,0,0,0,0,0,1,1,1,1,1,1,1,1,1,1,1,1,1,1,0,0,0,0,0,0,0,0,0,0,0,0,
0,0,0,0,0,0,0,0,0,1,0,0,0,0,0,0,0,0,0,0,0,0,0,0,0,0,0,0,0,0,0,0,0,0,0,0,0,0,0,0,0,0,0,0,0,0,0,0,0,0,0,0,0,0,0,0,0,0,0,0,0,0,0,0,0,0,0,0,0,0,0,0,0,1,1,1,1,1,1,1,1,1,1,1,0,0,0,0,0,0,0,0,0,0,0,0,
0,0,0,0,0,0,0,0,0,1,0,0,0,0,0,0,0,0,0,0,0,0,0,0,0,0,0,0,0,0,0,0,0,0,0,0,0,0,0,0,0,0,0,0,0,0,0,0,0,0,0,0,0,0,0,0,0,0,0,0,0,0,0,0,1,0,0,0,0,0,0,0,0,1,0,0,0,0,0,0,0,0,0,0,0,0,0,0,0,0,0,0,0,0,0,0,
0,0,0,0,0,0,0,0,0,1,0,0,0,0,0,0,0,0,0,0,0,0,0,0,0,0,0,0,0,0,0,0,0,0,0,0,0,0,0,0,0,0,0,0,0,0,0,0,0,0,0,0,0,0,0,0,0,0,0,0,0,0,0,0,0,0,0,0,0,0,0,0,0,1,0,0,0,0,0,1,0,0,0,0,0,0,0,0,0,0,0,0,0,0,0,0,
0,0,0,0,0,0,0,0,0,0,0,0,0,0,0,0,0,0,0,0,0,0,0,0,0,0,0,0,0,0,0,0,0,0,0,0,0,0,0,0,0,0,0,0,0,0,0,0,0,0,0,0,0,0,0,0,0,0,0,0,0,0,0,0,0,0,0,0,0,0,0,0,0,1,0,0,0,0,0,0,0,0,0,0,0,0,0,0,0,0,0,0,0,0,0,0,
0,0,0,0,0,0,0,0,0,0,0,0,0,1,0,0,0,0,0,0,0,0,0,0,0,0,0,0,0,0,0,0,0,0,0,0,0,0,0,0,0,0,0,0,0,0,0,0,0,0,0,0,0,0,0,0,0,0,0,0,0,0,0,0,0,0,0,0,0,0,0,0,0,1,0,0,0,0,0,0,0,0,0,0,0,0,0,0,0,0,0,0,0,0,0,0,
0,0,0,1,0,0,0,0,0,0,0,0,0,0,0,0,0,0,0,0,0,0,0,0,0,0,0,0,0,0,0,0,0,0,0,0,0,0,0,0,0,0,0,0,0,0,0,0,0,0,0,0,0,0,0,0,0,0,0,0,0,0,0,0,0,0,0,0,0,0,0,0,0,1,0,0,0,0,0,0,0,0,0,0,0,0,0,0,0,0,0,0,0,0,0,0,
0,0,0,0,0,0,0,0,0,0,0,0,0,0,0,0,0,0,0,0,0,0,0,0,0,0,0,0,0,0,0,0,0,0,0,0,0,0,0,0,0,0,0,0,0,0,0,0,0,0,0,0,0,0,0,0,0,0,0,0,0,0,0,0,0,0,0,0,0,0,0,0,0,1,0,0,0,0,0,0,0,0,0,0,0,0,0,0,0,0,0,0,0,0,0,0,
0,0,0,0,0,0,0,0,0,0,0,0,0,0,0,0,0,0,0,0,0,0,0,0,0,0,0,0,0,1,0,0,0,0,0,0,0,0,0,0,0,0,0,0,0,0,0,0,0,0,0,0,0,0,0,0,0,0,0,0,0,0,0,0,0,0,0,0,0,0,0,0,0,1,0,0,0,0,0,0,0,0,0,0,0,0,0,0,0,0,0,0,0,0,0,0,
0,0,0,0,0,0,0,0,0,0,0,0,0,0,0,0,0,0,0,0,0,0,0,0,0,0,0,0,0,1,0,0,0,0,0,0,0,0,0,0,0,0,0,0,0,0,0,0,0,0,0,0,0,0,0,0,1,1,1,1,1,1,0,0,0,0,0,0,0,0,0,0,0,1,0,0,0,0,0,0,0,0,0,0,0,0,0,0,0,0,0,0,0,0,0,0,
0,0,0,0,0,0,0,0,0,0,0,0,0,0,0,0,0,0,0,0,0,0,0,0,0,0,0,0,0,1,0,0,0,0,0,0,0,0,0,0,0,0,0,0,0,0,0,0,0,0,0,0,0,0,0,0,0,0,0,0,0,0,0,0,0,0,0,0,0,0,0,0,0,1,0,0,0,0,0,0,0,0,0,0,0,0,0,0,0,0,0,0,0,0,0,0,
0,0,0,0,0,0,0,0,0,0,0,0,0,0,0,0,0,0,0,0,0,0,0,0,0,0,0,0,0,1,0,0,0,0,0,1,0,0,0,0,0,0,1,0,0,0,0,0,0,0,0,0,0,0,1,0,0,0,0,0,0,0,0,0,1,1,1,1,1,1,1,1,1,1,0,0,0,0,0,0,0,0,0,0,0,0,0,0,0,0,0,0,0,0,0,0
</data>
 </layer>
 <objectgroup id="4" name="Spawns">
  <object id="1" name="player_spawn" type="player_spawn" x="1536" y="1536" width="32" height="32"/>
 </objectgroup>
</map>
